;FLAVOR:Marlin
;TIME:3601
;Filament used: 3.24818m
;Layer height: 0.28
;MINX:88.5
;MINY:68.705
;MINZ:0.28
;MAXX:130.972
;MAXY:148.972
;MAXZ:32.12
;Generated with Cura_SteamEngine 5.4.0
M82 ;absolute extrusion mode
; Ender 3 S1 Pro Start G-code
M413 S0 ; Disable power loss recovery
G92 E0 ; Reset Extruder
; Prep surfaces before auto home for better accuracy
M140 S60
M104 S200

G28 O ; Home all untrusted axes
M420 S1 Z10 ; use bed leveling
G1 Z10.0 F3000 ; Move Z Axis up little to prevent scratching of Heat Bed
G1 X0 Y0

M190 S60
M109 S200

G1 X0.1 Y20 Z0.3 F5000.0 ; Move to start position
G1 X0.1 Y200.0 Z0.3 F1500.0 E15 ; Draw the first line
G1 X0.4 Y200.0 Z0.3 F5000.0 ; Move to side a little
G1 X0.4 Y20 Z0.3 F1500.0 E30 ; Draw the second line
G92 E0 ; Reset Extruder
G1 Z2.0 F3000 ; Move Z Axis up little to prevent scratching of Heat Bed
G1 X5 Y20 Z0.3 F5000.0 ; Move over to prevent blob squish
G92 E0
G92 E0
G1 F2400 E-0.8
;LAYER_COUNT:114
;LAYER:0
M107
M204 S2000
G1 F300 Z0.48
G0 F7500 X90.66 Y75.536 Z0.48
M204 S500
;TYPE:SKIRT
G1 F300 Z0.28
G1 F2400 E0
G1 F1500 X92.102 Y73.924 E0.10071
G1 X93.467 Y72.719 E0.18549
G1 X95.428 Y71.7 E0.2884
G1 X97.813 Y71.026 E0.4038
G1 X110.491 Y71.028 E0.99414
G1 X112.505 Y69.795 E1.1041
G1 X113.941 Y69.126 E1.17787
G1 X116.167 Y68.705 E1.28336
G1 X119.286 Y68.732 E1.4286
G1 X120.339 Y68.887 E1.47816
G1 X122.725 Y69.839 E1.59778
G1 X124.286 Y70.941 E1.68675
G1 X125.728 Y72.239 E1.77709
G1 X125.86 Y72.388 E1.78636
G1 X126.82 Y72.937 E1.83786
G1 X128.306 Y74.269 E1.93078
G1 X129.607 Y76.021 E2.0324
G1 X130.514 Y78.005 E2.13398
G1 X130.972 Y80.324 E2.24404
G1 X130.97 Y103.992 E3.34612
G1 X130.398 Y106.39 E3.46092
G1 X129.799 Y107.702 E3.52808
G1 X128.327 Y109.634 E3.64117
G1 X126.747 Y111.24 E3.74608
G1 X123.973 Y112.547 E3.88887
G1 X123.872 Y140.252 E5.17894
G1 X123.487 Y142.409 E5.28096
G1 X122.024 Y144.9 E5.41548
G1 X120.378 Y146.639 E5.52698
G1 X118.114 Y148.155 E5.65385
G1 X115.228 Y148.972 E5.79352
G1 X98.176 Y148.971 E6.58753
G1 X96.029 Y148.53 E6.68959
G1 X93.705 Y147.448 E6.80896
G1 X91.952 Y145.944 E6.91651
G1 X90.725 Y144.545 E7.00316
G1 X89.699 Y142.572 E7.10671
G1 X89.026 Y140.18 E7.22242
G1 X89.028 Y88.775 E9.61605
G1 X88.765 Y88.316 E9.64068
G1 X88.51 Y86.036 E9.74751
G1 X88.52 Y84.128 E9.83635
G1 X88.554 Y83.508 E9.86527
G1 X88.548 Y83.197 E9.87975
G1 X88.516 Y82.823 E9.89723
G1 X88.5 Y80.34 E10.01285
G1 X88.941 Y78.517 E10.10019
G1 X90 Y76.469 E10.20754
G1 X90.378 Y76.111 E10.23179
G1 X90.66 Y75.536 E10.26161
M204 S2000
G0 F7500 X90.995 Y75.76
M204 S500
G1 F1500 X92.367 Y74.224 E10.35751
G1 X93.696 Y73.05 E10.44008
G1 X95.575 Y72.074 E10.53867
G1 X97.869 Y71.426 E10.64967
G1 X110.604 Y71.428 E11.24267
G1 X112.674 Y70.158 E11.35575
G1 X114.067 Y69.509 E11.42731
G1 X116.202 Y69.105 E11.52849
G1 X119.228 Y69.128 E11.66939
G1 X120.234 Y69.276 E11.71674
G1 X122.533 Y70.193 E11.83199
G1 X124.055 Y71.268 E11.91876
G1 X125.428 Y72.504 E12.00478
G1 X125.602 Y72.701 E12.01702
G1 X126.582 Y73.261 E12.06958
G1 X128.011 Y74.542 E12.15894
G1 X129.26 Y76.224 E12.25649
G1 X130.132 Y78.131 E12.35413
G1 X130.572 Y80.36 E12.45993
G1 X130.57 Y103.945 E13.55815
G1 X130.018 Y106.259 E13.66892
G1 X129.453 Y107.497 E13.73228
G1 X128.042 Y109.353 E13.84085
G1 X126.512 Y110.908 E13.94243
G1 X123.934 Y112.123 E14.07513
G1 X123.574 Y112.198 E14.09226
G1 X123.478 Y140.182 E15.39532
G1 X123.105 Y142.269 E15.49403
G1 X121.702 Y144.659 E15.62308
G1 X120.119 Y146.331 E15.7303
G1 X117.945 Y147.787 E15.85213
G1 X115.172 Y148.572 E15.98633
G1 X98.217 Y148.571 E16.77582
G1 X96.157 Y148.148 E16.87375
G1 X93.923 Y147.108 E16.98849
G1 X92.253 Y145.68 E17.09081
G1 X91.058 Y144.317 E17.17521
G1 X90.072 Y142.422 E17.27468
G1 X89.426 Y140.125 E17.38579
G1 X89.428 Y88.668 E19.78184
G1 X89.154 Y88.19 E19.8075
G1 X88.908 Y85.992 E19.91048
G1 X88.919 Y84.15 E19.99626
G1 X88.954 Y83.509 E20.02615
G1 X88.948 Y83.171 E20.04189
G1 X88.915 Y82.789 E20.05974
G1 X88.9 Y80.387 E20.17159
G1 X89.319 Y78.657 E20.25448
G1 X90.324 Y76.712 E20.35642
G1 X90.705 Y76.351 E20.38086
G1 X90.995 Y75.76 E20.41152
M204 S2000
G0 F7500 X91.329 Y75.987
M204 S500
G1 F1500 X92.632 Y74.524 E20.50274
G1 X93.925 Y73.381 E20.5831
G1 X95.722 Y72.448 E20.67738
G1 X97.925 Y71.826 E20.78397
G1 X110.775 Y71.828 E21.38232
G1 X110.922 Y71.703 E21.39131
G1 X112.843 Y70.521 E21.49633
G1 X114.193 Y69.892 E21.56568
G1 X116.237 Y69.505 E21.66255
G1 X119.17 Y69.524 E21.79913
G1 X120.129 Y69.665 E21.84426
G1 X122.341 Y70.547 E21.95515
G1 X123.824 Y71.595 E22.03971
G1 X125.16 Y72.801 E22.12351
G1 X125.343 Y73.013 E22.13655
G1 X126.344 Y73.585 E22.19024
G1 X127.716 Y74.815 E22.27604
G1 X128.913 Y76.427 E22.36953
G1 X129.749 Y78.256 E22.46317
G1 X130.172 Y80.397 E22.56479
G1 X130.17 Y103.898 E23.6591
G1 X129.638 Y106.128 E23.76585
G1 X129.108 Y107.289 E23.82528
G1 X127.757 Y109.072 E23.92944
G1 X126.277 Y110.576 E24.0277
G1 X123.806 Y111.741 E24.1549
G1 X123.175 Y111.872 E24.18491
G1 X123.084 Y140.112 E25.49989
G1 X122.724 Y142.128 E25.59525
G1 X121.38 Y144.417 E25.71885
G1 X119.858 Y146.025 E25.82195
G1 X117.776 Y147.419 E25.93862
G1 X115.116 Y148.172 E26.06735
G1 X98.258 Y148.171 E26.85233
G1 X96.285 Y147.766 E26.94611
G1 X94.138 Y146.766 E27.0564
G1 X92.554 Y145.416 E27.15331
G1 X91.389 Y144.088 E27.23557
G1 X90.446 Y142.274 E27.33077
G1 X89.826 Y140.07 E27.43738
G1 X89.828 Y88.561 E29.83585
G1 X89.543 Y88.064 E29.86253
G1 X89.306 Y85.947 E29.96172
G1 X89.318 Y84.172 E30.04438
G1 X89.354 Y83.51 E30.07525
G1 X89.348 Y83.164 E30.09136
G1 X89.315 Y82.786 E30.10903
G1 X89.3 Y80.434 E30.21855
G1 X89.697 Y78.797 E30.29698
G1 X90.647 Y76.957 E30.39341
G1 X91.032 Y76.593 E30.41808
G1 X91.329 Y75.987 E30.4495
M204 S2000
G0 F7500 X91.663 Y76.213
M204 S500
G1 F1500 X92.931 Y74.79 E30.53825
G1 X94.152 Y73.714 E30.61404
G1 X95.869 Y72.822 E30.70413
G1 X97.981 Y72.226 E30.80632
G1 X110.93 Y72.228 E31.40928
G1 X111.132 Y72.043 E31.42203
G1 X113.012 Y70.884 E31.52487
G1 X114.319 Y70.275 E31.59201
G1 X116.273 Y69.905 E31.68462
G1 X119.112 Y69.92 E31.81681
G1 X120.024 Y70.054 E31.85974
G1 X122.149 Y70.901 E31.96625
G1 X123.593 Y71.922 E32.0486
G1 X124.892 Y73.098 E32.1302
G1 X125.085 Y73.326 E32.1441
G1 X126.108 Y73.911 E32.19898
G1 X127.421 Y75.088 E32.28109
G1 X128.566 Y76.63 E32.37052
G1 X129.367 Y78.382 E32.46022
G1 X129.772 Y80.433 E32.55757
G1 X129.77 Y103.851 E33.64801
G1 X129.258 Y105.997 E33.75074
G1 X128.762 Y107.084 E33.80638
G1 X127.472 Y108.791 E33.906
G1 X126.042 Y110.244 E34.00093
G1 X123.679 Y111.358 E34.12258
G1 X122.776 Y111.546 E34.16553
G1 X122.69 Y140.042 E35.49243
G1 X122.343 Y141.987 E35.58442
G1 X121.057 Y144.177 E35.70268
G1 X119.599 Y145.717 E35.80143
G1 X117.607 Y147.051 E35.91306
G1 X115.06 Y147.772 E36.03632
G1 X98.3 Y147.771 E36.81674
G1 X96.412 Y147.383 E36.90649
G1 X94.355 Y146.426 E37.01213
G1 X92.855 Y145.152 E37.10377
G1 X91.722 Y143.86 E37.18379
G1 X90.819 Y142.124 E37.2749
G1 X90.226 Y140.015 E37.37692
G1 X90.228 Y88.454 E39.77781
G1 X89.932 Y87.938 E39.80551
G1 X89.704 Y85.902 E39.90091
G1 X89.717 Y84.194 E39.98044
G1 X89.754 Y83.511 E40.01229
G1 X89.748 Y83.149 E40.02915
G1 X89.715 Y82.783 E40.04626
G1 X89.7 Y80.481 E40.15346
G1 X90.075 Y78.935 E40.22753
G1 X90.969 Y77.203 E40.31829
G1 X91.358 Y76.835 E40.34322
G1 X91.663 Y76.213 E40.37548
M204 S2000
G0 F7500 X91.997 Y76.439
M204 S500
G1 F1500 X93.196 Y75.09 E40.45952
G1 X94.381 Y74.045 E40.53309
G1 X96.016 Y73.196 E40.61888
G1 X98.037 Y72.626 E40.71665
G1 X111.095 Y72.628 E41.32469
G1 X111.342 Y72.383 E41.34089
G1 X113.181 Y71.247 E41.44154
G1 X114.445 Y70.658 E41.50647
G1 X116.309 Y70.305 E41.59481
G1 X119.054 Y70.316 E41.72263
G1 X119.919 Y70.443 E41.76334
G1 X121.959 Y71.256 E41.8656
G1 X123.325 Y72.219 E41.94342
G1 X124.624 Y73.395 E42.02502
G1 X124.822 Y73.636 E42.03954
G1 X125.87 Y74.235 E42.09575
G1 X127.126 Y75.361 E42.17429
G1 X128.219 Y76.833 E42.25966
G1 X128.985 Y78.508 E42.34543
G1 X129.372 Y80.469 E42.4385
G1 X129.37 Y103.804 E43.52508
G1 X128.878 Y105.866 E43.62379
G1 X128.417 Y106.876 E43.67549
G1 X127.187 Y108.51 E43.77072
G1 X125.807 Y109.912 E43.86232
G1 X123.551 Y110.976 E43.97847
G1 X122.377 Y111.22 E44.0343
G1 X122.296 Y139.972 E45.37312
G1 X121.962 Y141.846 E45.46176
G1 X120.735 Y143.935 E45.57457
G1 X119.338 Y145.411 E45.6692
G1 X117.438 Y146.683 E45.77567
G1 X115.004 Y147.372 E45.89346
G1 X98.341 Y147.371 E46.66936
G1 X96.54 Y147.001 E46.75497
G1 X94.57 Y146.084 E46.85615
G1 X93.156 Y144.888 E46.94239
G1 X92.053 Y143.631 E47.02026
G1 X91.193 Y141.976 E47.10711
G1 X90.626 Y139.96 E47.20462
G1 X90.628 Y88.347 E49.60794
G1 X90.321 Y87.812 E49.63666
G1 X90.102 Y85.857 E49.72826
G1 X90.116 Y84.216 E49.80468
G1 X90.154 Y83.512 E49.83751
G1 X90.148 Y83.13 E49.8553
G1 X90.115 Y82.78 E49.87167
G1 X90.1 Y80.528 E49.97653
G1 X90.453 Y79.073 E50.04625
G1 X91.292 Y77.447 E50.13145
G1 X91.685 Y77.075 E50.15664
G1 X91.997 Y76.439 E50.18963
M204 S2000
G0 F7500 X92.331 Y76.665
M204 S500
G1 F1500 X93.495 Y75.356 E50.2712
G1 X94.608 Y74.378 E50.34019
G1 X96.163 Y73.57 E50.42179
G1 X98.093 Y73.026 E50.51516
G1 X111.268 Y73.028 E51.12864
G1 X111.553 Y72.723 E51.14808
G1 X113.35 Y71.61 E51.2465
G1 X114.571 Y71.041 E51.30923
G1 X116.345 Y70.705 E51.3933
G1 X119.052 Y70.716 E51.51935
G1 X119.811 Y70.831 E51.5551
G1 X121.767 Y71.61 E51.65313
G1 X123.094 Y72.546 E51.72875
G1 X124.355 Y73.691 E51.80806
G1 X124.555 Y73.944 E51.82308
G1 X125.632 Y74.559 E51.88083
G1 X126.831 Y75.634 E51.95581
G1 X127.872 Y77.036 E52.03712
G1 X128.602 Y78.633 E52.11889
G1 X128.972 Y80.506 E52.20779
G1 X128.97 Y103.757 E53.29045
G1 X128.498 Y105.735 E53.38514
G1 X128.071 Y106.67 E53.433
G1 X126.902 Y108.229 E53.52374
G1 X125.572 Y109.58 E53.61202
G1 X123.424 Y110.593 E53.7226
G1 X121.978 Y110.894 E53.79138
G1 X121.902 Y139.902 E55.14212
G1 X121.58 Y141.706 E55.22744
G1 X120.413 Y143.694 E55.33479
G1 X119.079 Y145.103 E55.42513
G1 X117.269 Y146.315 E55.52657
G1 X114.948 Y146.972 E55.63889
G1 X98.382 Y146.971 E56.41027
G1 X96.668 Y146.619 E56.49175
G1 X94.787 Y145.743 E56.58837
G1 X93.457 Y144.624 E56.6693
G1 X92.386 Y143.403 E56.74493
G1 X91.566 Y141.826 E56.82769
G1 X91.026 Y139.905 E56.92061
G1 X91.028 Y88.24 E59.32635
G1 X90.71 Y87.686 E59.35609
G1 X90.5 Y85.812 E59.4439
G1 X90.515 Y84.237 E59.51724
G1 X90.554 Y83.506 E59.55133
G1 X90.548 Y83.108 E59.56986
G1 X90.515 Y82.777 E59.58535
G1 X90.5 Y80.575 E59.68789
G1 X90.831 Y79.211 E59.75325
G1 X91.615 Y77.691 E59.83289
G1 X92.012 Y77.315 E59.85835
G1 X92.331 Y76.665 E59.89206
M204 S2000
G0 F7500 X92.666 Y76.889
M204 S500
G1 F1500 X93.759 Y75.657 E59.96875
G1 X94.836 Y74.711 E60.0355
G1 X96.313 Y73.943 E60.11302
G1 X98.148 Y73.426 E60.20179
G1 X111.443 Y73.428 E60.82086
G1 X111.81 Y73.034 E60.84593
G1 X113.519 Y71.973 E60.9396
G1 X114.697 Y71.424 E61.00012
G1 X116.381 Y71.105 E61.07992
G1 X118.992 Y71.112 E61.2015
G1 X119.706 Y71.22 E61.23513
G1 X121.575 Y71.964 E61.3288
G1 X122.863 Y72.873 E61.40221
G1 X124.086 Y73.987 E61.47924
G1 X124.286 Y74.25 E61.49462
G1 X125.394 Y74.883 E61.55404
G1 X126.536 Y75.907 E61.62546
G1 X127.525 Y77.239 E61.70272
G1 X128.22 Y78.759 E61.78054
G1 X128.572 Y80.542 E61.86517
G1 X128.57 Y103.71 E62.94397
G1 X128.118 Y105.604 E63.03464
G1 X127.724 Y106.467 E63.07881
G1 X126.617 Y107.948 E63.16491
G1 X125.337 Y109.248 E63.24986
G1 X123.296 Y110.211 E63.35494
G1 X121.579 Y110.568 E63.4366
G1 X121.508 Y139.832 E64.79926
G1 X121.198 Y141.566 E64.88129
G1 X120.091 Y143.453 E64.98316
G1 X118.82 Y144.795 E65.06922
G1 X117.1 Y145.947 E65.16562
G1 X114.892 Y146.572 E65.27247
G1 X98.423 Y146.571 E66.03934
G1 X96.796 Y146.237 E66.11668
G1 X95.004 Y145.402 E66.20873
G1 X93.758 Y144.36 E66.28437
G1 X92.719 Y143.175 E66.35775
G1 X91.939 Y141.676 E66.43643
G1 X91.426 Y139.85 E66.52475
G1 X91.428 Y88.133 E68.93291
G1 X91.098 Y87.558 E68.96378
G1 X90.9 Y85.816 E69.04542
G1 X90.914 Y84.258 E69.11797
G1 X90.954 Y83.5 E69.15332
G1 X90.948 Y83.081 E69.17283
G1 X90.915 Y82.774 E69.18721
G1 X90.9 Y80.623 E69.28737
G1 X91.21 Y79.348 E69.34847
G1 X91.939 Y77.935 E69.4225
G1 X92.34 Y77.555 E69.44823
G1 X92.666 Y76.889 E69.48275
M204 S2000
G0 F7500 X92.999 Y77.116
M204 S500
G1 F1500 X94.023 Y75.958 E69.55473
G1 X95.064 Y75.044 E69.61924
G1 X96.462 Y74.317 E69.69261
G1 X98.204 Y73.826 E69.77689
G1 X111.616 Y73.828 E70.40141
G1 X112.065 Y73.347 E70.43205
G1 X113.688 Y72.336 E70.52108
G1 X114.823 Y71.807 E70.57939
G1 X116.418 Y71.505 E70.65498
G1 X118.932 Y71.508 E70.77204
G1 X119.601 Y71.609 E70.80355
G1 X121.385 Y72.319 E70.89295
G1 X122.594 Y73.169 E70.96177
G1 X123.817 Y74.283 E71.0388
G1 X124.013 Y74.554 E71.05438
G1 X125.156 Y75.207 E71.11567
G1 X126.241 Y76.18 E71.18353
G1 X127.178 Y77.442 E71.25673
G1 X127.838 Y78.885 E71.33061
G1 X128.172 Y80.578 E71.41096
G1 X128.17 Y103.663 E72.4859
G1 X127.738 Y105.473 E72.57255
G1 X127.378 Y106.261 E72.61289
G1 X126.332 Y107.667 E72.69449
G1 X125.102 Y108.916 E72.77611
G1 X123.166 Y109.83 E72.8758
G1 X121.551 Y110.171 E72.95266
G1 X121.18 Y110.171 E72.96994
G1 X121.114 Y139.762 E74.34782
G1 X120.817 Y141.425 E74.42648
G1 X119.767 Y143.213 E74.52303
G1 X118.561 Y144.487 E74.60472
G1 X116.931 Y145.579 E74.69608
G1 X114.836 Y146.172 E74.79746
G1 X98.464 Y146.171 E75.55981
G1 X96.924 Y145.855 E75.63302
G1 X95.221 Y145.061 E75.72051
G1 X94.059 Y144.096 E75.79084
G1 X93.05 Y142.946 E75.86208
G1 X92.313 Y141.528 E75.9365
G1 X91.826 Y139.795 E76.02032
G1 X91.828 Y88.026 E78.4309
G1 X91.486 Y87.43 E78.46289
G1 X91.3 Y85.819 E78.53841
G1 X91.313 Y84.279 E78.61012
G1 X91.354 Y83.495 E78.64668
G1 X91.348 Y83.054 E78.66721
G1 X91.313 Y82.731 E78.68234
G1 X91.3 Y80.671 E78.77826
G1 X91.589 Y79.485 E78.83511
G1 X92.263 Y78.179 E78.90354
G1 X92.667 Y77.796 E78.92946
G1 X92.999 Y77.116 E78.9647
M204 S2000
G0 F7500 X93.335 Y77.34
M204 S500
G1 F1500 X94.287 Y76.259 E79.03177
G1 X95.292 Y75.377 E79.09403
G1 X96.612 Y74.69 E79.16332
G1 X98.259 Y74.226 E79.243
G1 X111.789 Y74.228 E79.87301
G1 X112.321 Y73.659 E79.90929
G1 X113.857 Y72.699 E79.99363
G1 X114.949 Y72.19 E80.04973
G1 X116.455 Y71.905 E80.1211
G1 X118.872 Y71.904 E80.23365
G1 X119.496 Y71.998 E80.26303
G1 X121.195 Y72.674 E80.34817
G1 X122.325 Y73.465 E80.4124
G1 X123.548 Y74.579 E80.48943
G1 X123.733 Y74.854 E80.50487
G1 X124.918 Y75.531 E80.56842
G1 X125.946 Y76.453 E80.63272
G1 X126.831 Y77.645 E80.70185
G1 X127.455 Y79.01 E80.77173
G1 X127.772 Y80.615 E80.84791
G1 X127.77 Y103.616 E81.91893
G1 X127.358 Y105.342 E82.00156
G1 X127.031 Y106.058 E82.03821
G1 X126.047 Y107.386 E82.11518
G1 X124.867 Y108.584 E82.19348
G1 X123.035 Y109.449 E82.28781
G1 X121.511 Y109.771 E82.36034
G1 X120.781 Y109.772 E82.39434
G1 X120.72 Y139.692 E83.78754
G1 X120.436 Y141.284 E83.86284
G1 X119.445 Y142.971 E83.95394
G1 X118.3 Y144.181 E84.03151
G1 X116.762 Y145.211 E84.11771
G1 X114.78 Y145.772 E84.21362
G1 X98.506 Y145.771 E84.97141
G1 X97.051 Y145.472 E85.04057
G1 X95.437 Y144.72 E85.12349
G1 X94.315 Y143.788 E85.1914
G1 X93.381 Y142.716 E85.25761
G1 X92.687 Y141.38 E85.32771
G1 X92.226 Y139.74 E85.40704
G1 X92.228 Y87.92 E87.81999
G1 X91.874 Y87.302 E87.85316
G1 X91.7 Y85.822 E87.92255
G1 X91.712 Y84.3 E87.99342
G1 X91.754 Y83.49 E88.03119
G1 X91.748 Y83.027 E88.05275
G1 X91.711 Y82.688 E88.06863
G1 X91.7 Y80.72 E88.16027
G1 X91.968 Y79.622 E88.2129
G1 X92.587 Y78.423 E88.27573
G1 X92.995 Y78.036 E88.30191
G1 X93.335 Y77.34 E88.33798
M204 S2000
G0 F7500 X93.67 Y77.566
M204 S500
G1 F1500 X94.551 Y76.56 E88.40025
G1 X95.52 Y75.71 E88.46027
G1 X96.761 Y75.064 E88.52542
G1 X98.315 Y74.626 E88.6006
G1 X112.001 Y74.628 E89.23787
G1 X112.153 Y74.424 E89.24972
G1 X112.576 Y73.972 E89.27854
G1 X114.026 Y73.062 E89.35826
G1 X115.074 Y72.574 E89.41209
G1 X116.493 Y72.305 E89.47934
G1 X118.872 Y72.304 E89.59012
G1 X119.389 Y72.386 E89.61449
G1 X121.003 Y73.028 E89.69537
G1 X122.095 Y73.793 E89.75746
G1 X123.278 Y74.874 E89.83208
G1 X123.469 Y75.187 E89.84915
G1 X123.622 Y75.251 E89.85687
G1 X124.682 Y75.857 E89.91373
G1 X125.651 Y76.726 E89.97433
G1 X126.484 Y77.848 E90.0394
G1 X127.072 Y79.135 E90.10529
G1 X127.372 Y80.653 E90.17734
G1 X127.37 Y103.569 E91.24441
