;FLAVOR:Marlin
;TIME:4001
;Filament used: 1.66571m
;Layer height: 0.12
;MINX:79.392
;MINY:78.843
;MINZ:0.12
;MAXX:140.608
;MAXY:141.157
;MAXZ:9.2
;TARGET_MACHINE.NAME:Creality Ender-3 S1 Pro
;Generated with Cura_SteamEngine 5.6.0
M82 ;absolute extrusion mode
; Ender 3 S1 Pro Start G-code
M413 S0 ; Disable power loss recovery
G92 E0 ; Reset Extruder
; Prep surfaces before auto home for better accuracy
M140 S65
M104 S205
G28 X Y; always home X and Y
G28 O ; Home all untrusted axes
M420 S1 Z10 ; use bed leveling
G1 Z10.0 F3000 ; Move Z Axis up little to prevent scratching of Heat Bed
G1 X0 Y0

M190 S65
M109 S205

G1 X0.1 Y20 Z0.3 F5000.0 ; Move to start position
G1 X0.1 Y200.0 Z0.3 F1500.0 E15 ; Draw the first line
G1 X0.4 Y200.0 Z0.3 F5000.0 ; Move to side a little
G1 X0.4 Y20 Z0.3 F1500.0 E30 ; Draw the second line
G92 E0 ; Reset Extruder
G1 Z2.0 F3000 ; Move Z Axis up little to prevent scratching of Heat Bed
G1 X5 Y20 Z0.3 F5000.0 ; Move over to prevent blob squish
G92 E0
G92 E0
G1 F2400 E-0.8
;LAYER_COUNT:75
;LAYER:0
M107
M204 S2000
G1 F300 Z0.32
G0 F7500 X80.911 Y81.866 Z0.32
M204 S500
;TYPE:SKIRT
G1 F300 Z0.12
G1 F2400 E0
G1 F1500 X82.472 Y80.407 E0.04264
G1 X84.495 Y79.2 E0.08965
G1 X86.213 Y78.918 E0.12439
G1 X133.661 Y78.843 E1.07127
G1 X135.557 Y79.309 E1.11023
G1 X137.585 Y80.362 E1.15584
G1 X139.044 Y81.923 E1.19848
G1 X140.251 Y83.946 E1.24549
G1 X140.533 Y85.664 E1.28023
G1 X140.608 Y134.21 E2.24902
G1 X140.142 Y136.106 E2.28798
G1 X139.089 Y138.134 E2.33358
G1 X137.528 Y139.593 E2.37622
G1 X135.505 Y140.8 E2.42323
G1 X133.787 Y141.082 E2.45798
G1 X86.339 Y141.157 E3.40485
G1 X84.443 Y140.691 E3.44382
G1 X82.415 Y139.638 E3.48942
G1 X80.956 Y138.077 E3.53206
G1 X79.749 Y136.054 E3.57907
G1 X79.467 Y134.336 E3.61381
G1 X79.392 Y85.79 E4.5826
G1 X79.858 Y83.894 E4.62156
G1 X80.911 Y81.866 E4.66716
M204 S2000
G0 F7500 X81.234 Y82.111
M204 S500
G1 F1500 X82.711 Y80.731 E4.7075
G1 X84.635 Y79.583 E4.75221
G1 X86.278 Y79.313 E4.78544
G1 X133.615 Y79.243 E5.7301
G1 X135.414 Y79.685 E5.76707
G1 X137.34 Y80.685 E5.81038
G1 X138.72 Y82.162 E5.85072
G1 X139.868 Y84.086 E5.89543
G1 X140.138 Y85.729 E5.92866
G1 X140.208 Y134.164 E6.89523
G1 X139.766 Y135.963 E6.9322
G1 X138.766 Y137.889 E6.97551
G1 X137.289 Y139.269 E7.01585
G1 X135.365 Y140.417 E7.06056
G1 X133.722 Y140.687 E7.09378
G1 X86.385 Y140.757 E8.03845
G1 X84.586 Y140.315 E8.07541
G1 X82.66 Y139.315 E8.11872
G1 X81.28 Y137.838 E8.15906
G1 X80.132 Y135.914 E8.20377
G1 X79.862 Y134.271 E8.237
G1 X79.792 Y85.836 E9.20357
G1 X80.234 Y84.037 E9.24054
G1 X81.234 Y82.111 E9.28385
M204 S2000
G0 F7500 X81.557 Y82.356
M204 S500
G1 F1500 X82.953 Y81.052 E9.32197
G1 X84.773 Y79.966 E9.36427
G1 X86.343 Y79.708 E9.39602
G1 X133.568 Y79.643 E10.33844
G1 X135.272 Y80.062 E10.37346
G1 X137.095 Y81.008 E10.41445
G1 X138.399 Y82.404 E10.45257
G1 X139.485 Y84.224 E10.49486
G1 X139.743 Y85.794 E10.52662
G1 X139.808 Y134.117 E11.49095
G1 X139.389 Y135.821 E11.52597
G1 X138.443 Y137.644 E11.56696
G1 X137.047 Y138.948 E11.60508
G1 X135.227 Y140.034 E11.64738
G1 X133.657 Y140.292 E11.67913
G1 X86.432 Y140.357 E12.62155
G1 X84.728 Y139.938 E12.65657
G1 X82.905 Y138.992 E12.69756
G1 X81.601 Y137.596 E12.73568
G1 X80.515 Y135.776 E12.77798
G1 X80.257 Y134.206 E12.80973
G1 X80.192 Y85.883 E13.77407
G1 X80.611 Y84.179 E13.80908
G1 X81.557 Y82.356 E13.85007
M204 S2000
G0 F7500 X81.88 Y82.601
M204 S500
G1 F1500 X83.195 Y81.373 E13.88598
G1 X84.911 Y80.349 E13.92585
G1 X86.408 Y80.103 E13.95613
G1 X133.522 Y80.043 E14.89634
G1 X135.129 Y80.438 E14.92936
G1 X136.85 Y81.331 E14.96806
G1 X138.078 Y82.646 E15.00396
G1 X139.102 Y84.362 E15.04384
G1 X139.348 Y85.859 E15.07412
G1 X139.408 Y134.071 E16.03624
G1 X139.013 Y135.678 E16.06926
G1 X138.12 Y137.399 E16.10796
G1 X136.805 Y138.627 E16.14386
G1 X135.089 Y139.651 E16.18374
G1 X133.592 Y139.897 E16.21401
G1 X86.478 Y139.957 E17.15423
G1 X84.871 Y139.562 E17.18725
G1 X83.15 Y138.669 E17.22594
G1 X81.922 Y137.354 E17.26185
G1 X80.898 Y135.638 E17.30173
G1 X80.652 Y134.141 E17.332
G1 X80.592 Y85.929 E18.29412
G1 X80.987 Y84.322 E18.32715
G1 X81.88 Y82.601 E18.36584
M204 S2000
G0 F7500 X82.203 Y82.846
M204 S500
G1 F1500 X83.437 Y81.694 E18.39953
G1 X85.049 Y80.732 E18.43699
G1 X86.473 Y80.498 E18.46579
G1 X133.476 Y80.443 E19.40379
G1 X134.986 Y80.814 E19.43482
G1 X136.605 Y81.654 E19.47122
G1 X137.757 Y82.888 E19.5049
G1 X138.719 Y84.5 E19.54237
G1 X138.953 Y85.924 E19.57117
G1 X139.008 Y134.025 E20.53107
G1 X138.637 Y135.535 E20.5621
G1 X137.797 Y137.154 E20.5985
G1 X136.563 Y138.306 E20.63219
G1 X134.951 Y139.268 E20.66965
G1 X133.527 Y139.502 E20.69845
G1 X86.524 Y139.557 E21.63645
G1 X85.014 Y139.186 E21.66748
G1 X83.395 Y138.346 E21.70388
G1 X82.243 Y137.112 E21.73757
G1 X81.281 Y135.5 E21.77503
G1 X81.047 Y134.076 E21.80383
G1 X80.992 Y85.975 E22.76373
G1 X81.363 Y84.465 E22.79476
G1 X82.203 Y82.846 E22.83116
M204 S2000
G0 F7500 X82.526 Y83.091
M204 S500
G1 F1500 X83.679 Y82.015 E22.86264
G1 X85.187 Y81.115 E22.89768
G1 X86.538 Y80.893 E22.925
G1 X133.429 Y80.843 E23.86076
G1 X134.844 Y81.191 E23.88984
G1 X136.36 Y81.977 E23.92392
G1 X137.436 Y83.13 E23.95539
G1 X138.336 Y84.638 E23.99044
G1 X138.558 Y85.989 E24.01776
G1 X138.608 Y133.978 E24.97543
G1 X138.26 Y135.393 E25.00451
G1 X137.474 Y136.909 E25.03859
G1 X136.321 Y137.985 E25.07006
G1 X134.813 Y138.885 E25.10511
G1 X133.462 Y139.107 E25.13243
G1 X86.571 Y139.157 E26.06819
G1 X85.156 Y138.809 E26.09727
G1 X83.64 Y138.023 E26.13135
G1 X82.564 Y136.87 E26.16282
G1 X81.664 Y135.362 E26.19787
G1 X81.442 Y134.011 E26.22519
G1 X81.392 Y86.022 E27.18286
G1 X81.74 Y84.607 E27.21194
G1 X82.526 Y83.091 E27.24602
M204 S2000
G0 F7500 X82.849 Y83.336
M204 S500
G1 F1500 X83.921 Y82.336 E27.27528
G1 X85.325 Y81.498 E27.30791
G1 X86.603 Y81.288 E27.33375
G1 X133.383 Y81.243 E28.2673
G1 X134.701 Y81.567 E28.29438
G1 X136.115 Y82.3 E28.32617
G1 X137.115 Y83.372 E28.35542
G1 X137.953 Y84.776 E28.38805
G1 X138.163 Y86.054 E28.4139
G1 X138.208 Y133.932 E29.36936
G1 X137.884 Y135.25 E29.39644
G1 X137.151 Y136.664 E29.42823
G1 X136.079 Y137.664 E29.45748
G1 X134.675 Y138.502 E29.49011
G1 X133.397 Y138.712 E29.51596
G1 X86.617 Y138.757 E30.4495
G1 X85.299 Y138.433 E30.47659
G1 X83.885 Y137.7 E30.50837
G1 X82.885 Y136.628 E30.53763
G1 X82.047 Y135.224 E30.57026
G1 X81.837 Y133.946 E30.5961
G1 X81.792 Y86.068 E31.55156
G1 X82.116 Y84.75 E31.57865
G1 X82.849 Y83.336 E31.61043
M204 S2000
G0 F7500 X83.171 Y83.583
M204 S500
G1 F1500 X84.166 Y82.655 E31.63758
G1 X85.463 Y81.881 E31.66772
G1 X86.668 Y81.683 E31.69209
G1 X133.337 Y81.643 E32.62342
G1 X134.558 Y81.943 E32.64852
G1 X135.868 Y82.622 E32.67796
G1 X136.796 Y83.617 E32.70511
G1 X137.57 Y84.914 E32.73525
G1 X137.768 Y86.119 E32.75962
G1 X137.808 Y133.886 E33.71287
G1 X137.508 Y135.107 E33.73796
G1 X136.829 Y136.417 E33.7674
G1 X135.834 Y137.345 E33.79456
G1 X134.537 Y138.119 E33.8247
G1 X133.332 Y138.317 E33.84907
G1 X86.663 Y138.357 E34.7804
G1 X85.442 Y138.057 E34.80549
G1 X84.132 Y137.378 E34.83493
G1 X83.204 Y136.383 E34.86209
G1 X82.43 Y135.086 E34.89223
G1 X82.232 Y133.881 E34.9166
G1 X82.192 Y86.114 E35.86984
G1 X82.492 Y84.893 E35.89493
G1 X83.171 Y83.583 E35.92438
M204 S2000
G0 F7500 X83.493 Y83.83
M204 S500
G1 F1500 X84.408 Y82.977 E35.94934
G1 X85.603 Y82.264 E35.97711
G1 X86.733 Y82.078 E35.99996
G1 X133.291 Y82.043 E36.92908
G1 X134.415 Y82.319 E36.95218
G1 X135.621 Y82.944 E36.97928
G1 X136.474 Y83.859 E37.00425
G1 X137.187 Y85.054 E37.03202
G1 X137.373 Y86.184 E37.05487
G1 X137.408 Y133.84 E38.0059
G1 X137.132 Y134.964 E38.02899
G1 X136.507 Y136.17 E38.0561
G1 X135.592 Y137.023 E38.08106
G1 X134.397 Y137.736 E38.10883
G1 X133.267 Y137.922 E38.13169
G1 X86.709 Y137.957 E39.0608
G1 X85.585 Y137.681 E39.0839
G1 X84.379 Y137.056 E39.11101
G1 X83.526 Y136.141 E39.13597
G1 X82.813 Y134.946 E39.16374
G1 X82.627 Y133.816 E39.18659
G1 X82.592 Y86.16 E40.13762
G1 X82.868 Y85.036 E40.16072
G1 X83.493 Y83.83 E40.18783
M204 S2000
G0 F7500 X83.815 Y84.077
M204 S500
G1 F1500 X84.65 Y83.299 E40.2106
G1 X85.743 Y82.647 E40.236
G1 X86.798 Y82.473 E40.25734
G1 X133.244 Y82.443 E41.18422
G1 X134.273 Y82.696 E41.20536
G1 X135.374 Y83.266 E41.23011
G1 X136.152 Y84.101 E41.25288
G1 X136.804 Y85.194 E41.27828
G1 X136.978 Y86.249 E41.29962
G1 X137.008 Y133.793 E42.24841
G1 X136.755 Y134.822 E42.26956
G1 X136.185 Y135.923 E42.2943
G1 X135.35 Y136.701 E42.31707
G1 X134.257 Y137.353 E42.34247
G1 X133.202 Y137.527 E42.36381
G1 X86.756 Y137.557 E43.29069
G1 X85.727 Y137.304 E43.31184
G1 X84.626 Y136.734 E43.33658
G1 X83.848 Y135.899 E43.35935
G1 X83.196 Y134.806 E43.38475
G1 X83.022 Y133.751 E43.40609
G1 X82.992 Y86.207 E44.35488
G1 X83.245 Y85.178 E44.37603
G1 X83.815 Y84.077 E44.40077
M204 S2000
G0 F7500 X84.137 Y84.324
M204 S500
G1 F1500 X84.892 Y83.621 E44.42136
G1 X85.883 Y83.03 E44.44438
G1 X86.863 Y82.868 E44.4642
G1 X133.198 Y82.843 E45.38887
G1 X134.13 Y83.072 E45.40802
G1 X135.127 Y83.588 E45.43042
G1 X135.83 Y84.343 E45.45101
G1 X136.421 Y85.334 E45.47404
G1 X136.583 Y86.314 E45.49386
G1 X136.608 Y133.747 E46.44044
G1 X136.379 Y134.679 E46.45959
G1 X135.863 Y135.676 E46.48199
G1 X135.108 Y136.379 E46.50258
G1 X134.117 Y136.97 E46.52561
G1 X133.137 Y137.132 E46.54543
G1 X86.802 Y137.157 E47.47009
G1 X85.87 Y136.928 E47.48925
G1 X84.873 Y136.412 E47.51165
G1 X84.17 Y135.657 E47.53224
G1 X83.579 Y134.666 E47.55526
G1 X83.417 Y133.686 E47.57508
G1 X83.392 Y86.253 E48.52166
G1 X83.621 Y85.321 E48.54081
G1 X84.137 Y84.324 E48.56322
M204 S2000
G0 F7500 X84.46 Y84.569
M204 S500
G1 F1500 X85.131 Y83.945 E48.5815
G1 X86.023 Y83.413 E48.60223
G1 X86.928 Y83.263 E48.62054
G1 X133.152 Y83.243 E49.54299
G1 X133.987 Y83.448 E49.56014
G1 X134.882 Y83.911 E49.58025
G1 X135.506 Y84.582 E49.59854
G1 X136.038 Y85.474 E49.61926
G1 X136.188 Y86.379 E49.63757
G1 X136.208 Y133.701 E50.58193
G1 X136.003 Y134.536 E50.59909
G1 X135.54 Y135.431 E50.6192
G1 X134.869 Y136.055 E50.63749
G1 X133.977 Y136.587 E50.65821
G1 X133.072 Y136.737 E50.67652
G1 X86.848 Y136.757 E51.59897
G1 X86.013 Y136.552 E51.61613
G1 X85.118 Y136.089 E51.63624
G1 X84.494 Y135.418 E51.65452
G1 X83.962 Y134.526 E51.67525
G1 X83.812 Y133.621 E51.69356
G1 X83.792 Y86.299 E52.63792
G1 X83.997 Y85.464 E52.65508
G1 X84.46 Y84.569 E52.67518
M204 S2000
G0 F7500 X84.783 Y84.814
M204 S500
G1 F1500 X85.37 Y84.269 E52.69117
G1 X86.163 Y83.796 E52.7096
G1 X86.994 Y83.658 E52.72641
G1 X133.106 Y83.643 E53.64662
G1 X133.844 Y83.824 E53.66179
G1 X134.637 Y84.234 E53.6796
G1 X135.182 Y84.821 E53.69559
G1 X135.655 Y85.614 E53.71401
G1 X135.793 Y86.445 E53.73082
G1 X135.808 Y133.655 E54.67295
G1 X135.627 Y134.393 E54.68811
G1 X135.217 Y135.186 E54.70593
G1 X134.63 Y135.731 E54.72191
G1 X133.837 Y136.204 E54.74034
G1 X133.006 Y136.342 E54.75715
G1 X86.894 Y136.357 E55.67736
G1 X86.156 Y136.176 E55.69253
G1 X85.363 Y135.766 E55.71034
G1 X84.818 Y135.179 E55.72633
G1 X84.345 Y134.386 E55.74476
G1 X84.207 Y133.555 E55.76157
G1 X84.192 Y86.345 E56.70369
G1 X84.373 Y85.607 E56.71886
G1 X84.783 Y84.814 E56.73667
M204 S2000
G0 F7500 X85.106 Y85.059
M204 S500
G1 F1500 X85.609 Y84.593 E56.75036
G1 X86.303 Y84.179 E56.76648
G1 X87.06 Y84.053 E56.7818
G1 X133.056 Y84.043 E57.6997
G1 X133.705 Y84.202 E57.71303
G1 X134.392 Y84.557 E57.72846
G1 X134.858 Y85.06 E57.74215
G1 X135.272 Y85.754 E57.75827
G1 X135.398 Y86.511 E57.77359
G1 X135.408 Y133.605 E58.7134
G1 X135.249 Y134.254 E58.72673
G1 X134.894 Y134.941 E58.74217
G1 X134.391 Y135.407 E58.75585
G1 X133.697 Y135.821 E58.77198
G1 X132.94 Y135.947 E58.78729
G1 X86.944 Y135.957 E59.70519
G1 X86.295 Y135.798 E59.71853
G1 X85.608 Y135.443 E59.73396
G1 X85.142 Y134.94 E59.74764
G1 X84.728 Y134.246 E59.76377
G1 X84.602 Y133.489 E59.77908
G1 X84.592 Y86.395 E60.71889
G1 X84.751 Y85.746 E60.73223
G1 X85.106 Y85.059 E60.74766
M204 S2000
G0 F7500 X85.429 Y85.305
M204 S500
G1 F1500 X85.848 Y84.917 E60.75906
G1 X86.443 Y84.562 E60.77288
G1 X87.126 Y84.448 E60.7867
G1 X133.006 Y84.443 E61.70229
G1 X133.566 Y84.58 E61.71379
G1 X134.146 Y84.88 E61.72682
G1 X134.534 Y85.299 E61.73822
G1 X134.889 Y85.894 E61.75205
G1 X135.003 Y86.577 E61.76586
G1 X135.008 Y133.555 E62.70336
G1 X134.871 Y134.115 E62.71487
G1 X134.571 Y134.695 E62.7279
G1 X134.152 Y135.083 E62.73929
G1 X133.557 Y135.438 E62.75312
G1 X132.874 Y135.552 E62.76694
G1 X86.994 Y135.557 E63.68252
G1 X86.434 Y135.42 E63.69403
G1 X85.854 Y135.12 E63.70706
G1 X85.466 Y134.701 E63.71846
G1 X85.111 Y134.106 E63.73228
G1 X84.997 Y133.423 E63.7461
G1 X84.992 Y86.445 E64.6836
G1 X85.129 Y85.885 E64.6951
G1 X85.429 Y85.305 E64.70813
M204 S2000
G0 F7500 X85.752 Y85.551
M204 S500
G1 F1500 X86.09 Y85.238 E64.71733
G1 X86.581 Y84.945 E64.72874
G1 X87.192 Y84.843 E64.7411
G1 X132.956 Y84.843 E65.65437
G1 X133.427 Y84.958 E65.66404
G1 X133.9 Y85.203 E65.67468
G1 X134.213 Y85.541 E65.68387
G1 X134.506 Y86.032 E65.69528
G1 X134.608 Y86.643 E65.70764
G1 X134.608 Y133.505 E66.64282
G1 X134.493 Y133.976 E66.6525
G1 X134.248 Y134.449 E66.66313
G1 X133.91 Y134.762 E66.67232
G1 X133.419 Y135.055 E66.68373
G1 X132.808 Y135.157 E66.69609
G1 X87.044 Y135.157 E67.60936
G1 X86.573 Y135.042 E67.61904
G1 X86.1 Y134.797 E67.62967
G1 X85.787 Y134.459 E67.63886
G1 X85.494 Y133.968 E67.65027
G1 X85.392 Y133.357 E67.66263
G1 X85.392 Y86.495 E68.59782
G1 X85.507 Y86.024 E68.60749
G1 X85.752 Y85.551 E68.61812
M204 S2000
G0 F7500 X86.075 Y85.797
M204 S500
G1 F1500 X86.332 Y85.559 E68.62511
G1 X86.719 Y85.328 E68.63411
G1 X87.192 Y85.243 E68.6437
G1 X132.906 Y85.243 E69.55597
G1 X133.288 Y85.336 E69.56382
G1 X133.654 Y85.526 E69.57204
G1 X133.892 Y85.783 E69.57903
G1 X134.123 Y86.17 E69.58803
G1 X134.208 Y86.643 E69.59762
G1 X134.208 Y133.455 E70.5318
G1 X134.115 Y133.837 E70.53965
G1 X133.925 Y134.203 E70.54788
G1 X133.668 Y134.441 E70.55487
G1 X133.281 Y134.672 E70.56386
G1 X132.808 Y134.757 E70.57345
G1 X87.094 Y134.757 E71.48573
G1 X86.712 Y134.664 E71.49357
G1 X86.346 Y134.474 E71.5018
G1 X86.108 Y134.217 E71.50879
G1 X85.877 Y133.83 E71.51779
G1 X85.792 Y133.357 E71.52738
G1 X85.792 Y86.545 E72.46156
G1 X85.885 Y86.163 E72.46941
G1 X86.075 Y85.797 E72.47764
M204 S2000
G0 F7500 X86.537 Y85.903
M204 S500
G1 F1500 X86.864 Y85.708 E72.48523
G1 X87.192 Y85.643 E72.49191
G1 X132.857 Y85.643 E73.4032
G1 X133.146 Y85.713 E73.40913
G1 X133.409 Y85.85 E73.41505
G1 X133.548 Y85.988 E73.41896
G1 X133.743 Y86.315 E73.42656
G1 X133.808 Y86.643 E73.43323
G1 X133.808 Y133.406 E74.36644
G1 X133.738 Y133.695 E74.37237
G1 X133.601 Y133.958 E74.37829
G1 X133.463 Y134.097 E74.3822
G1 X133.136 Y134.292 E74.3898
G1 X132.808 Y134.357 E74.39647
G1 X87.143 Y134.357 E75.30776
G1 X86.854 Y134.287 E75.3137
G1 X86.591 Y134.15 E75.31962
G1 X86.452 Y134.012 E75.32352
G1 X86.257 Y133.685 E75.33112
G1 X86.192 Y133.357 E75.3378
G1 X86.192 Y86.594 E76.271
G1 X86.262 Y86.305 E76.27694
G1 X86.399 Y86.042 E76.28285
G1 X86.537 Y85.903 E76.28676
M204 S2000
G0 F7500 X87.031 Y86.524
M204 S500
G1 F1500 X87.192 Y86.443 E76.29036
G1 X132.808 Y86.443 E77.20068
G1 X132.927 Y86.482 E77.20317
G1 X133.008 Y86.643 E77.20677
G1 X133.008 Y133.357 E78.139
G1 X132.969 Y133.476 E78.1415
G1 X132.808 Y133.557 E78.1451
G1 X87.192 Y133.557 E79.05541
G1 X87.073 Y133.518 E79.05791
G1 X86.992 Y133.357 E79.06151
G1 X86.992 Y86.643 E79.99374
G1 X87.031 Y86.524 E79.99624
M204 S2000
G0 F7500 X86.742 Y86.247
M204 S500
G1 F1500 X87.012 Y86.086 E80.00251
G1 X87.192 Y86.043 E80.0062
G1 X132.808 Y86.043 E80.91652
G1 X133.052 Y86.102 E80.92153
G1 X133.204 Y86.193 E80.92506
G1 X133.365 Y86.463 E80.93134
G1 X133.408 Y86.643 E80.93503
G1 X133.408 Y133.357 E81.86726
G1 X133.349 Y133.601 E81.87227
G1 X133.258 Y133.753 E81.8758
G1 X132.988 Y133.914 E81.88208
G1 X132.808 Y133.957 E81.88577
G1 X87.192 Y133.957 E82.79609
G1 X86.948 Y133.898 E82.8011
G1 X86.796 Y133.807 E82.80463
G1 X86.635 Y133.537 E82.8109
G1 X86.592 Y133.357 E82.8146
G1 X86.592 Y86.643 E83.74683
G1 X86.651 Y86.399 E83.75184
G1 X86.742 Y86.247 E83.75537
M204 S2000
G1 F2400 E82.95537
G1 F300 Z0.32
;MESH:sensor_support_lens-BodyFillet003.stl
G0 F7500 X103.628 Y92.776 Z0.32
