;FLAVOR:Marlin
;TIME:254
;Filament used: 0.119602m
;Layer height: 0.2
;MINX:96.55
;MINY:97.05
;MINZ:0.2
;MAXX:123.45
;MAXY:122.95
;MAXZ:3.8
;TARGET_MACHINE.NAME:Creality Ender-3 S1 Pro
;Generated with Cura_SteamEngine 5.6.0
M82 ;absolute extrusion mode
; Ender 3 S1 Pro Start G-code
M413 S0 ; Disable power loss recovery
G92 E0 ; Reset Extruder
; Prep surfaces before auto home for better accuracy
M140 S60
M104 S215.0
G28 X Y; always home X and Y
G28 O ; Home all untrusted axes
M420 S1 Z10 ; use bed leveling
G1 Z10.0 F3000 ; Move Z Axis up little to prevent scratching of Heat Bed
G1 X0 Y0

M190 S60
M109 S215.0

G1 X0.1 Y20 Z0.3 F5000.0 ; Move to start position
G1 X0.1 Y200.0 Z0.3 F1500.0 E15 ; Draw the first line
G1 X0.4 Y200.0 Z0.3 F5000.0 ; Move to side a little
G1 X0.4 Y20 Z0.3 F1500.0 E30 ; Draw the second line
G92 E0 ; Reset Extruder
G1 Z2.0 F3000 ; Move Z Axis up little to prevent scratching of Heat Bed
G1 X5 Y20 Z0.3 F5000.0 ; Move over to prevent blob squish
G92 E0
G92 E0
G1 F2400 E-0.8
;LAYER_COUNT:16
;LAYER:0
M107
M204 S2000
G0 F7200 X98.069 Y100.073 Z0.2
M204 S500
;TYPE:SKIRT
G1 F2400 E0
G1 F1500 X99.63 Y98.614 E0.06751
G1 X101.653 Y97.407 E0.14195
G1 X103.371 Y97.125 E0.19696
G1 X116.494 Y97.05 E0.61161
G1 X118.401 Y97.518 E0.67366
G1 X120.427 Y98.569 E0.74577
G1 X121.886 Y100.13 E0.81329
G1 X123.093 Y102.153 E0.88772
G1 X123.375 Y103.871 E0.94273
G1 X123.45 Y115.993 E1.32576
G1 X122.982 Y117.901 E1.38783
G1 X121.931 Y119.927 E1.45995
G1 X120.37 Y121.386 E1.52746
G1 X118.347 Y122.593 E1.6019
G1 X116.629 Y122.875 E1.65691
G1 X103.506 Y122.95 E2.07156
G1 X101.599 Y122.482 E2.13361
G1 X99.573 Y121.431 E2.20572
G1 X98.114 Y119.87 E2.27324
G1 X96.907 Y117.847 E2.34767
G1 X96.625 Y116.129 E2.40268
G1 X96.55 Y104.007 E2.78571
G1 X97.018 Y102.099 E2.84778
G1 X98.069 Y100.073 E2.9199
M204 S2000
G0 F7200 X98.392 Y100.318
M204 S500
G1 F1500 X99.869 Y98.938 E2.98377
G1 X101.793 Y97.79 E3.05456
G1 X103.436 Y97.52 E3.10717
G1 X116.449 Y97.45 E3.51835
G1 X118.258 Y97.894 E3.57721
G1 X120.182 Y98.892 E3.64569
G1 X121.562 Y100.369 E3.70956
G1 X122.71 Y102.293 E3.78035
G1 X122.98 Y103.936 E3.83296
G1 X123.05 Y115.948 E4.21251
G1 X122.606 Y117.758 E4.2714
G1 X121.608 Y119.682 E4.33988
G1 X120.131 Y121.062 E4.40375
G1 X118.207 Y122.21 E4.47455
G1 X116.564 Y122.48 E4.52716
G1 X103.551 Y122.55 E4.93834
G1 X101.742 Y122.106 E4.99719
G1 X99.818 Y121.108 E5.06568
G1 X98.438 Y119.631 E5.12955
G1 X97.29 Y117.707 E5.20034
G1 X97.02 Y116.064 E5.25295
G1 X96.95 Y104.052 E5.6325
G1 X97.394 Y102.242 E5.69139
G1 X98.392 Y100.318 E5.75987
M204 S2000
G0 F7200 X98.715 Y100.563
M204 S500
G1 F1500 X100.111 Y99.259 E5.82023
G1 X101.931 Y98.173 E5.8872
G1 X103.501 Y97.915 E5.93747
G1 X116.404 Y97.85 E6.34517
G1 X118.115 Y98.27 E6.40084
G1 X119.937 Y99.215 E6.46569
G1 X121.241 Y100.611 E6.52605
G1 X122.327 Y102.431 E6.59302
G1 X122.585 Y104.001 E6.64329
G1 X122.65 Y115.903 E7.01937
G1 X122.23 Y117.615 E7.07507
G1 X121.285 Y119.437 E7.13992
G1 X119.889 Y120.741 E7.20028
G1 X118.069 Y121.827 E7.26724
G1 X116.499 Y122.085 E7.31752
G1 X103.596 Y122.15 E7.72522
G1 X101.885 Y121.73 E7.78089
G1 X100.063 Y120.785 E7.84574
G1 X98.759 Y119.389 E7.9061
G1 X97.673 Y117.569 E7.97307
G1 X97.415 Y115.999 E8.02334
G1 X97.35 Y104.097 E8.39941
G1 X97.77 Y102.385 E8.45511
G1 X98.715 Y100.563 E8.51997
M204 S2000
G0 F7200 X99.038 Y100.808
M204 S500
G1 F1500 X100.353 Y99.58 E8.57682
G1 X102.069 Y98.556 E8.63996
G1 X103.566 Y98.31 E8.68789
G1 X116.359 Y98.25 E9.09212
G1 X117.972 Y98.646 E9.1446
G1 X119.692 Y99.538 E9.20582
G1 X120.92 Y100.853 E9.26267
G1 X121.944 Y102.569 E9.32581
G1 X122.19 Y104.066 E9.37375
G1 X122.25 Y115.858 E9.74634
G1 X121.854 Y117.472 E9.79885
G1 X120.962 Y119.192 E9.86007
G1 X119.647 Y120.42 E9.91693
G1 X117.931 Y121.444 E9.98007
G1 X116.434 Y121.69 E10.028
G1 X103.641 Y121.75 E10.43223
G1 X102.028 Y121.354 E10.48471
G1 X100.308 Y120.462 E10.54593
G1 X99.08 Y119.147 E10.60278
G1 X98.056 Y117.431 E10.66592
G1 X97.81 Y115.934 E10.71385
G1 X97.75 Y104.142 E11.08645
G1 X98.146 Y102.528 E11.13896
G1 X99.038 Y100.808 E11.20018
M204 S2000
G0 F7200 X99.361 Y101.053
M204 S500
G1 F1500 X100.595 Y99.901 E11.25352
G1 X102.207 Y98.939 E11.31284
G1 X103.631 Y98.705 E11.35844
G1 X116.314 Y98.65 E11.75919
G1 X117.829 Y99.022 E11.80848
G1 X119.447 Y99.861 E11.86607
G1 X120.599 Y101.095 E11.91941
G1 X121.561 Y102.707 E11.97872
G1 X121.795 Y104.131 E12.02432
G1 X121.85 Y115.813 E12.39344
G1 X121.478 Y117.329 E12.44277
G1 X120.639 Y118.947 E12.50035
G1 X119.405 Y120.099 E12.55369
G1 X117.793 Y121.061 E12.61301
G1 X116.369 Y121.295 E12.65861
G1 X103.686 Y121.35 E13.05936
G1 X102.171 Y120.978 E13.10865
G1 X100.553 Y120.139 E13.16624
G1 X99.401 Y118.905 E13.21958
G1 X98.439 Y117.293 E13.27889
G1 X98.205 Y115.869 E13.32449
G1 X98.15 Y104.187 E13.69361
G1 X98.522 Y102.671 E13.74294
G1 X99.361 Y101.053 E13.80052
M204 S2000
G0 F7200 X99.684 Y101.298
M204 S500
G1 F1500 X100.837 Y100.222 E13.85036
G1 X102.345 Y99.322 E13.90584
G1 X103.696 Y99.1 E13.94911
G1 X116.269 Y99.05 E14.34638
G1 X117.686 Y99.398 E14.39248
G1 X119.202 Y100.184 E14.44644
G1 X120.278 Y101.337 E14.49627
G1 X121.178 Y102.845 E14.55176
G1 X121.4 Y104.196 E14.59502
G1 X121.45 Y115.768 E14.96067
G1 X121.102 Y117.186 E15.0068
G1 X120.316 Y118.702 E15.06076
G1 X119.163 Y119.778 E15.11059
G1 X117.655 Y120.678 E15.16608
G1 X116.304 Y120.9 E15.20934
G1 X103.731 Y120.95 E15.60661
G1 X102.314 Y120.602 E15.65271
G1 X100.798 Y119.816 E15.70667
G1 X99.722 Y118.663 E15.7565
G1 X98.822 Y117.155 E15.81199
G1 X98.6 Y115.804 E15.85525
G1 X98.55 Y104.232 E16.2209
G1 X98.898 Y102.814 E16.26703
G1 X99.684 Y101.298 E16.32099
M204 S2000
G0 F7200 X100.007 Y101.543
M204 S500
G1 F1500 X101.079 Y100.543 E16.36731
G1 X102.483 Y99.705 E16.41897
G1 X103.761 Y99.495 E16.4599
G1 X116.224 Y99.45 E16.85369
G1 X117.543 Y99.774 E16.89661
G1 X118.957 Y100.507 E16.94693
G1 X119.957 Y101.579 E16.99326
G1 X120.795 Y102.983 E17.04492
G1 X121.005 Y104.261 E17.08584
G1 X121.05 Y115.723 E17.44801
G1 X120.726 Y117.043 E17.49096
G1 X119.993 Y118.457 E17.54128
G1 X118.921 Y119.457 E17.5876
G1 X117.517 Y120.295 E17.63927
G1 X116.239 Y120.505 E17.68019
G1 X103.776 Y120.55 E18.07399
G1 X102.457 Y120.226 E18.1169
G1 X101.043 Y119.493 E18.16723
G1 X100.043 Y118.421 E18.21355
G1 X99.205 Y117.017 E18.26521
G1 X98.995 Y115.739 E18.30614
G1 X98.95 Y104.277 E18.6683
G1 X99.274 Y102.957 E18.71125
G1 X100.007 Y101.543 E18.76158
M204 S2000
G0 F7200 X100.329 Y101.79
M204 S500
G1 F1500 X101.324 Y100.862 E18.80457
G1 X102.621 Y100.088 E18.85229
G1 X103.826 Y99.89 E18.89088
G1 X116.179 Y99.85 E19.2812
G1 X117.4 Y100.15 E19.32092
G1 X118.71 Y100.829 E19.36755
G1 X119.638 Y101.824 E19.41054
G1 X120.412 Y103.121 E19.45826
G1 X120.61 Y104.326 E19.49685
G1 X120.65 Y115.678 E19.85554
G1 X120.35 Y116.9 E19.8953
G1 X119.671 Y118.21 E19.94192
G1 X118.676 Y119.138 E19.98491
G1 X117.379 Y119.912 E20.03263
G1 X116.174 Y120.11 E20.07122
G1 X103.821 Y120.15 E20.46154
G1 X102.6 Y119.85 E20.50127
G1 X101.29 Y119.171 E20.54789
G1 X100.362 Y118.176 E20.59088
G1 X99.588 Y116.879 E20.63861
G1 X99.39 Y115.674 E20.67719
G1 X99.35 Y104.322 E21.03588
G1 X99.65 Y103.1 E21.07564
G1 X100.329 Y101.79 E21.12226
M204 S2000
G0 F7200 X100.651 Y102.037
M204 S500
G1 F1500 X101.566 Y101.184 E21.16179
G1 X102.761 Y100.471 E21.20576
G1 X103.891 Y100.285 E21.24194
G1 X116.133 Y100.25 E21.62876
G1 X117.257 Y100.526 E21.66533
G1 X118.463 Y101.151 E21.70825
G1 X119.316 Y102.066 E21.74777
G1 X120.029 Y103.261 E21.79174
G1 X120.215 Y104.391 E21.82793
G1 X120.25 Y115.633 E22.18314
G1 X119.974 Y116.757 E22.21971
G1 X119.349 Y117.963 E22.26263
G1 X118.434 Y118.816 E22.30216
G1 X117.239 Y119.529 E22.34613
G1 X116.109 Y119.715 E22.38231
G1 X103.867 Y119.75 E22.76913
G1 X102.743 Y119.474 E22.8057
G1 X101.537 Y118.849 E22.84862
G1 X100.684 Y117.934 E22.88814
G1 X99.971 Y116.739 E22.93211
G1 X99.785 Y115.609 E22.9683
G1 X99.75 Y104.367 E23.32351
G1 X100.026 Y103.243 E23.36008
G1 X100.651 Y102.037 E23.403
M204 S2000
G0 F7200 X100.973 Y102.284
M204 S500
G1 F1500 X101.808 Y101.506 E23.43906
G1 X102.901 Y100.854 E23.47928
G1 X103.956 Y100.68 E23.51306
G1 X116.086 Y100.65 E23.89634
G1 X117.115 Y100.903 E23.92982
G1 X118.216 Y101.473 E23.96899
G1 X118.994 Y102.308 E24.00505
G1 X119.646 Y103.401 E24.04527
G1 X119.82 Y104.456 E24.07905
G1 X119.85 Y115.586 E24.43073
G1 X119.597 Y116.615 E24.46421
G1 X119.027 Y117.716 E24.50338
G1 X118.192 Y118.494 E24.53945
G1 X117.099 Y119.146 E24.57966
G1 X116.044 Y119.32 E24.61344
G1 X103.914 Y119.35 E24.99672
G1 X102.885 Y119.097 E25.0302
G1 X101.784 Y118.527 E25.06937
G1 X101.006 Y117.692 E25.10544
G1 X100.354 Y116.599 E25.14565
G1 X100.18 Y115.544 E25.17943
G1 X100.15 Y104.414 E25.53111
G1 X100.403 Y103.385 E25.56459
G1 X100.973 Y102.284 E25.60377
M204 S2000
G0 F7200 X101.295 Y102.531
M204 S500
G1 F1500 X102.05 Y101.828 E25.63636
G1 X103.041 Y101.237 E25.67282
G1 X104.021 Y101.075 E25.70421
G1 X116.04 Y101.05 E26.08397
G1 X116.972 Y101.279 E26.1143
G1 X117.969 Y101.795 E26.14977
G1 X118.672 Y102.55 E26.18237
G1 X119.263 Y103.541 E26.21882
G1 X119.425 Y104.521 E26.25021
G1 X119.45 Y115.54 E26.59838
G1 X119.221 Y116.472 E26.6287
G1 X118.705 Y117.469 E26.66418
G1 X117.95 Y118.172 E26.69677
G1 X116.959 Y118.763 E26.73323
G1 X115.979 Y118.925 E26.76462
G1 X103.96 Y118.95 E27.14438
G1 X103.028 Y118.721 E27.17471
G1 X102.031 Y118.205 E27.21018
G1 X101.328 Y117.45 E27.24277
G1 X100.737 Y116.459 E27.27923
G1 X100.575 Y115.479 E27.31062
G1 X100.55 Y104.46 E27.65879
G1 X100.779 Y103.528 E27.68911
G1 X101.295 Y102.531 E27.72458
M204 S2000
G0 F7200 X101.618 Y102.776
M204 S500
G1 F1500 X102.289 Y102.152 E27.75354
G1 X103.181 Y101.62 E27.78635
G1 X104.086 Y101.47 E27.81534
G1 X115.994 Y101.45 E28.1916
G1 X116.829 Y101.655 E28.21876
G1 X117.724 Y102.118 E28.2506
G1 X118.348 Y102.789 E28.27956
G1 X118.88 Y103.681 E28.31237
G1 X119.03 Y104.586 E28.34136
G1 X119.05 Y115.494 E28.68602
G1 X118.845 Y116.329 E28.71319
G1 X118.382 Y117.224 E28.74503
G1 X117.711 Y117.848 E28.77398
G1 X116.819 Y118.38 E28.8068
G1 X115.914 Y118.53 E28.83578
G1 X104.006 Y118.55 E29.21204
G1 X103.171 Y118.345 E29.23921
G1 X102.276 Y117.882 E29.27105
G1 X101.652 Y117.211 E29.3
G1 X101.12 Y116.319 E29.33282
G1 X100.97 Y115.414 E29.3618
G1 X100.95 Y104.506 E29.70646
G1 X101.155 Y103.671 E29.73363
G1 X101.618 Y102.776 E29.76547
M204 S2000
G0 F7200 X101.941 Y103.021
M204 S500
G1 F1500 X102.528 Y102.476 E29.79078
G1 X103.321 Y102.003 E29.81996
G1 X104.152 Y101.865 E29.84657
G1 X115.948 Y101.85 E30.21929
G1 X116.686 Y102.031 E30.2433
G1 X117.479 Y102.441 E30.27151
G1 X118.024 Y103.028 E30.29682
G1 X118.497 Y103.821 E30.32599
G1 X118.635 Y104.652 E30.35261
G1 X118.65 Y115.448 E30.69373
G1 X118.469 Y116.186 E30.71774
G1 X118.059 Y116.979 E30.74595
G1 X117.472 Y117.524 E30.77126
G1 X116.679 Y117.997 E30.80044
G1 X115.848 Y118.135 E30.82705
G1 X104.052 Y118.15 E31.19977
G1 X103.314 Y117.969 E31.22378
G1 X102.521 Y117.559 E31.25199
G1 X101.976 Y116.972 E31.2773
G1 X101.503 Y116.179 E31.30647
G1 X101.365 Y115.348 E31.33309
G1 X101.35 Y104.552 E31.67421
G1 X101.531 Y103.814 E31.69822
G1 X101.941 Y103.021 E31.72643
M204 S2000
G0 F7200 X102.264 Y103.266
M204 S500
G1 F1500 X102.767 Y102.8 E31.7481
G1 X103.461 Y102.386 E31.77363
G1 X104.218 Y102.26 E31.79788
G1 X115.898 Y102.25 E32.16693
G1 X116.547 Y102.409 E32.18805
G1 X117.234 Y102.764 E32.21248
G1 X117.7 Y103.267 E32.23415
G1 X118.114 Y103.961 E32.25968
G1 X118.24 Y104.718 E32.28393
G1 X118.25 Y115.398 E32.62138
G1 X118.091 Y116.047 E32.6425
G1 X117.736 Y116.734 E32.66693
G1 X117.233 Y117.2 E32.6886
G1 X116.539 Y117.614 E32.71413
G1 X115.782 Y117.74 E32.73838
G1 X104.102 Y117.75 E33.10743
G1 X103.453 Y117.591 E33.12855
G1 X102.766 Y117.236 E33.15298
G1 X102.3 Y116.733 E33.17465
G1 X101.886 Y116.039 E33.20018
G1 X101.76 Y115.282 E33.22443
G1 X101.75 Y104.602 E33.56189
G1 X101.909 Y103.953 E33.583
G1 X102.264 Y103.266 E33.60743
M204 S2000
G0 F7200 X102.587 Y103.512
M204 S500
G1 F1500 X103.006 Y103.124 E33.62548
G1 X103.601 Y102.769 E33.64737
G1 X104.284 Y102.655 E33.66925
G1 X115.848 Y102.65 E34.03464
G1 X116.408 Y102.787 E34.05285
G1 X116.988 Y103.087 E34.07349
G1 X117.376 Y103.506 E34.09153
G1 X117.731 Y104.101 E34.11342
G1 X117.845 Y104.784 E34.1353
G1 X117.85 Y115.348 E34.46909
G1 X117.713 Y115.908 E34.48731
G1 X117.413 Y116.488 E34.50794
G1 X116.994 Y116.876 E34.52599
G1 X116.399 Y117.231 E34.54788
G1 X115.716 Y117.345 E34.56976
G1 X104.152 Y117.35 E34.93515
G1 X103.592 Y117.213 E34.95336
G1 X103.012 Y116.913 E34.974
G1 X102.624 Y116.494 E34.99204
G1 X102.269 Y115.899 E35.01393
G1 X102.155 Y115.216 E35.03581
G1 X102.15 Y104.652 E35.3696
G1 X102.287 Y104.092 E35.38782
G1 X102.587 Y103.512 E35.40845
M204 S2000
G0 F7200 X102.91 Y103.758
M204 S500
G1 F1500 X103.248 Y103.445 E35.42301
G1 X103.739 Y103.152 E35.44108
G1 X104.35 Y103.05 E35.46065
G1 X115.798 Y103.05 E35.82237
G1 X116.269 Y103.165 E35.83769
G1 X116.742 Y103.41 E35.85452
G1 X117.055 Y103.748 E35.86908
G1 X117.348 Y104.239 E35.88715
G1 X117.45 Y104.85 E35.90672
G1 X117.45 Y115.298 E36.23684
G1 X117.335 Y115.769 E36.25216
G1 X117.09 Y116.242 E36.269
G1 X116.752 Y116.555 E36.28355
G1 X116.261 Y116.848 E36.30162
G1 X115.65 Y116.95 E36.32119
G1 X104.202 Y116.95 E36.68291
G1 X103.731 Y116.835 E36.69823
G1 X103.258 Y116.59 E36.71507
G1 X102.945 Y116.252 E36.72962
G1 X102.652 Y115.761 E36.74769
G1 X102.55 Y115.15 E36.76726
G1 X102.55 Y104.702 E37.09739
G1 X102.665 Y104.231 E37.11271
G1 X102.91 Y103.758 E37.12954
M204 S2000
G0 F7200 X103.233 Y104.004
M204 S500
G1 F1500 X103.49 Y103.766 E37.14061
G1 X103.877 Y103.535 E37.15485
G1 X104.35 Y103.45 E37.17003
G1 X115.748 Y103.45 E37.53018
G1 X116.13 Y103.543 E37.5426
G1 X116.496 Y103.733 E37.55563
G1 X116.734 Y103.99 E37.5667
G1 X116.965 Y104.377 E37.58094
G1 X117.05 Y104.85 E37.59612
G1 X117.05 Y115.248 E37.92467
G1 X116.957 Y115.63 E37.93709
G1 X116.767 Y115.996 E37.95012
G1 X116.51 Y116.234 E37.96119
G1 X116.123 Y116.465 E37.97543
G1 X115.65 Y116.55 E37.99061
G1 X104.252 Y116.55 E38.35076
G1 X103.87 Y116.457 E38.36318
G1 X103.504 Y116.267 E38.37621
G1 X103.266 Y116.01 E38.38728
G1 X103.035 Y115.623 E38.40152
G1 X102.95 Y115.15 E38.4167
G1 X102.95 Y104.752 E38.74525
G1 X103.043 Y104.37 E38.75767
G1 X103.233 Y104.004 E38.7707
M204 S2000
G0 F7200 X103.695 Y104.11
M204 S500
G1 F1500 X104.022 Y103.915 E38.78273
G1 X104.35 Y103.85 E38.7933
G1 X115.699 Y103.85 E39.1519
G1 X115.988 Y103.92 E39.16129
G1 X116.251 Y104.057 E39.17066
G1 X116.39 Y104.195 E39.17685
G1 X116.585 Y104.522 E39.18888
G1 X116.65 Y104.85 E39.19945
G1 X116.65 Y115.199 E39.52644
G1 X116.58 Y115.488 E39.53584
G1 X116.443 Y115.751 E39.54521
G1 X116.305 Y115.89 E39.5514
G1 X115.978 Y116.085 E39.56343
G1 X115.65 Y116.15 E39.57399
G1 X104.301 Y116.15 E39.93259
G1 X104.012 Y116.08 E39.94199
G1 X103.749 Y115.943 E39.95136
G1 X103.61 Y115.805 E39.95754
G1 X103.415 Y115.478 E39.96957
G1 X103.35 Y115.15 E39.98014
G1 X103.35 Y104.801 E40.30714
G1 X103.42 Y104.512 E40.31653
G1 X103.557 Y104.249 E40.3259
G1 X103.695 Y104.11 E40.33209
M204 S2000
G0 F7200 X104.189 Y104.731
M204 S500
G1 F1500 X104.35 Y104.65 E40.33779
G1 X115.65 Y104.65 E40.69483
G1 X115.769 Y104.689 E40.69879
G1 X115.85 Y104.85 E40.70449
G1 X115.85 Y115.15 E41.02994
G1 X115.811 Y115.269 E41.03389
G1 X115.65 Y115.35 E41.03959
G1 X104.35 Y115.35 E41.39664
G1 X104.231 Y115.311 E41.40059
G1 X104.15 Y115.15 E41.40629
G1 X104.15 Y104.85 E41.73174
G1 X104.189 Y104.731 E41.73569
M204 S2000
G0 F7200 X103.9 Y104.454
M204 S500
G1 F1500 X104.17 Y104.293 E41.74563
G1 X104.35 Y104.25 E41.75147
G1 X115.65 Y104.25 E42.10852
G1 X115.894 Y104.309 E42.11645
G1 X116.046 Y104.4 E42.12205
G1 X116.207 Y104.67 E42.13198
G1 X116.25 Y104.85 E42.13783
G1 X116.25 Y115.15 E42.46328
G1 X116.191 Y115.394 E42.47121
G1 X116.1 Y115.546 E42.47681
G1 X115.83 Y115.707 E42.48675
G1 X115.65 Y115.75 E42.49259
G1 X104.35 Y115.75 E42.84964
G1 X104.106 Y115.691 E42.85757
G1 X103.954 Y115.6 E42.86317
G1 X103.793 Y115.33 E42.8731
G1 X103.75 Y115.15 E42.87895
G1 X103.75 Y104.85 E43.2044
