;FLAVOR:Marlin
;TIME:6560
;Filament used: 2.77658m
;Layer height: 0.12
;MINX:67.838
;MINY:77.7
;MINZ:0.12
;MAXX:141.8
;MAXY:142.3
;MAXZ:13.64
;TARGET_MACHINE.NAME:Creality Ender-3 S1 Pro
;Generated with Cura_SteamEngine 5.6.0
M82 ;absolute extrusion mode
; Ender 3 S1 Pro Start G-code
M413 S0 ; Disable power loss recovery
G92 E0 ; Reset Extruder
; Prep surfaces before auto home for better accuracy
M140 S65
M104 S205
G28 X Y; always home X and Y
G28 O ; Home all untrusted axes
M420 S1 Z10 ; use bed leveling
G1 Z10.0 F3000 ; Move Z Axis up little to prevent scratching of Heat Bed
G1 X0 Y0

M190 S65
M109 S205

G1 X0.1 Y20 Z0.3 F5000.0 ; Move to start position
G1 X0.1 Y200.0 Z0.3 F1500.0 E15 ; Draw the first line
G1 X0.4 Y200.0 Z0.3 F5000.0 ; Move to side a little
G1 X0.4 Y20 Z0.3 F1500.0 E30 ; Draw the second line
G92 E0 ; Reset Extruder
G1 Z2.0 F3000 ; Move Z Axis up little to prevent scratching of Heat Bed
G1 X5 Y20 Z0.3 F5000.0 ; Move over to prevent blob squish
G92 E0
G92 E0
G1 F2400 E-0.8
;LAYER_COUNT:112
;LAYER:0
M107
M204 S2000
G1 F300 Z0.32
G0 F7500 X79.719 Y80.723 Z0.32
M204 S500
;TYPE:SKIRT
G1 F300 Z0.12
G1 F2400 E0
G1 F1500 X81.28 Y79.264 E0.04264
G1 X83.303 Y78.057 E0.08965
G1 X85.021 Y77.775 E0.12439
G1 X134.853 Y77.7 E1.11885
G1 X136.749 Y78.166 E1.15781
G1 X138.777 Y79.219 E1.20341
G1 X140.236 Y80.78 E1.24605
G1 X141.443 Y82.803 E1.29306
G1 X141.725 Y84.521 E1.3278
G1 X141.8 Y135.353 E2.34221
G1 X141.334 Y137.249 E2.38118
G1 X140.281 Y139.277 E2.42678
G1 X138.72 Y140.736 E2.46942
G1 X136.697 Y141.943 E2.51643
G1 X134.979 Y142.225 E2.55117
G1 X85.147 Y142.3 E3.54562
G1 X83.251 Y141.834 E3.58459
G1 X81.223 Y140.781 E3.63019
G1 X79.764 Y139.22 E3.67283
G1 X78.557 Y137.197 E3.71984
G1 X78.275 Y135.479 E3.75458
G1 X78.213 Y119.446 E4.07454
G1 X77.994 Y119.471 E4.07894
G1 X75.848 Y119.332 E4.12185
G1 X73.848 Y118.756 E4.16339
G1 X72.077 Y117.815 E4.20341
G1 X70.405 Y116.393 E4.24721
G1 X69.186 Y114.773 E4.28767
G1 X68.287 Y112.829 E4.33041
G1 X67.839 Y110.701 E4.37381
G1 X67.838 Y108.697 E4.4138
G1 X68.303 Y106.568 E4.45729
G1 X69.205 Y104.682 E4.49901
G1 X70.422 Y103.074 E4.53925
G1 X72.139 Y101.61 E4.58428
G1 X73.961 Y100.674 E4.62516
G1 X76.089 Y100.106 E4.66911
G1 X78.013 Y100.01 E4.70756
G1 X78.217 Y100.035 E4.71166
G1 X78.2 Y84.647 E5.01874
G1 X78.666 Y82.751 E5.05771
G1 X79.719 Y80.723 E5.10331
M204 S2000
G0 F7500 X80.042 Y80.968
M204 S500
G1 F1500 X81.519 Y79.588 E5.14365
G1 X83.443 Y78.44 E5.18836
G1 X85.086 Y78.17 E5.22158
G1 X134.807 Y78.1 E6.21382
G1 X136.606 Y78.542 E6.25079
G1 X138.532 Y79.542 E6.2941
G1 X139.912 Y81.019 E6.33444
G1 X141.06 Y82.943 E6.37915
G1 X141.33 Y84.586 E6.41237
G1 X141.4 Y135.307 E7.42457
G1 X140.958 Y137.106 E7.46154
G1 X139.958 Y139.032 E7.50484
G1 X138.481 Y140.412 E7.54518
G1 X136.557 Y141.56 E7.58989
G1 X134.914 Y141.83 E7.62312
G1 X85.193 Y141.9 E8.61536
G1 X83.394 Y141.458 E8.65233
G1 X81.468 Y140.458 E8.69563
G1 X80.088 Y138.981 E8.73597
G1 X78.94 Y137.057 E8.78068
G1 X78.67 Y135.414 E8.81391
G1 X78.611 Y118.975 E9.14197
G1 X78.02 Y119.072 E9.15392
G1 X75.916 Y118.936 E9.196
G1 X74 Y118.384 E9.23579
G1 X72.304 Y117.483 E9.27411
G1 X70.698 Y116.117 E9.31619
G1 X69.531 Y114.566 E9.35492
G1 X68.668 Y112.7 E9.39595
G1 X68.239 Y110.662 E9.43751
G1 X68.238 Y108.741 E9.47585
G1 X68.684 Y106.7 E9.51754
G1 X69.55 Y104.889 E9.5576
G1 X70.716 Y103.348 E9.59616
G1 X72.36 Y101.947 E9.63927
G1 X74.109 Y101.048 E9.67851
G1 X76.147 Y100.504 E9.72061
G1 X78.033 Y100.41 E9.75829
G1 X78.618 Y100.506 E9.77012
G1 X78.6 Y84.693 E10.08569
G1 X79.042 Y82.894 E10.12266
G1 X80.042 Y80.968 E10.16596
M204 S2000
G0 F7500 X80.365 Y81.213
M204 S500
G1 F1500 X81.761 Y79.909 E10.20409
G1 X83.581 Y78.823 E10.24638
G1 X85.151 Y78.565 E10.27813
G1 X134.76 Y78.5 E11.26813
G1 X136.464 Y78.919 E11.30315
G1 X138.287 Y79.865 E11.34414
G1 X139.591 Y81.261 E11.38226
G1 X140.677 Y83.081 E11.42455
G1 X140.935 Y84.651 E11.45631
G1 X141 Y135.26 E12.46626
G1 X140.581 Y136.964 E12.50128
G1 X139.635 Y138.787 E12.54227
G1 X138.239 Y140.091 E12.58039
G1 X136.419 Y141.177 E12.62269
G1 X134.849 Y141.435 E12.65444
G1 X85.24 Y141.5 E13.64444
G1 X83.536 Y141.081 E13.67946
G1 X81.713 Y140.135 E13.72044
G1 X80.409 Y138.739 E13.75857
G1 X79.323 Y136.919 E13.80086
G1 X79.065 Y135.349 E13.83261
G1 X79.009 Y118.503 E14.16879
G1 X77.998 Y118.67 E14.18924
G1 X75.984 Y118.54 E14.22952
G1 X74.152 Y118.012 E14.26757
G1 X72.531 Y117.151 E14.30419
G1 X70.991 Y115.841 E14.34454
G1 X69.876 Y114.359 E14.38155
G1 X69.049 Y112.571 E14.42087
G1 X68.639 Y110.623 E14.46059
G1 X68.638 Y108.785 E14.49727
G1 X69.065 Y106.832 E14.53717
G1 X69.895 Y105.096 E14.57557
G1 X71.008 Y103.625 E14.61238
G1 X72.583 Y102.282 E14.65368
G1 X74.257 Y101.422 E14.69124
G1 X76.205 Y100.902 E14.73148
G1 X78.011 Y100.812 E14.76756
G1 X79.019 Y100.978 E14.78795
G1 X79 Y84.74 E15.11199
G1 X79.419 Y83.036 E15.14701
G1 X80.365 Y81.213 E15.188
M204 S2000
G0 F7500 X80.688 Y81.458
M204 S500
G1 F1500 X82.003 Y80.23 E15.22391
G1 X83.719 Y79.206 E15.26378
G1 X85.216 Y78.96 E15.29406
G1 X134.714 Y78.9 E16.28185
G1 X136.321 Y79.295 E16.31487
G1 X138.042 Y80.188 E16.35356
G1 X139.27 Y81.503 E16.38947
G1 X140.294 Y83.219 E16.42935
G1 X140.54 Y84.716 E16.45962
G1 X140.6 Y135.214 E17.46736
G1 X140.205 Y136.821 E17.50039
G1 X139.312 Y138.542 E17.53908
G1 X137.997 Y139.77 E17.57499
G1 X136.281 Y140.794 E17.61486
G1 X134.784 Y141.04 E17.64514
G1 X85.286 Y141.1 E18.63293
G1 X83.679 Y140.705 E18.66595
G1 X81.958 Y139.812 E18.70464
G1 X80.73 Y138.497 E18.74055
G1 X79.706 Y136.781 E18.78043
G1 X79.46 Y135.284 E18.8107
G1 X79.408 Y118.032 E19.15498
G1 X77.976 Y118.268 E19.18395
G1 X76.052 Y118.144 E19.22242
G1 X74.304 Y117.64 E19.25873
G1 X72.758 Y116.819 E19.29366
G1 X71.284 Y115.565 E19.33228
G1 X70.221 Y114.152 E19.36757
G1 X69.43 Y112.442 E19.40516
G1 X69.039 Y110.584 E19.44306
G1 X69.038 Y108.829 E19.47808
G1 X69.446 Y106.962 E19.51622
G1 X70.238 Y105.305 E19.55287
G1 X71.302 Y103.899 E19.58805
G1 X72.804 Y102.619 E19.62743
G1 X74.405 Y101.796 E19.66336
G1 X76.263 Y101.3 E19.70174
G1 X77.989 Y101.214 E19.73622
G1 X79.42 Y101.449 E19.76516
G1 X79.4 Y84.786 E20.09769
G1 X79.795 Y83.179 E20.13071
G1 X80.688 Y81.458 E20.16941
M204 S2000
G0 F7500 X81.011 Y81.703
M204 S500
G1 F1500 X82.245 Y80.551 E20.2031
G1 X83.857 Y79.589 E20.24056
G1 X85.281 Y79.355 E20.26936
G1 X134.668 Y79.3 E21.25493
G1 X136.178 Y79.671 E21.28596
G1 X137.797 Y80.511 E21.32236
G1 X138.949 Y81.745 E21.35605
G1 X139.911 Y83.357 E21.39351
G1 X140.145 Y84.781 E21.42231
G1 X140.2 Y135.168 E22.42783
G1 X139.829 Y136.678 E22.45886
G1 X138.989 Y138.297 E22.49526
G1 X137.755 Y139.449 E22.52895
G1 X136.143 Y140.411 E22.56641
G1 X134.719 Y140.645 E22.59521
G1 X85.332 Y140.7 E23.58078
G1 X83.822 Y140.329 E23.61181
G1 X82.203 Y139.489 E23.64821
G1 X81.051 Y138.255 E23.6819
G1 X80.089 Y136.643 E23.71936
G1 X79.855 Y135.219 E23.74816
G1 X79.807 Y117.561 E24.10055
G1 X77.954 Y117.866 E24.13802
G1 X76.12 Y117.748 E24.1747
G1 X74.454 Y117.267 E24.2093
G1 X72.986 Y116.488 E24.24247
G1 X71.577 Y115.289 E24.27939
G1 X70.566 Y113.945 E24.31295
G1 X69.811 Y112.313 E24.34884
G1 X69.439 Y110.545 E24.38489
G1 X69.438 Y108.873 E24.41826
G1 X69.827 Y107.092 E24.45464
G1 X70.581 Y105.514 E24.48954
G1 X71.594 Y104.176 E24.52303
G1 X73.027 Y102.954 E24.56061
G1 X74.553 Y102.17 E24.59485
G1 X76.321 Y101.698 E24.63137
G1 X77.967 Y101.616 E24.66426
G1 X79.669 Y101.896 E24.69868
G1 X79.821 Y101.948 E24.70188
G1 X79.8 Y84.832 E25.04345
G1 X80.171 Y83.322 E25.07448
G1 X81.011 Y81.703 E25.11088
M204 S2000
G0 F7500 X81.334 Y81.948
M204 S500
G1 F1500 X82.487 Y80.872 E25.14235
G1 X83.995 Y79.972 E25.1774
G1 X85.346 Y79.75 E25.20472
G1 X134.621 Y79.7 E26.18806
G1 X136.036 Y80.048 E26.21714
G1 X137.552 Y80.834 E26.25121
G1 X138.628 Y81.987 E26.28269
G1 X139.528 Y83.495 E26.31773
G1 X139.75 Y84.846 E26.34505
G1 X139.8 Y135.121 E27.34835
G1 X139.452 Y136.536 E27.37743
G1 X138.666 Y138.052 E27.4115
G1 X137.513 Y139.128 E27.44298
G1 X136.005 Y140.028 E27.47802
G1 X134.654 Y140.25 E27.50535
G1 X85.379 Y140.3 E28.48868
G1 X83.964 Y139.952 E28.51776
G1 X82.448 Y139.166 E28.55184
G1 X81.372 Y138.013 E28.58331
G1 X80.472 Y136.505 E28.61836
G1 X80.25 Y135.154 E28.64568
G1 X80.206 Y116.948 E29.009
G1 X79.616 Y117.187 E29.0217
G1 X77.932 Y117.464 E29.05576
G1 X76.189 Y117.352 E29.09062
G1 X74.604 Y116.894 E29.12354
G1 X73.214 Y116.157 E29.15494
G1 X71.87 Y115.013 E29.19016
G1 X70.911 Y113.738 E29.222
G1 X70.192 Y112.184 E29.25617
G1 X69.839 Y110.506 E29.29039
G1 X69.838 Y108.917 E29.3221
G1 X70.208 Y107.223 E29.3567
G1 X70.926 Y105.721 E29.38992
G1 X71.888 Y104.45 E29.42173
G1 X73.248 Y103.291 E29.45739
G1 X74.701 Y102.544 E29.49
G1 X76.379 Y102.096 E29.52465
G1 X77.945 Y102.018 E29.55594
G1 X79.604 Y102.291 E29.5895
G1 X80.222 Y102.545 E29.60283
G1 X80.2 Y84.879 E29.95538
G1 X80.548 Y83.464 E29.98445
G1 X81.334 Y81.948 E30.01853
M204 S2000
G0 F7500 X81.657 Y82.193
M204 S500
G1 F1500 X82.729 Y81.193 E30.04779
G1 X84.133 Y80.355 E30.08042
G1 X85.411 Y80.145 E30.10626
G1 X134.575 Y80.1 E31.08739
G1 X135.893 Y80.424 E31.11447
G1 X137.307 Y81.157 E31.14625
G1 X138.307 Y82.229 E31.17551
G1 X139.145 Y83.633 E31.20814
G1 X139.355 Y84.911 E31.23399
G1 X139.4 Y135.075 E32.23506
G1 X139.076 Y136.393 E32.26215
G1 X138.343 Y137.807 E32.29393
G1 X137.271 Y138.807 E32.32319
G1 X135.867 Y139.645 E32.35582
G1 X134.589 Y139.855 E32.38166
G1 X85.425 Y139.9 E33.36278
G1 X84.107 Y139.576 E33.38987
G1 X82.693 Y138.843 E33.42165
G1 X81.693 Y137.771 E33.45091
G1 X80.855 Y136.367 E33.48354
G1 X80.645 Y135.089 E33.50939
G1 X80.605 Y116.355 E33.88324
G1 X79.508 Y116.799 E33.90686
G1 X77.91 Y117.062 E33.93918
G1 X76.258 Y116.956 E33.97221
G1 X74.758 Y116.522 E34.00338
G1 X73.436 Y115.822 E34.03323
G1 X72.167 Y114.741 E34.0665
G1 X71.255 Y113.529 E34.09676
G1 X70.573 Y112.055 E34.12918
G1 X70.239 Y110.467 E34.16156
G1 X70.238 Y108.961 E34.19161
G1 X70.589 Y107.354 E34.22444
G1 X71.271 Y105.928 E34.25598
G1 X72.18 Y104.727 E34.28604
G1 X73.471 Y103.626 E34.3199
G1 X74.849 Y102.918 E34.35082
G1 X76.437 Y102.494 E34.38362
G1 X77.923 Y102.42 E34.41331
G1 X79.495 Y102.679 E34.4451
G1 X80.623 Y103.141 E34.46943
G1 X80.6 Y84.925 E34.83295
G1 X80.924 Y83.607 E34.86003
G1 X81.657 Y82.193 E34.89182
M204 S2000
G0 F7500 X81.979 Y82.44
M204 S500
G1 F1500 X82.974 Y81.512 E34.91897
G1 X84.271 Y80.738 E34.94911
G1 X85.476 Y80.54 E34.97348
G1 X134.529 Y80.5 E35.95239
G1 X135.75 Y80.8 E35.97748
G1 X137.06 Y81.479 E36.00692
G1 X137.988 Y82.474 E36.03408
G1 X138.762 Y83.771 E36.06422
G1 X138.96 Y84.976 E36.08859
G1 X139 Y135.029 E37.08745
G1 X138.7 Y136.25 E37.11254
G1 X138.021 Y137.56 E37.14199
G1 X137.026 Y138.488 E37.16914
G1 X135.729 Y139.262 E37.19928
G1 X134.524 Y139.46 E37.22365
G1 X85.471 Y139.5 E38.20256
G1 X84.25 Y139.2 E38.22765
G1 X82.94 Y138.521 E38.25709
G1 X82.012 Y137.526 E38.28424
G1 X81.238 Y136.229 E38.31439
G1 X81.04 Y135.024 E38.33876
G1 X81.004 Y115.7 E38.72439
G1 X80.74 Y115.869 E38.73064
G1 X79.4 Y116.411 E38.75949
G1 X77.888 Y116.66 E38.79007
G1 X76.327 Y116.56 E38.82128
G1 X74.912 Y116.15 E38.85068
G1 X73.661 Y115.488 E38.87893
G1 X72.46 Y114.465 E38.91041
G1 X71.6 Y113.322 E38.93896
G1 X70.954 Y111.926 E38.96965
G1 X70.639 Y110.428 E39.0002
G1 X70.638 Y109.005 E39.0286
G1 X70.97 Y107.486 E39.05963
G1 X71.616 Y106.135 E39.08951
G1 X72.474 Y105.001 E39.11789
G1 X73.692 Y103.963 E39.14983
G1 X74.997 Y103.292 E39.17911
G1 X76.495 Y102.892 E39.21005
G1 X77.901 Y102.822 E39.23814
G1 X79.388 Y103.067 E39.26822
G1 X80.808 Y103.648 E39.29884
G1 X81.024 Y103.784 E39.30393
G1 X81 Y84.971 E39.67936
G1 X81.3 Y83.75 E39.70446
G1 X81.979 Y82.44 E39.7339
M204 S2000
G0 F7500 X82.301 Y82.687
M204 S500
G1 F1500 X83.216 Y81.834 E39.75886
G1 X84.411 Y81.121 E39.78663
G1 X85.541 Y80.935 E39.80949
G1 X134.483 Y80.9 E40.78618
G1 X135.607 Y81.176 E40.80928
G1 X136.813 Y81.801 E40.83638
G1 X137.666 Y82.716 E40.86135
G1 X138.379 Y83.911 E40.88912
G1 X138.565 Y85.041 E40.91197
G1 X138.6 Y134.983 E41.90862
G1 X138.324 Y136.107 E41.93171
G1 X137.699 Y137.313 E41.95882
G1 X136.784 Y138.166 E41.98378
G1 X135.589 Y138.879 E42.01155
G1 X134.459 Y139.065 E42.03441
G1 X85.517 Y139.1 E43.0111
G1 X84.393 Y138.824 E43.0342
G1 X83.187 Y138.199 E43.0613
G1 X82.334 Y137.284 E43.08627
G1 X81.621 Y136.089 E43.11404
G1 X81.435 Y134.959 E43.13689
G1 X81.403 Y114.948 E43.53623
G1 X80.59 Y115.498 E43.55582
G1 X79.292 Y116.023 E43.58376
G1 X77.866 Y116.258 E43.6126
G1 X76.396 Y116.164 E43.642
G1 X75.066 Y115.778 E43.66964
G1 X73.886 Y115.154 E43.69627
G1 X72.753 Y114.189 E43.72597
G1 X71.945 Y113.115 E43.75279
G1 X71.335 Y111.797 E43.78178
G1 X71.039 Y110.389 E43.81049
G1 X71.038 Y109.05 E43.83721
G1 X71.352 Y107.615 E43.86652
G1 X71.958 Y106.346 E43.89459
G1 X72.77 Y105.274 E43.92143
G1 X73.913 Y104.3 E43.95139
G1 X75.145 Y103.666 E43.97904
G1 X76.553 Y103.29 E44.00813
G1 X77.879 Y103.224 E44.03462
G1 X79.281 Y103.455 E44.06298
G1 X80.657 Y104.018 E44.09265
G1 X81.509 Y104.604 E44.11328
G1 X81.424 Y104.026 E44.12494
G1 X81.4 Y85.017 E44.50429
G1 X81.676 Y83.893 E44.52738
G1 X82.301 Y82.687 E44.55449
M204 S2000
G0 F7500 X82.623 Y82.934
M204 S500
G1 F1500 X83.458 Y82.156 E44.57727
G1 X84.551 Y81.504 E44.60266
G1 X85.606 Y81.33 E44.624
G1 X134.436 Y81.3 E45.59846
G1 X135.465 Y81.553 E45.6196
G1 X136.566 Y82.123 E45.64435
G1 X137.344 Y82.958 E45.66712
G1 X137.996 Y84.051 E45.69252
G1 X138.17 Y85.106 E45.71386
G1 X138.2 Y134.936 E46.70827
G1 X137.947 Y135.965 E46.72941
G1 X137.377 Y137.066 E46.75416
G1 X136.542 Y137.844 E46.77693
G1 X135.449 Y138.496 E46.80233
G1 X134.394 Y138.67 E46.82367
G1 X85.564 Y138.7 E47.79812
G1 X84.535 Y138.447 E47.81927
G1 X83.434 Y137.877 E47.84401
G1 X82.656 Y137.042 E47.86679
G1 X82.004 Y135.949 E47.89218
G1 X81.83 Y134.894 E47.91352
G1 X81.802 Y114.068 E48.32913
G1 X81.445 Y114.437 E48.33937
G1 X80.403 Y115.142 E48.36448
G1 X79.184 Y115.635 E48.39072
G1 X77.844 Y115.856 E48.41782
G1 X76.466 Y115.768 E48.44538
G1 X75.219 Y115.406 E48.47129
G1 X74.111 Y114.82 E48.49631
G1 X73.046 Y113.913 E48.52422
G1 X72.29 Y112.908 E48.54932
G1 X71.716 Y111.668 E48.57659
G1 X71.439 Y110.35 E48.60346
G1 X71.438 Y109.094 E48.62853
G1 X71.733 Y107.745 E48.65609
G1 X72.3 Y106.557 E48.68235
G1 X73.064 Y105.549 E48.7076
G1 X74.136 Y104.635 E48.73571
G1 X75.293 Y104.04 E48.76167
G1 X76.611 Y103.688 E48.7889
G1 X77.857 Y103.626 E48.81379
G1 X79.174 Y103.843 E48.84043
G1 X80.462 Y104.37 E48.8682
G1 X81.512 Y105.092 E48.89363
G1 X82.391 Y106.018 E48.91911
G1 X83.103 Y107.205 E48.94673
G1 X83.3 Y107.802 E48.95928
G1 X83.716 Y107.449 E48.97017
G1 X83.404 Y107.232 E48.97775
G1 X82.744 Y106.422 E48.9986
G1 X82.568 Y106.052 E49.00678
G1 X82.431 Y105.846 E49.01171
G1 X81.975 Y105.021 E49.03053
G1 X81.82 Y103.968 E49.05177
G1 X81.8 Y85.064 E49.42902
G1 X82.053 Y84.035 E49.45016
G1 X82.623 Y82.934 E49.4749
M204 S2000
G0 F7500 X82.945 Y83.181
M204 S500
G1 F1500 X83.7 Y82.478 E49.49549
G1 X84.691 Y81.887 E49.51852
G1 X85.671 Y81.725 E49.53834
G1 X134.39 Y81.7 E50.51058
G1 X135.322 Y81.929 E50.52973
G1 X136.319 Y82.445 E50.55213
G1 X137.022 Y83.2 E50.57272
G1 X137.613 Y84.191 E50.59575
G1 X137.775 Y85.171 E50.61557
G1 X137.8 Y134.89 E51.60777
G1 X137.571 Y135.822 E51.62692
G1 X137.055 Y136.819 E51.64932
G1 X136.3 Y137.522 E51.66991
G1 X135.309 Y138.113 E51.69294
G1 X134.329 Y138.275 E51.71276
G1 X85.61 Y138.3 E52.685
G1 X84.678 Y138.071 E52.70415
G1 X83.681 Y137.555 E52.72655
G1 X82.978 Y136.8 E52.74714
G1 X82.387 Y135.809 E52.77017
G1 X82.225 Y134.829 E52.78999
G1 X82.201 Y112.995 E53.22571
G1 X82.028 Y113.261 E53.23204
G1 X81.187 Y114.129 E53.25616
G1 X80.216 Y114.786 E53.27956
G1 X79.076 Y115.247 E53.3041
G1 X77.822 Y115.454 E53.32946
G1 X76.536 Y115.372 E53.35518
G1 X75.372 Y115.034 E53.37936
G1 X74.336 Y114.486 E53.40275
G1 X73.339 Y113.637 E53.42889
G1 X72.635 Y112.701 E53.45226
G1 X72.097 Y111.539 E53.47781
G1 X71.839 Y110.311 E53.50285
G1 X71.838 Y109.138 E53.52626
G1 X72.114 Y107.875 E53.55206
G1 X72.644 Y106.766 E53.57659
G1 X73.355 Y105.826 E53.60011
G1 X74.36 Y104.97 E53.62646
G1 X75.441 Y104.414 E53.65071
