;FLAVOR:Marlin
;TIME:4949
;Filament used: 6.20358m
;Layer height: 0.28
;MINX:44.3
;MINY:85.717
;MINZ:0.28
;MAXX:174.007
;MAXY:131.747
;MAXZ:10
;Generated with Cura_SteamEngine 5.4.0
M82 ;absolute extrusion mode
; Ender 3 S1 Pro Start G-code
M413 S0 ; Disable power loss recovery
G92 E0 ; Reset Extruder
; Prep surfaces before auto home for better accuracy
M140 S65
M104 S210.0

G28 O ; Home all untrusted axes
M420 S1 Z10 ; use bed leveling
G1 Z10.0 F3000 ; Move Z Axis up little to prevent scratching of Heat Bed
G1 X0 Y0

M190 S65
M109 S210.0

G1 X0.1 Y20 Z0.3 F5000.0 ; Move to start position
G1 X0.1 Y200.0 Z0.3 F1500.0 E15 ; Draw the first line
G1 X0.4 Y200.0 Z0.3 F5000.0 ; Move to side a little
G1 X0.4 Y20 Z0.3 F1500.0 E30 ; Draw the second line
G92 E0 ; Reset Extruder
G1 Z2.0 F3000 ; Move Z Axis up little to prevent scratching of Heat Bed
G1 X5 Y20 Z0.3 F5000.0 ; Move over to prevent blob squish
G92 E0
G92 E0
G1 F2400 E-0.8
;LAYER_COUNT:35
;LAYER:0
M107
M204 S2000
G1 F300 Z0.48
G0 F7500 X52.607 Y87.737 Z0.48
M204 S500
;TYPE:SKIRT
G1 F300 Z0.28
G1 F2400 E0
G1 F1500 X54.054 Y86.929 E0.07717
G1 X55.858 Y86.207 E0.16765
G1 X57.577 Y85.718 E0.25087
G1 X162.559 Y85.717 E5.13927
G1 X164.813 Y86.447 E5.24959
G1 X166.299 Y87.104 E5.32525
G1 X167.912 Y88.067 E5.41273
G1 X168.593 Y88.581 E5.45245
G1 X168.9 Y88.84 E5.47116
G1 X169.771 Y89.445 E5.52054
G1 X171.345 Y91.503 E5.64118
G1 X171.687 Y92.033 E5.67055
G1 X172.053 Y92.537 E5.69956
G1 X172.715 Y93.663 E5.76038
G1 X173.383 Y95.941 E5.87092
G1 X173.8 Y97.577 E5.94953
G1 X173.802 Y117.027 E6.85521
G1 X173.929 Y117.389 E6.87307
G1 X174.007 Y119.803 E6.98554
G1 X173.072 Y123.658 E7.17024
G1 X172.677 Y124.434 E7.21079
G1 X172.513 Y124.822 E7.2304
G1 X172.103 Y125.64 E7.27301
G1 X171.075 Y127.393 E7.36764
G1 X169.686 Y128.789 E7.45934
G1 X167.659 Y130.026 E7.56991
G1 X165.74 Y130.423 E7.66116
G1 X165.597 Y130.437 E7.66785
G1 X165.29 Y130.597 E7.68397
G1 X164.455 Y130.942 E7.72604
G1 X162.88 Y131.416 E7.80263
G1 X161.88 Y131.606 E7.85002
G1 X160.014 Y131.747 E7.93716
G1 X59.186 Y131.713 E12.63213
G1 X57.77 Y131.541 E12.69855
G1 X56.414 Y131.226 E12.76338
G1 X54.447 Y130.469 E12.86152
G1 X52.448 Y129.989 E12.95724
G1 X50.577 Y128.982 E13.05618
G1 X50.08 Y128.618 E13.08487
G1 X48.703 Y126.94 E13.18594
G1 X47.866 Y125.579 E13.26034
G1 X47.509 Y124.841 E13.29852
G1 X46.958 Y123.818 E13.35262
G1 X46.483 Y121.832 E13.44771
G1 X46.432 Y121.578 E13.45977
G1 X44.986 Y119.362 E13.58298
G1 X44.3 Y116.106 E13.73792
G1 X44.409 Y114.626 E13.80702
G1 X44.407 Y113.279 E13.86975
G1 X44.563 Y111.794 E13.93928
G1 X45.43 Y109.551 E14.05125
G1 X45.996 Y108.481 E14.10761
G1 X46.2 Y108.24 E14.12232
G1 X46.201 Y100.39 E14.48785
G1 X46.091 Y99.957 E14.50865
G1 X45.977 Y99.176 E14.5454
G1 X46.201 Y96.995 E14.64749
G1 X46.764 Y95.411 E14.72577
G1 X47.111 Y93.998 E14.79352
G1 X48.155 Y91.978 E14.8994
G1 X48.657 Y91.507 E14.93145
G1 X48.886 Y91.165 E14.95062
G1 X50.083 Y89.641 E15.04085
G1 X50.818 Y89.072 E15.08414
G1 X51.188 Y88.759 E15.1067
G1 X52.607 Y87.737 E15.18813
M204 S2000
G0 F7500 X52.841 Y88.062
M204 S500
G1 F1500 X54.249 Y87.278 E15.26317
G1 X55.967 Y86.592 E15.34931
G1 X57.633 Y86.118 E15.42996
G1 X162.495 Y86.117 E20.31278
G1 X164.651 Y86.813 E20.41827
G1 X166.137 Y87.47 E20.49393
G1 X167.671 Y88.386 E20.57712
G1 X168.335 Y88.887 E20.61585
G1 X168.656 Y89.158 E20.63542
G1 X169.491 Y89.738 E20.68276
G1 X171.027 Y91.746 E20.80048
G1 X171.363 Y92.268 E20.82938
G1 X171.729 Y92.772 E20.85839
G1 X172.345 Y93.822 E20.91507
G1 X172.995 Y96.04 E21.0227
G1 X173.4 Y97.629 E21.09905
G1 X173.402 Y117.093 E22.00538
G1 X173.531 Y117.461 E22.02353
G1 X173.605 Y119.762 E22.13073
G1 X172.694 Y123.518 E22.3107
G1 X172.32 Y124.253 E22.3491
G1 X172.155 Y124.643 E22.36882
G1 X171.745 Y125.461 E22.41143
G1 X170.757 Y127.145 E22.50234
G1 X169.434 Y128.475 E22.58969
G1 X167.512 Y129.648 E22.69454
G1 X165.659 Y130.031 E22.78265
G1 X165.484 Y130.044 E22.79082
G1 X165.137 Y130.227 E22.80908
G1 X164.302 Y130.572 E22.85115
G1 X162.804 Y131.023 E22.924
G1 X161.85 Y131.207 E22.96924
G1 X160.014 Y131.347 E23.05498
G1 X59.234 Y131.316 E27.74772
G1 X57.861 Y131.151 E27.81211
G1 X56.505 Y130.836 E27.87693
G1 X54.635 Y130.116 E27.97024
G1 X54.481 Y130.034 E27.97836
G1 X54.217 Y130.008 E27.99072
G1 X52.593 Y129.612 E28.06855
G1 X50.814 Y128.659 E28.16253
G1 X50.356 Y128.323 E28.18898
G1 X49.044 Y126.73 E28.28507
G1 X48.207 Y125.369 E28.35947
G1 X47.861 Y124.651 E28.39659
G1 X47.335 Y123.674 E28.44825
G1 X46.875 Y121.754 E28.54019
G1 X46.809 Y121.423 E28.5559
G1 X45.361 Y119.204 E28.67928
G1 X44.703 Y116.081 E28.82789
G1 X44.809 Y114.641 E28.89513
G1 X44.805 Y113.321 E28.95659
G1 X44.956 Y111.887 E29.02374
G1 X45.784 Y109.738 E29.13097
G1 X46.35 Y108.668 E29.18734
G1 X46.6 Y108.398 E29.20447
G1 X46.601 Y100.34 E29.57969
G1 X46.487 Y99.899 E29.6009
G1 X46.38 Y99.167 E29.63534
G1 X46.594 Y97.084 E29.73285
G1 X47.146 Y95.53 E29.80964
G1 X47.488 Y94.14 E29.87629
G1 X48.478 Y92.224 E29.97671
G1 X48.964 Y91.768 E30.00775
G1 X49.201 Y91.412 E30.02766
G1 X50.368 Y89.926 E30.11564
G1 X51.063 Y89.388 E30.15657
G1 X51.422 Y89.084 E30.17847
G1 X52.841 Y88.062 E30.2599
M204 S2000
G0 F7500 X53.075 Y88.387
M204 S500
G1 F1500 X54.398 Y87.649 E30.33044
G1 X56.076 Y86.977 E30.41461
G1 X57.689 Y86.518 E30.4927
G1 X162.431 Y86.517 E35.36992
G1 X164.528 Y87.194 E35.47253
G1 X165.932 Y87.814 E35.544
G1 X167.43 Y88.706 E35.62518
G1 X168.077 Y89.193 E35.66289
G1 X168.412 Y89.476 E35.68331
G1 X169.211 Y90.031 E35.72861
G1 X170.691 Y91.963 E35.84193
G1 X171.039 Y92.503 E35.87185
G1 X171.405 Y93.007 E35.90085
G1 X171.975 Y93.981 E35.9534
G1 X172.607 Y96.139 E36.05811
G1 X173 Y97.681 E36.1322
G1 X173.002 Y117.174 E37.03988
G1 X173.131 Y117.474 E37.05509
G1 X173.203 Y119.721 E37.15977
G1 X172.316 Y123.38 E37.33508
G1 X171.958 Y124.083 E37.37182
G1 X171.797 Y124.464 E37.39108
G1 X171.387 Y125.282 E37.43368
G1 X170.439 Y126.897 E37.52088
G1 X169.182 Y128.161 E37.60389
G1 X167.365 Y129.27 E37.70301
G1 X165.578 Y129.639 E37.78798
G1 X165.374 Y129.65 E37.79749
G1 X164.984 Y129.857 E37.81805
G1 X164.149 Y130.202 E37.86012
G1 X162.727 Y130.63 E37.92927
G1 X161.819 Y130.808 E37.97235
G1 X160.014 Y130.947 E38.05665
G1 X59.281 Y130.919 E42.7472
G1 X57.952 Y130.761 E42.80952
G1 X56.596 Y130.446 E42.87434
G1 X54.823 Y129.763 E42.96281
G1 X54.595 Y129.642 E42.97483
G1 X54.312 Y129.619 E42.98805
G1 X52.735 Y129.235 E43.06363
G1 X51.05 Y128.336 E43.15256
G1 X50.632 Y128.03 E43.17668
G1 X49.385 Y126.52 E43.26787
G1 X48.548 Y125.159 E43.34227
G1 X48.222 Y124.478 E43.37743
G1 X47.712 Y123.53 E43.42755
G1 X47.267 Y121.676 E43.51633
G1 X47.186 Y121.268 E43.5357
G1 X45.736 Y119.046 E43.65925
G1 X45.106 Y116.056 E43.80153
G1 X45.209 Y114.655 E43.86695
G1 X45.203 Y113.363 E43.92711
G1 X45.349 Y111.979 E43.99191
G1 X46.138 Y109.925 E44.09437
G1 X46.68 Y108.9 E44.14836
G1 X47 Y108.555 E44.17027
G1 X47.001 Y100.286 E44.55531
G1 X46.883 Y99.841 E44.57674
G1 X46.783 Y99.158 E44.60889
G1 X46.987 Y97.173 E44.7018
G1 X47.528 Y95.651 E44.77702
G1 X47.864 Y94.283 E44.84261
G1 X48.801 Y92.47 E44.93764
G1 X49.272 Y92.028 E44.96772
G1 X49.516 Y91.659 E44.98831
G1 X50.653 Y90.211 E45.07404
G1 X51.32 Y89.695 E45.11331
G1 X51.656 Y89.409 E45.13386
G1 X53.075 Y88.387 E45.21528
M204 S2000
G0 F7500 X53.309 Y88.712
M204 S500
G1 F1500 X54.547 Y88.02 E45.28132
G1 X56.185 Y87.362 E45.36352
G1 X57.745 Y86.918 E45.43905
G1 X162.367 Y86.917 E50.31068
G1 X164.405 Y87.575 E50.41041
G1 X165.728 Y88.158 E50.47773
G1 X167.189 Y89.026 E50.55686
G1 X167.836 Y89.513 E50.59456
G1 X168.169 Y89.795 E50.61488
G1 X168.931 Y90.324 E50.65808
G1 X170.373 Y92.206 E50.76848
G1 X170.715 Y92.738 E50.79793
G1 X171.081 Y93.242 E50.82693
G1 X171.605 Y94.141 E50.87538
G1 X172.219 Y96.238 E50.97713
G1 X172.6 Y97.733 E51.04897
G1 X172.602 Y117.256 E51.95804
G1 X172.733 Y117.562 E51.97354
G1 X172.801 Y119.68 E52.07221
G1 X171.938 Y123.242 E52.24287
G1 X171.593 Y123.919 E52.27825
G1 X171.439 Y124.285 E52.29674
G1 X171.042 Y125.079 E52.33808
G1 X170.119 Y126.651 E52.42296
G1 X168.93 Y127.847 E52.50149
G1 X167.218 Y128.892 E52.59489
G1 X165.497 Y129.247 E52.67671
G1 X165.268 Y129.253 E52.68738
G1 X164.831 Y129.487 E52.71046
G1 X163.996 Y129.832 E52.75253
G1 X162.65 Y130.237 E52.81798
G1 X161.742 Y130.415 E52.86107
G1 X160.014 Y130.547 E52.94176
G1 X59.328 Y130.522 E57.63013
G1 X58.043 Y130.371 E57.69037
G1 X56.687 Y130.056 E57.75519
G1 X55.011 Y129.41 E57.83883
G1 X54.707 Y129.248 E57.85487
G1 X54.407 Y129.23 E57.86887
G1 X52.877 Y128.857 E57.9422
G1 X51.238 Y127.983 E58.02869
G1 X50.91 Y127.738 E58.04775
G1 X49.726 Y126.31 E58.13413
G1 X48.889 Y124.949 E58.20853
G1 X48.583 Y124.306 E58.24169
G1 X48.09 Y123.389 E58.29016
G1 X47.659 Y121.598 E58.37594
G1 X47.558 Y121.092 E58.39997
G1 X47.477 Y120.992 E58.40596
G1 X46.112 Y118.89 E58.52267
G1 X45.509 Y116.03 E58.65877
G1 X45.609 Y114.669 E58.72231
G1 X45.601 Y113.405 E58.78117
G1 X45.741 Y112.074 E58.84349
G1 X46.492 Y110.112 E58.94131
G1 X47.01 Y109.132 E58.99293
G1 X47.4 Y108.712 E59.01962
G1 X47.401 Y100.233 E59.41443
G1 X47.279 Y99.783 E59.43614
G1 X47.186 Y99.149 E59.46598
G1 X47.38 Y97.262 E59.55431
G1 X47.91 Y95.77 E59.62804
G1 X48.241 Y94.425 E59.69254
G1 X49.124 Y92.716 E59.78211
G1 X49.579 Y92.289 E59.81116
G1 X49.831 Y91.906 E59.83251
G1 X50.936 Y90.498 E59.91585
G1 X51.565 Y90.012 E59.95287
G1 X51.89 Y89.734 E59.97278
G1 X53.309 Y88.712 E60.05421
M204 S2000
G0 F7500 X53.505 Y89.061
M204 S500
G1 F1500 X54.697 Y88.391 E60.11788
G1 X56.295 Y87.747 E60.1981
G1 X57.802 Y87.318 E60.27107
G1 X162.303 Y87.317 E65.13707
G1 X164.282 Y87.956 E65.2339
G1 X165.524 Y88.502 E65.29708
G1 X166.948 Y89.346 E65.37416
G1 X167.595 Y89.833 E65.41187
G1 X167.932 Y90.118 E65.43242
G1 X168.654 Y90.619 E65.47334
G1 X170.036 Y92.422 E65.57912
G1 X170.382 Y92.961 E65.60894
G1 X170.735 Y93.444 E65.6368
G1 X171.236 Y94.303 E65.6831
G1 X171.831 Y96.337 E65.78178
G1 X172.2 Y97.785 E65.85136
G1 X172.202 Y117.338 E66.76183
G1 X172.335 Y117.65 E66.77763
G1 X172.399 Y119.639 E66.87029
G1 X171.56 Y123.104 E67.0363
G1 X171.228 Y123.756 E67.07037
G1 X171.081 Y124.106 E67.08804
G1 X170.697 Y124.876 E67.12811
G1 X169.799 Y126.405 E67.21068
G1 X168.678 Y127.533 E67.28473
G1 X167.069 Y128.515 E67.3725
G1 X165.486 Y128.847 E67.44782
G1 X165.164 Y128.856 E67.46282
G1 X164.678 Y129.117 E67.4885
G1 X163.843 Y129.462 E67.53057
G1 X162.573 Y129.844 E67.59233
G1 X161.665 Y130.022 E67.63541
G1 X160.014 Y130.147 E67.71251
G1 X59.374 Y130.125 E72.39873
G1 X58.134 Y129.981 E72.45686
G1 X56.778 Y129.666 E72.52168
G1 X55.199 Y129.057 E72.60048
G1 X54.813 Y128.851 E72.62086
G1 X54.502 Y128.841 E72.63534
G1 X53.017 Y128.479 E72.70652
G1 X51.477 Y127.663 E72.78767
G1 X51.188 Y127.447 E72.80447
G1 X50.067 Y126.1 E72.88607
G1 X49.23 Y124.739 E72.96047
G1 X48.935 Y124.117 E72.99253
G1 X48.468 Y123.248 E73.03846
G1 X48.053 Y121.527 E73.1209
G1 X48.003 Y121.249 E73.13405
G1 X47.928 Y120.911 E73.15017
G1 X47.812 Y120.774 E73.15853
G1 X46.488 Y118.735 E73.27174
G1 X45.912 Y116.004 E73.4017
G1 X46.009 Y114.683 E73.46338
G1 X45.999 Y113.447 E73.52093
G1 X46.134 Y112.167 E73.58086
G1 X46.846 Y110.299 E73.67395
G1 X47.34 Y109.364 E73.72319
G1 X47.8 Y108.869 E73.75466
G1 X47.801 Y100.18 E74.15925
G1 X47.675 Y99.725 E74.18124
G1 X47.589 Y99.14 E74.20877
G1 X47.773 Y97.351 E74.29251
G1 X48.292 Y95.891 E74.36466
G1 X48.617 Y94.568 E74.4281
G1 X49.447 Y92.962 E74.51228
G1 X49.886 Y92.55 E74.54031
G1 X50.165 Y92.126 E74.56395
G1 X51.219 Y90.785 E74.64337
G1 X51.82 Y90.32 E74.67875
G1 X52.15 Y90.038 E74.69896
G1 X53.505 Y89.061 E74.77675
M204 S2000
G0 F7500 X53.701 Y89.41
M204 S500
G1 F1500 X54.893 Y88.74 E74.84042
G1 X56.405 Y88.132 E74.91631
G1 X57.859 Y87.718 E74.9867
G1 X162.239 Y87.717 E79.84707
G1 X164.159 Y88.337 E79.94102
G1 X165.32 Y88.846 E80.00005
G1 X166.707 Y89.666 E80.07507
G1 X167.354 Y90.153 E80.11278
G1 X167.689 Y90.437 E80.13323
G1 X168.377 Y90.914 E80.17222
G1 X169.699 Y92.638 E80.27338
G1 X170.048 Y93.182 E80.30347
G1 X170.389 Y93.645 E80.33025
G1 X170.866 Y94.463 E80.37434
G1 X171.443 Y96.436 E80.47006
G1 X171.8 Y97.837 E80.53738
G1 X171.802 Y117.42 E81.44925
G1 X171.937 Y117.737 E81.46529
G1 X171.997 Y119.598 E81.55199
G1 X171.182 Y122.966 E81.71335
G1 X170.863 Y123.592 E81.74606
G1 X170.712 Y123.951 E81.7642
G1 X170.352 Y124.673 E81.80176
G1 X169.479 Y126.159 E81.88202
G1 X168.426 Y127.219 E81.95159
G1 X166.92 Y128.138 E82.03374
G1 X165.404 Y128.456 E82.10587
G1 X165.063 Y128.456 E82.12175
G1 X164.525 Y128.747 E82.15023
G1 X163.69 Y129.092 E82.1923
G1 X162.496 Y129.451 E82.25035
G1 X161.588 Y129.629 E82.29344
G1 X160.014 Y129.747 E82.36694
G1 X59.42 Y129.728 E87.05101
G1 X58.225 Y129.591 E87.10702
G1 X56.869 Y129.276 E87.17184
G1 X55.387 Y128.704 E87.24581
G1 X54.912 Y128.451 E87.27087
G1 X54.597 Y128.452 E87.28554
G1 X53.158 Y128.101 E87.35451
G1 X51.717 Y127.343 E87.43033
G1 X51.467 Y127.156 E87.44487
G1 X50.408 Y125.89 E87.52172
G1 X49.571 Y124.529 E87.59612
G1 X49.297 Y123.947 E87.62607
G1 X48.846 Y123.107 E87.67047
G1 X48.447 Y121.456 E87.74956
G1 X48.397 Y121.178 E87.76271
G1 X48.296 Y120.723 E87.78441
G1 X48.147 Y120.556 E87.79484
G1 X46.863 Y118.579 E87.9046
G1 X46.315 Y115.979 E88.02833
G1 X46.409 Y114.696 E88.08823
G1 X46.397 Y113.489 E88.14444
G1 X46.527 Y112.26 E88.20199
G1 X47.2 Y110.486 E88.29034
G1 X47.67 Y109.596 E88.3372
G1 X48.2 Y109.026 E88.37344
G1 X48.201 Y100.123 E88.788
G1 X48.071 Y99.667 E88.81008
G1 X47.992 Y99.131 E88.83531
G1 X48.166 Y97.44 E88.91447
G1 X48.674 Y96.01 E88.98513
G1 X48.994 Y94.71 E89.04747
G1 X49.77 Y93.208 E89.12619
G1 X50.194 Y92.81 E89.15327
G1 X50.48 Y92.373 E89.17759
G1 X51.504 Y91.07 E89.25476
G1 X52.075 Y90.628 E89.28838
G1 X52.41 Y90.342 E89.30889
G1 X53.701 Y89.41 E89.38303
M204 S2000
G0 F7500 X53.898 Y89.758
M204 S500
G1 F1500 X55.043 Y89.111 E89.44427
G1 X56.515 Y88.517 E89.51819
G1 X57.916 Y88.118 E89.58602
G1 X162.175 Y88.117 E94.44075
G1 X164.036 Y88.718 E94.53182
G1 X165.117 Y89.191 E94.58676
G1 X166.466 Y89.986 E94.65967
G1 X167.113 Y90.473 E94.69738
G1 X167.452 Y90.76 E94.71806
G1 X168.098 Y91.208 E94.75467
G1 X169.362 Y92.854 E94.8513
G1 X169.713 Y93.401 E94.88157
G1 X170.043 Y93.846 E94.90736
G1 X170.496 Y94.623 E94.94924
G1 X171.055 Y96.535 E95.042
G1 X171.4 Y97.889 E95.10706
G1 X171.402 Y117.502 E96.02033
G1 X171.539 Y117.824 E96.03662
G1 X171.595 Y119.557 E96.11736
G1 X170.803 Y122.83 E96.27416
G1 X170.494 Y123.437 E96.30588
G1 X170.343 Y123.796 E96.32401
G1 X170.007 Y124.47 E96.35908
G1 X169.159 Y125.913 E96.43702
G1 X168.174 Y126.905 E96.50211
G1 X166.773 Y127.76 E96.57854
G1 X165.36 Y128.056 E96.64576
G1 X164.962 Y128.056 E96.66429
G1 X164.372 Y128.377 E96.69557
G1 X163.537 Y128.722 E96.73764
G1 X162.419 Y129.058 E96.792
G1 X161.511 Y129.236 E96.83508
G1 X160.014 Y129.347 E96.90498
G1 X59.465 Y129.33 E101.58696
G1 X58.316 Y129.201 E101.6408
G1 X56.96 Y128.886 E101.70562
G1 X55.575 Y128.351 E101.77476
G1 X55.011 Y128.05 E101.80453
G1 X54.646 Y128.052 E101.82152
G1 X53.297 Y127.723 E101.88618
G1 X51.956 Y127.022 E101.95664
G1 X51.744 Y126.864 E101.96895
G1 X50.715 Y125.633 E102.04366
G1 X49.933 Y124.359 E102.11327
G1 X49.659 Y123.777 E102.14322
G1 X49.224 Y122.966 E102.18607
G1 X48.841 Y121.385 E102.26182
G1 X48.791 Y121.107 E102.27497
G1 X48.663 Y120.528 E102.30259
G1 X48.482 Y120.338 E102.3148
G1 X47.239 Y118.424 E102.42107
G1 X46.718 Y115.953 E102.53866
G1 X46.809 Y114.708 E102.59679
G1 X46.795 Y113.531 E102.6516
G1 X46.92 Y112.352 E102.70681
G1 X47.554 Y110.673 E102.79038
G1 X48 Y109.828 E102.83487
G1 X48.6 Y109.183 E102.87589
G1 X48.601 Y100.064 E103.30051
G1 X48.467 Y99.608 E103.32264
G1 X48.395 Y99.121 E103.34556
G1 X48.559 Y97.529 E103.42008
G1 X49.056 Y96.131 E103.48917
G1 X49.37 Y94.853 E103.55045
G1 X50.093 Y93.454 E103.62378
G1 X50.501 Y93.071 E103.64983
G1 X50.795 Y92.62 E103.6749
G1 X51.789 Y91.355 E103.74982
G1 X52.33 Y90.936 E103.78168
G1 X52.645 Y90.666 E103.801
G1 X53.898 Y89.758 E103.87305
M204 S2000
G0 F7500 X54.096 Y90.106
M204 S500
G1 F1500 X55.193 Y89.482 E103.93182
G1 X56.625 Y88.902 E104.00376
