;FLAVOR:Marlin
;TIME:6186
;Filament used: 6.53807m
;Layer height: 0.28
;MINX:44.444
;MINY:87.2
;MINZ:0.28
;MAXX:172.8
;MAXY:132.8
;MAXZ:15.04
;TARGET_MACHINE.NAME:Creality Ender-3 S1 Pro
;Generated with Cura_SteamEngine 5.6.0
M82 ;absolute extrusion mode
; Ender 3 S1 Pro Start G-code
M413 S0 ; Disable power loss recovery
G92 E0 ; Reset Extruder
; Prep surfaces before auto home for better accuracy
M140 S65
M104 S210.0

G28 O ; Home all untrusted axes
M420 S1 Z10 ; use bed leveling
G1 Z10.0 F3000 ; Move Z Axis up little to prevent scratching of Heat Bed
G1 X0 Y0

M190 S65
M109 S210.0

G1 X0.1 Y20 Z0.3 F5000.0 ; Move to start position
G1 X0.1 Y200.0 Z0.3 F1500.0 E15 ; Draw the first line
G1 X0.4 Y200.0 Z0.3 F5000.0 ; Move to side a little
G1 X0.4 Y20 Z0.3 F1500.0 E30 ; Draw the second line
G92 E0 ; Reset Extruder
G1 Z2.0 F3000 ; Move Z Axis up little to prevent scratching of Heat Bed
G1 X5 Y20 Z0.3 F5000.0 ; Move over to prevent blob squish
G92 E0
G92 E0
G1 F1800 E-0.8
;LAYER_COUNT:53
;LAYER:0
M107
M204 S2000
G1 F300 Z0.48
G0 F7500 X53.291 Y89.104 Z0.48
M204 S500
;TYPE:SKIRT
G1 F300 Z0.28
G1 F1800 E0
G1 F1500 X54.156 Y88.612 E0.04634
G1 X56.43 Y87.717 E0.16013
G1 X57.875 Y87.374 E0.22929
G1 X58.483 Y87.284 E0.2579
G1 X160.052 Y87.2 E4.98738
G1 X162.028 Y87.356 E5.07968
G1 X162.775 Y87.502 E5.11512
G1 X164.556 Y88.041 E5.20177
G1 X165.33 Y88.366 E5.24086
G1 X166.988 Y89.282 E5.32906
G1 X167.862 Y89.906 E5.37907
G1 X168.746 Y90.661 E5.4332
G1 X169.491 Y91.421 E5.48275
G1 X170.521 Y92.706 E5.55944
G1 X170.836 Y93.182 E5.58602
G1 X171.736 Y94.903 E5.67645
G1 X172.167 Y96.038 E5.73298
G1 X172.626 Y97.875 E5.82115
G1 X172.716 Y98.48 E5.84963
G1 X172.8 Y120.169 E6.85957
G1 X172.631 Y122.057 E6.94783
G1 X172.467 Y122.895 E6.9876
G1 X172.009 Y124.417 E7.06161
G1 X171.476 Y125.653 E7.12428
G1 X170.721 Y126.978 E7.19529
G1 X169.836 Y128.189 E7.26514
G1 X169.007 Y129.091 E7.32218
G1 X167.95 Y130.025 E7.38786
G1 X166.37 Y131.093 E7.47666
G1 X165.152 Y131.718 E7.54041
G1 X164.626 Y131.936 E7.56692
G1 X162.719 Y132.511 E7.65967
G1 X162.177 Y132.617 E7.68539
G1 X160.244 Y132.794 E7.77577
G1 X59.968 Y132.8 E12.44504
G1 X58.511 Y132.707 E12.51302
G1 X57.307 Y132.503 E12.56989
G1 X55.579 Y132.016 E12.65348
G1 X54.836 Y131.714 E12.69083
G1 X53.117 Y130.791 E12.78168
G1 X52.675 Y130.497 E12.8064
G1 X51.103 Y129.202 E12.90124
G1 X50.673 Y128.766 E12.92975
G1 X49.48 Y127.287 E13.01823
G1 X49.102 Y126.708 E13.05043
G1 X48.282 Y125.152 E13.13233
G1 X48.064 Y124.626 E13.15884
G1 X47.499 Y122.757 E13.24976
G1 X47.465 Y122.595 E13.25747
G1 X47.203 Y122.364 E13.27373
G1 X45.738 Y120.248 E13.39357
G1 X44.878 Y118.619 E13.47935
G1 X44.444 Y116.106 E13.5981
G1 X44.478 Y114.731 E13.66214
G1 X44.449 Y113.385 E13.72483
G1 X45.106 Y110.931 E13.84312
G1 X45.878 Y109.409 E13.92259
G1 X47.213 Y107.743 E14.022
G1 X47.247 Y99.046 E14.42697
G1 X47.464 Y97.409 E14.50386
G1 X47.737 Y96.349 E14.55483
G1 X48.292 Y94.86 E14.62883
G1 X49.233 Y93.086 E14.72233
G1 X50.058 Y91.939 E14.78812
G1 X51.089 Y90.812 E14.85925
G1 X51.735 Y90.23 E14.89973
G1 X53.291 Y89.104 E14.98917
M204 S2000
G0 F7500 X53.489 Y89.452
M204 S500
G1 F1500 X54.354 Y88.96 E15.03551
G1 X56.576 Y88.089 E15.14664
G1 X57.934 Y87.77 E15.21159
G1 X58.542 Y87.68 E15.24021
G1 X160.052 Y87.6 E19.96694
G1 X161.951 Y87.749 E20.05564
G1 X162.698 Y87.895 E20.09108
G1 X164.401 Y88.41 E20.17393
G1 X165.175 Y88.735 E20.21302
G1 X166.756 Y89.608 E20.29711
G1 X167.603 Y90.211 E20.34553
G1 X168.46 Y90.941 E20.39795
G1 X169.205 Y91.701 E20.4475
G1 X170.187 Y92.927 E20.52065
G1 X170.502 Y93.403 E20.54722
G1 X171.381 Y95.088 E20.63572
G1 X171.779 Y96.135 E20.68788
G1 X172.23 Y97.934 E20.77424
G1 X172.32 Y98.539 E20.80272
G1 X172.4 Y120.17 E21.80996
G1 X172.238 Y121.98 E21.89457
G1 X172.074 Y122.818 E21.93433
G1 X171.626 Y124.301 E22.00647
G1 X171.128 Y125.456 E22.06504
G1 X170.398 Y126.742 E22.1339
G1 X169.541 Y127.918 E22.20165
G1 X168.712 Y128.82 E22.2587
G1 X167.725 Y129.694 E22.32009
G1 X166.187 Y130.737 E22.40662
G1 X164.999 Y131.348 E22.46882
G1 X164.473 Y131.566 E22.49534
G1 X162.642 Y132.118 E22.58438
G1 X162.1 Y132.224 E22.6101
G1 X160.244 Y132.394 E22.69689
G1 X59.968 Y132.4 E27.36616
G1 X58.537 Y132.308 E27.43293
G1 X57.415 Y132.118 E27.48592
G1 X55.73 Y131.645 E27.56741
G1 X54.987 Y131.343 E27.60476
G1 X53.339 Y130.458 E27.69186
G1 X52.897 Y130.164 E27.71658
G1 X51.388 Y128.921 E27.80761
G1 X50.958 Y128.485 E27.83613
G1 X49.815 Y127.068 E27.9209
G1 X49.437 Y126.489 E27.95309
G1 X48.652 Y124.999 E28.03152
G1 X48.434 Y124.473 E28.05803
G1 X47.882 Y122.642 E28.14708
G1 X47.829 Y122.374 E28.1598
G1 X47.532 Y122.136 E28.17752
G1 X46.092 Y120.061 E28.29513
G1 X45.261 Y118.487 E28.37801
G1 X44.845 Y116.078 E28.49184
G1 X44.878 Y114.741 E28.55412
G1 X44.85 Y113.431 E28.61513
G1 X45.48 Y111.078 E28.72855
G1 X46.217 Y109.625 E28.80442
G1 X47.612 Y107.884 E28.9083
G1 X47.644 Y99.099 E29.31737
G1 X47.861 Y97.462 E29.39426
G1 X48.112 Y96.489 E29.44105
G1 X48.667 Y95 E29.51505
G1 X49.558 Y93.32 E29.60359
G1 X50.383 Y92.173 E29.66938
G1 X51.357 Y91.109 E29.73655
G1 X52.003 Y90.527 E29.77704
G1 X53.489 Y89.452 E29.86244
M204 S2000
G0 F7500 X53.687 Y89.8
M204 S500
G1 F1500 X54.552 Y89.308 E29.90878
G1 X56.668 Y88.478 E30.01462
G1 X57.993 Y88.166 E30.078
G1 X58.601 Y88.076 E30.10662
G1 X160.052 Y88 E34.83061
G1 X161.874 Y88.142 E34.9157
G1 X162.621 Y88.288 E34.95115
G1 X164.246 Y88.779 E35.03019
G1 X165.02 Y89.104 E35.06928
G1 X166.524 Y89.934 E35.14927
G1 X167.344 Y90.516 E35.19609
G1 X168.201 Y91.246 E35.24851
G1 X168.893 Y91.951 E35.29451
G1 X169.853 Y93.148 E35.36596
G1 X170.168 Y93.624 E35.39254
G1 X171.007 Y95.231 E35.47695
G1 X171.391 Y96.233 E35.52692
G1 X171.834 Y97.993 E35.61143
G1 X171.924 Y98.598 E35.63991
G1 X172 Y120.171 E36.64444
G1 X171.845 Y121.903 E36.72542
G1 X171.681 Y122.741 E36.76518
G1 X171.243 Y124.185 E36.83544
G1 X170.78 Y125.259 E36.8899
G1 X170.074 Y126.507 E36.95667
G1 X169.246 Y127.647 E37.02227
G1 X168.417 Y128.549 E37.07932
G1 X167.5 Y129.363 E37.13641
G1 X165.962 Y130.406 E37.22294
G1 X164.846 Y130.978 E37.28134
G1 X164.32 Y131.196 E37.30785
G1 X162.565 Y131.725 E37.3932
G1 X162.023 Y131.831 E37.41892
G1 X160.244 Y131.994 E37.5021
G1 X59.968 Y132 E42.17137
G1 X58.563 Y131.909 E42.23693
G1 X57.523 Y131.733 E42.28605
G1 X55.881 Y131.274 E42.36544
G1 X55.138 Y130.972 E42.40278
G1 X53.561 Y130.125 E42.48614
G1 X53.119 Y129.831 E42.51086
G1 X51.673 Y128.64 E42.59809
G1 X51.243 Y128.204 E42.6266
G1 X50.15 Y126.849 E42.70766
G1 X49.772 Y126.27 E42.73986
G1 X49.022 Y124.846 E42.8148
G1 X48.804 Y124.32 E42.84132
G1 X48.275 Y122.565 E42.92667
G1 X48.191 Y122.137 E42.94698
G1 X47.86 Y121.908 E42.96572
G1 X46.446 Y119.874 E43.08107
G1 X45.644 Y118.355 E43.16105
G1 X45.246 Y116.05 E43.26997
G1 X45.278 Y114.751 E43.33048
G1 X45.251 Y113.477 E43.38981
G1 X45.854 Y111.225 E43.49837
G1 X46.556 Y109.841 E43.57063
G1 X47.896 Y108.164 E43.67059
G1 X48.011 Y108.058 E43.67787
G1 X48.041 Y99.152 E44.09257
G1 X48.258 Y97.515 E44.16946
G1 X48.487 Y96.629 E44.21208
G1 X49.042 Y95.14 E44.28607
G1 X49.883 Y93.554 E44.36966
G1 X50.708 Y92.407 E44.43545
G1 X51.625 Y91.406 E44.49866
G1 X52.271 Y90.824 E44.53915
G1 X53.687 Y89.8 E44.62052
M204 S2000
G0 F7500 X53.885 Y90.148
M204 S500
G1 F1500 X54.75 Y89.656 E44.66686
G1 X56.76 Y88.867 E44.7674
G1 X58.052 Y88.562 E44.82922
G1 X58.66 Y88.472 E44.85784
G1 X160.052 Y88.4 E49.57908
G1 X161.797 Y88.535 E49.66057
G1 X162.544 Y88.681 E49.69601
G1 X164.091 Y89.148 E49.77126
G1 X164.865 Y89.473 E49.81035
G1 X166.293 Y90.26 E49.88627
G1 X167.085 Y90.821 E49.93147
G1 X167.916 Y91.527 E49.98224
G1 X168.581 Y92.202 E50.02636
G1 X169.519 Y93.369 E50.09608
G1 X169.834 Y93.845 E50.12266
G1 X170.633 Y95.374 E50.20299
G1 X171.017 Y96.376 E50.25296
G1 X171.438 Y98.052 E50.33342
G1 X171.528 Y98.657 E50.3619
G1 X171.6 Y120.172 E51.36374
G1 X171.452 Y121.826 E51.44106
G1 X171.288 Y122.664 E51.48082
G1 X170.875 Y124.027 E51.54714
G1 X170.431 Y125.063 E51.59962
G1 X169.75 Y126.272 E51.66424
G1 X168.951 Y127.376 E51.72769
G1 X168.122 Y128.278 E51.78474
G1 X167.275 Y129.032 E51.83754
G1 X165.779 Y130.05 E51.9218
G1 X164.693 Y130.608 E51.97865
G1 X164.167 Y130.826 E52.00517
G1 X162.488 Y131.332 E52.08682
G1 X161.946 Y131.438 E52.11254
G1 X160.244 Y131.594 E52.19212
G1 X59.968 Y131.6 E56.86139
G1 X58.589 Y131.51 E56.92574
G1 X57.63 Y131.348 E56.97103
G1 X56.032 Y130.903 E57.04827
G1 X55.289 Y130.601 E57.08562
G1 X53.783 Y129.792 E57.16522
G1 X53.341 Y129.498 E57.18994
G1 X51.958 Y128.359 E57.27336
G1 X51.528 Y127.923 E57.30188
G1 X50.485 Y126.63 E57.37923
G1 X50.107 Y126.051 E57.41143
G1 X49.392 Y124.693 E57.48289
G1 X49.174 Y124.167 E57.50941
G1 X48.668 Y122.488 E57.59106
G1 X48.553 Y121.901 E57.61891
G1 X48.147 Y121.62 E57.6419
G1 X46.8 Y119.687 E57.75161
G1 X46.027 Y118.223 E57.8287
G1 X45.647 Y116.022 E57.9327
G1 X45.678 Y114.761 E57.99144
G1 X45.652 Y113.523 E58.0491
G1 X46.228 Y111.372 E58.15279
G1 X46.894 Y110.06 E58.2213
G1 X48.209 Y108.414 E58.3194
G1 X48.41 Y108.247 E58.33157
G1 X48.438 Y99.205 E58.7526
G1 X48.655 Y97.568 E58.8295
G1 X48.862 Y96.769 E58.86793
G1 X49.417 Y95.28 E58.94192
G1 X50.208 Y93.788 E59.02056
G1 X51.033 Y92.641 E59.08635
G1 X51.893 Y91.703 E59.1456
G1 X52.539 Y91.121 E59.18609
G1 X53.885 Y90.148 E59.26343
M204 S2000
G0 F7500 X54.083 Y90.496
M204 S500
G1 F1500 X54.948 Y90.004 E59.30977
G1 X56.852 Y89.256 E59.40502
G1 X58.111 Y88.958 E59.46526
G1 X58.719 Y88.868 E59.49388
G1 X160.052 Y88.8 E64.21237
G1 X161.72 Y88.928 E64.29027
G1 X162.467 Y89.074 E64.32571
G1 X163.936 Y89.517 E64.39716
G1 X164.71 Y89.842 E64.43625
G1 X166.062 Y90.587 E64.50813
G1 X166.826 Y91.126 E64.55166
G1 X167.631 Y91.808 E64.60079
G1 X168.296 Y92.483 E64.64491
G1 X169.185 Y93.59 E64.71102
G1 X169.5 Y94.066 E64.7376
G1 X170.259 Y95.517 E64.81385
G1 X170.643 Y96.519 E64.86382
G1 X171.042 Y98.111 E64.94024
G1 X171.132 Y98.716 E64.96872
G1 X171.2 Y120.173 E65.96786
G1 X171.059 Y121.749 E66.04153
G1 X170.895 Y122.587 E66.0813
G1 X170.507 Y123.87 E66.14371
G1 X170.082 Y124.867 E66.19418
G1 X169.425 Y126.038 E66.2567
G1 X168.656 Y127.105 E66.31794
G1 X167.827 Y128.007 E66.37499
G1 X167.049 Y128.702 E66.42356
G1 X165.596 Y129.694 E66.50549
G1 X164.54 Y130.238 E66.5608
G1 X164.014 Y130.456 E66.58731
G1 X162.411 Y130.939 E66.66527
G1 X161.869 Y131.045 E66.69098
G1 X160.244 Y131.194 E66.76697
G1 X59.968 Y131.2 E71.43624
G1 X58.615 Y131.111 E71.49938
G1 X57.737 Y130.962 E71.54085
G1 X56.183 Y130.532 E71.61592
G1 X55.44 Y130.23 E71.65327
G1 X54.005 Y129.459 E71.72912
G1 X53.563 Y129.165 E71.75384
G1 X52.243 Y128.078 E71.83347
G1 X51.813 Y127.642 E71.86198
G1 X50.82 Y126.411 E71.93563
G1 X50.442 Y125.832 E71.96782
G1 X49.762 Y124.54 E72.03581
G1 X49.544 Y124.014 E72.06232
G1 X49.061 Y122.411 E72.14028
G1 X48.915 Y121.665 E72.17567
G1 X48.434 Y121.333 E72.20289
G1 X47.154 Y119.5 E72.30699
G1 X46.41 Y118.091 E72.38118
G1 X46.048 Y115.994 E72.48027
G1 X46.078 Y114.771 E72.53724
G1 X46.053 Y113.57 E72.59318
G1 X46.603 Y111.518 E72.6921
G1 X47.232 Y110.279 E72.7568
G1 X48.522 Y108.664 E72.85305
G1 X48.809 Y108.444 E72.86988
G1 X48.838 Y99.206 E73.30005
G1 X49.043 Y97.667 E73.37234
G1 X49.237 Y96.909 E73.40877
G1 X49.792 Y95.42 E73.48277
G1 X50.533 Y94.021 E73.55649
G1 X51.328 Y92.911 E73.62006
G1 X52.161 Y92 E73.67754
G1 X52.807 Y91.418 E73.71803
G1 X54.083 Y90.496 E73.79133
M204 S2000
G0 F7500 X54.281 Y90.844
M204 S500
G1 F1500 X55.146 Y90.352 E73.83767
G1 X56.944 Y89.645 E73.92763
G1 X58.17 Y89.354 E73.98631
G1 X58.778 Y89.264 E74.01493
G1 X160.052 Y89.2 E78.73067
G1 X161.643 Y89.321 E78.80497
G1 X162.39 Y89.467 E78.84041
G1 X163.781 Y89.886 E78.90805
G1 X164.555 Y90.211 E78.94714
G1 X165.832 Y90.914 E79.01502
G1 X166.568 Y91.432 E79.05693
G1 X167.346 Y92.089 E79.10434
G1 X168.011 Y92.764 E79.14847
G1 X168.851 Y93.811 E79.21097
G1 X169.166 Y94.287 E79.23755
G1 X169.885 Y95.66 E79.30972
G1 X170.269 Y96.662 E79.35968
G1 X170.646 Y98.17 E79.43206
G1 X170.736 Y98.775 E79.46054
G1 X170.8 Y120.174 E80.45698
G1 X170.666 Y121.672 E80.52701
G1 X170.502 Y122.51 E80.56677
G1 X170.139 Y123.714 E80.62532
G1 X169.733 Y124.672 E80.67377
G1 X169.1 Y125.805 E80.73421
G1 X168.361 Y126.834 E80.7932
G1 X167.532 Y127.736 E80.85024
G1 X166.823 Y128.372 E80.89459
G1 X165.37 Y129.364 E80.97651
G1 X164.387 Y129.868 E81.02795
G1 X163.861 Y130.086 E81.05447
G1 X162.334 Y130.546 E81.12873
G1 X161.792 Y130.652 E81.15444
G1 X160.244 Y130.794 E81.22683
G1 X59.968 Y130.8 E85.8961
G1 X58.681 Y130.716 E85.95615
G1 X57.844 Y130.576 E85.99567
G1 X56.29 Y130.146 E86.07075
G1 X55.592 Y129.86 E86.10587
G1 X54.227 Y129.126 E86.17804
G1 X53.785 Y128.832 E86.20276
G1 X52.528 Y127.797 E86.27858
G1 X52.098 Y127.361 E86.30709
G1 X51.155 Y126.192 E86.37703
G1 X50.777 Y125.613 E86.40922
G1 X50.132 Y124.387 E86.47373
G1 X49.914 Y123.861 E86.50024
G1 X49.454 Y122.334 E86.5745
G1 X49.348 Y121.792 E86.60022
G1 X49.314 Y121.455 E86.61599
G1 X48.72 Y121.044 E86.64963
G1 X47.508 Y119.313 E86.74802
G1 X46.793 Y117.959 E86.81932
G1 X46.449 Y115.966 E86.91349
G1 X46.478 Y114.781 E86.96869
G1 X46.454 Y113.617 E87.0229
G1 X46.978 Y111.664 E87.11706
G1 X47.57 Y110.498 E87.17795
G1 X48.835 Y108.914 E87.27234
G1 X49.208 Y108.653 E87.29354
G1 X49.238 Y99.207 E87.73339
G1 X49.431 Y97.766 E87.80109
G1 X49.625 Y97.008 E87.83752
G1 X50.146 Y95.606 E87.90716
G1 X50.859 Y94.253 E87.97838
G1 X51.624 Y93.18 E88.03974
G1 X52.429 Y92.297 E88.09538
G1 X53.075 Y91.715 E88.13586
G1 X54.281 Y90.844 E88.20514
M204 S2000
G0 F7500 X54.479 Y91.192
M204 S500
G1 F1500 X55.344 Y90.7 E88.25147
G1 X57.037 Y90.034 E88.33619
G1 X58.229 Y89.75 E88.39324
G1 X58.837 Y89.66 E88.42186
G1 X160.052 Y89.6 E93.13486
G1 X161.566 Y89.714 E93.20556
G1 X162.313 Y89.86 E93.241
G1 X163.626 Y90.255 E93.30484
G1 X164.4 Y90.58 E93.34393
G1 X165.602 Y91.242 E93.40783
G1 X166.31 Y91.738 E93.44808
G1 X167.061 Y92.37 E93.49379
G1 X167.726 Y93.045 E93.53791
G1 X168.517 Y94.032 E93.59681
G1 X168.832 Y94.508 E93.62339
G1 X169.511 Y95.803 E93.69147
G1 X169.895 Y96.805 E93.74144
G1 X170.25 Y98.229 E93.80978
G1 X170.34 Y98.834 E93.83826
G1 X170.4 Y120.175 E94.83199
G1 X170.273 Y121.595 E94.89837
G1 X170.109 Y122.433 E94.93813
G1 X169.756 Y123.598 E94.99482
G1 X169.383 Y124.478 E95.03932
G1 X168.775 Y125.572 E95.0976
G1 X168.066 Y126.563 E95.15434
G1 X167.237 Y127.465 E95.21138
G1 X166.556 Y128.074 E95.25393
G1 X165.187 Y129.008 E95.33109
G1 X164.234 Y129.498 E95.38099
G1 X163.708 Y129.716 E95.40751
G1 X162.257 Y130.153 E95.47807
G1 X161.715 Y130.259 E95.50378
G1 X160.244 Y130.394 E95.57257
G1 X59.968 Y130.4 E100.24184
G1 X58.707 Y130.317 E100.30068
G1 X57.951 Y130.19 E100.33638
G1 X56.397 Y129.76 E100.41146
G1 X55.745 Y129.49 E100.44432
G1 X54.449 Y128.793 E100.51284
G1 X54.007 Y128.499 E100.53756
G1 X52.813 Y127.516 E100.60957
G1 X52.383 Y127.08 E100.63809
G1 X51.49 Y125.973 E100.70432
G1 X51.112 Y125.394 E100.73651
G1 X50.502 Y124.234 E100.79754
G1 X50.284 Y123.708 E100.82405
G1 X49.847 Y122.257 E100.89462
G1 X49.741 Y121.715 E100.92033
G1 X49.694 Y121.231 E100.94297
G1 X49.006 Y120.755 E100.98193
G1 X47.862 Y119.126 E101.07462
G1 X47.176 Y117.827 E101.14302
G1 X46.85 Y115.938 E101.23228
G1 X46.878 Y114.791 E101.28571
G1 X46.855 Y113.665 E101.33815
G1 X47.353 Y111.81 E101.42759
G1 X47.908 Y110.717 E101.48467
G1 X49.114 Y109.207 E101.57465
G1 X49.607 Y108.861 E101.6027
G1 X49.638 Y99.208 E102.05218
G1 X49.819 Y97.865 E102.11528
G1 X50.013 Y97.107 E102.15172
G1 X50.5 Y95.792 E102.21701
G1 X51.185 Y94.485 E102.28572
G1 X51.95 Y93.412 E102.34709
G1 X52.697 Y92.594 E102.39867
G1 X53.343 Y92.012 E102.43916
G1 X54.479 Y91.192 E102.50439
M204 S2000
G0 F7500 X54.677 Y91.54
M204 S500
G1 F1500 X55.542 Y91.048 E102.55073
G1 X57.13 Y90.423 E102.6302
G1 X58.288 Y90.146 E102.68564
G1 X58.896 Y90.056 E102.71426
G1 X160.052 Y90 E107.42451
G1 X161.489 Y90.107 E107.4916
G1 X162.236 Y90.253 E107.52705
G1 X163.471 Y90.624 E107.58709
G1 X164.245 Y90.949 E107.62618
G1 X165.373 Y91.57 E107.68614
G1 X166.053 Y92.044 E107.72474
G1 X166.776 Y92.651 E107.76869
G1 X167.441 Y93.326 E107.81282
G1 X168.183 Y94.253 E107.8681
