;FLAVOR:Marlin
;TIME:716
;Filament used: 0.263386m
;Layer height: 0.2
;MINX:97.844
;MINY:97.863
;MINZ:0.2
;MAXX:122.187
;MAXY:122.138
;MAXZ:13.16
;TARGET_MACHINE.NAME:Creality Ender-3 S1 Pro
;Generated with Cura_SteamEngine 5.6.0
M82 ;absolute extrusion mode
; Ender 3 S1 Pro Start G-code
M413 S0 ; Disable power loss recovery
G92 E0 ; Reset Extruder
; Prep surfaces before auto home for better accuracy
M140 S60
M104 S215.0
G28 X Y; always home X and Y
G28 O ; Home all untrusted axes
M420 S1 Z10 ; use bed leveling
G1 Z10.0 F3000 ; Move Z Axis up little to prevent scratching of Heat Bed
G1 X0 Y0

M190 S60
M109 S215.0

G1 X0.1 Y20 Z0.3 F5000.0 ; Move to start position
G1 X0.1 Y200.0 Z0.3 F1500.0 E15 ; Draw the first line
G1 X0.4 Y200.0 Z0.3 F5000.0 ; Move to side a little
G1 X0.4 Y20 Z0.3 F1500.0 E30 ; Draw the second line
G92 E0 ; Reset Extruder
G1 Z2.0 F3000 ; Move Z Axis up little to prevent scratching of Heat Bed
G1 X5 Y20 Z0.3 F5000.0 ; Move over to prevent blob squish
G92 E0
G92 E0
G1 F2400 E-0.8
;LAYER_COUNT:57
;LAYER:0
M107
M204 S2000
G0 F7200 X100.937 Y101.836 Z0.2
M204 S500
;TYPE:SKIRT
G1 F2400 E0
G1 F1500 X103.041 Y99.967 E0.08892
G1 X105.478 Y98.663 E0.17625
G1 X108.068 Y97.951 E0.26113
G1 X109.887 Y97.863 E0.31867
G1 X111.888 Y98.019 E0.38209
G1 X113.333 Y98.336 E0.42883
G1 X114.477 Y98.726 E0.46702
G1 X115.843 Y99.373 E0.51478
G1 X117.151 Y100.197 E0.56363
G1 X117.92 Y100.811 E0.59472
G1 X119.346 Y102.263 E0.65902
G1 X119.832 Y102.895 E0.68421
G1 X120.868 Y104.515 E0.74497
G1 X121.834 Y107.098 E0.83211
G1 X122.187 Y109.963 E0.92332
G1 X121.899 Y112.593 E1.00692
G1 X121.03 Y115.177 E1.09306
G1 X119.562 Y117.457 E1.17874
G1 X118.977 Y118.155 E1.20752
G1 X117.534 Y119.508 E1.27002
G1 X116.694 Y120.122 E1.3029
G1 X115.98 Y120.557 E1.32931
G1 X113.818 Y121.518 E1.40407
G1 X112.784 Y121.808 E1.438
G1 X111.517 Y122.038 E1.47869
G1 X109.984 Y122.138 E1.52723
G1 X108.421 Y122.094 E1.57664
G1 X105.637 Y121.388 E1.66739
G1 X103.107 Y120.067 E1.75757
G1 X101.068 Y118.318 E1.84245
G1 X99.542 Y116.188 E1.92524
G1 X99.105 Y115.382 E1.95421
G1 X98.425 Y113.716 E2.01107
G1 X98.209 Y112.958 E2.03597
G1 X97.868 Y110.829 E2.1041
G1 X97.844 Y110.205 E2.12383
G1 X97.99 Y108.15 E2.18893
G1 X98.206 Y107.042 E2.2246
G1 X98.502 Y106.062 E2.25694
G1 X99.312 Y104.221 E2.3205
G1 X99.812 Y103.383 E2.35133
G1 X100.937 Y101.836 E2.41177
M204 S2000
G0 F7200 X101.233 Y102.109
M204 S500
G1 F1500 X103.271 Y100.298 E2.49791
G1 X105.628 Y99.037 E2.58238
G1 X108.131 Y98.349 E2.6644
G1 X109.906 Y98.263 E2.72055
G1 X111.803 Y98.41 E2.78067
G1 X113.204 Y98.715 E2.82597
G1 X114.348 Y99.105 E2.86416
G1 X115.671 Y99.734 E2.91045
G1 X116.901 Y100.51 E2.9564
G1 X117.67 Y101.124 E2.98749
G1 X119.029 Y102.508 E3.04878
G1 X119.495 Y103.111 E3.07286
G1 X120.508 Y104.695 E3.13227
G1 X121.443 Y107.195 E3.21661
G1 X121.784 Y109.964 E3.30476
G1 X121.506 Y112.508 E3.38562
G1 X120.667 Y115.001 E3.46874
G1 X119.255 Y117.2 E3.55131
G1 X118.67 Y117.898 E3.58009
G1 X117.261 Y119.216 E3.64105
G1 X116.486 Y119.78 E3.67133
G1 X115.772 Y120.215 E3.69775
G1 X113.709 Y121.133 E3.7691
G1 X112.713 Y121.414 E3.8018
G1 X111.446 Y121.644 E3.84249
G1 X109.995 Y121.738 E3.88843
G1 X108.477 Y121.695 E3.93641
G1 X105.781 Y121.012 E4.02429
G1 X103.332 Y119.733 E4.11159
G1 X101.365 Y118.045 E4.19349
G1 X99.894 Y115.997 E4.27316
G1 X99.457 Y115.191 E4.30213
G1 X98.81 Y113.606 E4.35622
G1 X98.594 Y112.848 E4.38113
G1 X98.268 Y110.814 E4.44622
G1 X98.244 Y110.19 E4.46595
G1 X98.383 Y108.227 E4.52813
G1 X98.599 Y107.119 E4.5638
G1 X98.868 Y106.223 E4.59336
G1 X99.656 Y104.426 E4.65536
G1 X100.156 Y103.588 E4.68619
G1 X101.233 Y102.109 E4.744
M204 S2000
G0 F7200 X101.531 Y102.38
M204 S500
G1 F1500 X103.501 Y100.629 E4.82728
G1 X105.778 Y99.411 E4.90887
G1 X108.194 Y98.747 E4.98804
G1 X109.925 Y98.663 E5.0428
G1 X111.719 Y98.801 E5.09965
G1 X113.075 Y99.094 E5.14349
G1 X114.219 Y99.484 E5.18168
G1 X115.458 Y100.073 E5.22503
G1 X116.651 Y100.823 E5.26955
G1 X117.42 Y101.437 E5.30064
G1 X118.712 Y102.753 E5.35892
G1 X119.178 Y103.356 E5.383
G1 X120.147 Y104.873 E5.43987
G1 X121.052 Y107.292 E5.52148
G1 X121.381 Y109.965 E5.60658
G1 X121.112 Y112.424 E5.68474
G1 X120.305 Y114.824 E5.76474
G1 X118.948 Y116.943 E5.84425
G1 X118.363 Y117.641 E5.87303
G1 X117.025 Y118.893 E5.93092
G1 X116.278 Y119.438 E5.96014
G1 X115.564 Y119.873 E5.98656
G1 X113.6 Y120.748 E6.0545
G1 X112.642 Y121.02 E6.08596
G1 X111.375 Y121.25 E6.12665
G1 X110.006 Y121.338 E6.17
G1 X108.533 Y121.296 E6.21656
G1 X105.925 Y120.636 E6.30156
G1 X103.557 Y119.399 E6.38598
G1 X101.663 Y117.774 E6.46483
G1 X100.246 Y115.806 E6.54145
G1 X99.809 Y115 E6.57042
G1 X99.195 Y113.496 E6.62175
G1 X98.979 Y112.738 E6.64666
G1 X98.668 Y110.799 E6.70871
G1 X98.644 Y110.175 E6.72844
G1 X98.776 Y108.304 E6.7877
G1 X98.992 Y107.196 E6.82337
G1 X99.251 Y106.339 E6.85166
G1 X100 Y104.631 E6.91059
G1 X100.5 Y103.793 E6.94142
G1 X101.531 Y102.38 E6.99669
M204 S2000
G0 F7200 X101.828 Y102.651
M204 S500
G1 F1500 X103.731 Y100.96 E7.07713
G1 X105.928 Y99.785 E7.15585
G1 X108.257 Y99.145 E7.23217
G1 X109.944 Y99.063 E7.28554
G1 X111.635 Y99.192 E7.33912
G1 X112.946 Y99.473 E7.38149
G1 X114.09 Y99.863 E7.41968
G1 X115.286 Y100.434 E7.46156
G1 X116.401 Y101.136 E7.50319
G1 X117.17 Y101.75 E7.53428
G1 X118.395 Y102.998 E7.58954
G1 X118.861 Y103.601 E7.61362
G1 X119.786 Y105.05 E7.66793
G1 X120.661 Y107.389 E7.74684
G1 X120.978 Y109.966 E7.82888
G1 X120.719 Y112.339 E7.90431
G1 X119.941 Y114.651 E7.98138
G1 X118.641 Y116.686 E8.05768
G1 X118.056 Y117.384 E8.08646
G1 X116.789 Y118.57 E8.1413
G1 X116.07 Y119.096 E8.16945
G1 X115.356 Y119.531 E8.19586
G1 X113.49 Y120.363 E8.26042
G1 X112.571 Y120.626 E8.29062
G1 X111.304 Y120.856 E8.33131
G1 X110.017 Y120.938 E8.37206
G1 X108.589 Y120.897 E8.4172
G1 X106.069 Y120.26 E8.49933
G1 X103.782 Y119.065 E8.58086
G1 X101.959 Y117.501 E8.65675
G1 X100.598 Y115.615 E8.73024
G1 X100.161 Y114.809 E8.75921
G1 X99.58 Y113.386 E8.80778
G1 X99.364 Y112.628 E8.83268
G1 X99.068 Y110.782 E8.89176
G1 X99.043 Y110.203 E8.91007
G1 X99.169 Y108.381 E8.96778
G1 X99.385 Y107.273 E9.00344
G1 X99.634 Y106.455 E9.03046
G1 X100.344 Y104.836 E9.08632
G1 X100.844 Y103.998 E9.11715
G1 X101.828 Y102.651 E9.16986
M204 S2000
G0 F7200 X102.125 Y102.922
M204 S500
G1 F1500 X103.961 Y101.291 E9.24746
G1 X106.078 Y100.159 E9.32331
G1 X108.32 Y99.543 E9.39678
G1 X109.963 Y99.463 E9.44875
G1 X111.552 Y99.583 E9.4991
G1 X112.817 Y99.852 E9.53997
G1 X113.961 Y100.242 E9.57816
G1 X115.073 Y100.773 E9.61709
G1 X116.151 Y101.449 E9.6573
G1 X116.92 Y102.063 E9.68839
G1 X118.078 Y103.243 E9.74063
G1 X118.544 Y103.846 E9.76471
G1 X119.425 Y105.227 E9.81647
G1 X120.27 Y107.486 E9.89268
G1 X120.575 Y109.967 E9.97166
G1 X120.325 Y112.255 E10.04439
G1 X119.578 Y114.477 E10.11846
G1 X118.334 Y116.429 E10.19159
G1 X117.749 Y117.127 E10.22037
G1 X116.516 Y118.278 E10.27367
G1 X115.862 Y118.754 E10.29922
G1 X115.148 Y119.189 E10.32564
G1 X113.379 Y119.979 E10.38686
G1 X112.5 Y120.232 E10.41576
G1 X111.233 Y120.462 E10.45645
G1 X110.029 Y120.538 E10.49457
G1 X108.644 Y120.498 E10.53835
G1 X106.213 Y119.884 E10.61757
G1 X104.006 Y118.731 E10.69625
G1 X102.257 Y117.229 E10.76909
G1 X100.95 Y115.424 E10.83951
G1 X100.513 Y114.618 E10.86848
G1 X99.965 Y113.276 E10.91428
G1 X99.749 Y112.518 E10.93918
G1 X99.468 Y110.765 E10.99528
G1 X99.443 Y110.186 E11.01359
G1 X99.562 Y108.458 E11.06832
G1 X99.778 Y107.35 E11.10399
G1 X100.001 Y106.615 E11.12826
G1 X100.688 Y105.041 E11.18253
G1 X101.188 Y104.203 E11.21336
G1 X102.125 Y102.922 E11.26351
M204 S2000
G0 F7200 X102.422 Y103.193
M204 S500
G1 F1500 X104.191 Y101.622 E11.33826
G1 X106.228 Y100.533 E11.41125
G1 X108.383 Y99.941 E11.48186
G1 X109.982 Y99.863 E11.53244
G1 X111.521 Y99.982 E11.58122
G1 X112.688 Y100.231 E11.61892
G1 X113.832 Y100.621 E11.65711
G1 X114.861 Y101.112 E11.69314
G1 X115.901 Y101.762 E11.73189
G1 X116.67 Y102.376 E11.76298
G1 X117.761 Y103.488 E11.8122
G1 X118.227 Y104.091 E11.83628
G1 X119.064 Y105.404 E11.88548
G1 X119.879 Y107.583 E11.95899
G1 X120.172 Y109.968 E12.03492
G1 X119.931 Y112.171 E12.10494
G1 X119.215 Y114.302 E12.17597
G1 X118.027 Y116.172 E12.24598
G1 X117.442 Y116.87 E12.27475
G1 X116.28 Y117.955 E12.32498
G1 X115.654 Y118.412 E12.34947
G1 X114.94 Y118.847 E12.37589
G1 X113.268 Y119.595 E12.43377
G1 X112.429 Y119.838 E12.46137
G1 X111.162 Y120.068 E12.50206
G1 X110.041 Y120.138 E12.53754
G1 X108.699 Y120.099 E12.57997
G1 X106.357 Y119.508 E12.65629
G1 X104.233 Y118.398 E12.73201
G1 X102.552 Y116.955 E12.80201
G1 X101.302 Y115.233 E12.86925
G1 X100.865 Y114.427 E12.89821
G1 X100.35 Y113.166 E12.94125
G1 X100.134 Y112.408 E12.96616
G1 X99.868 Y110.748 E13.01928
G1 X99.843 Y110.169 E13.03759
G1 X99.955 Y108.535 E13.08934
G1 X100.171 Y107.427 E13.12501
G1 X100.368 Y106.774 E13.14656
G1 X101.032 Y105.246 E13.1992
G1 X101.532 Y104.408 E13.23004
G1 X102.422 Y103.193 E13.27762
M204 S2000
G0 F7200 X102.719 Y103.464
M204 S500
G1 F1500 X104.421 Y101.953 E13.34954
G1 X106.378 Y100.907 E13.41965
G1 X108.446 Y100.339 E13.48741
G1 X110.002 Y100.263 E13.53664
G1 X111.489 Y100.381 E13.58377
G1 X112.56 Y100.61 E13.61838
G1 X113.66 Y100.982 E13.65507
G1 X114.65 Y101.452 E13.68969
G1 X115.651 Y102.075 E13.72695
G1 X116.42 Y102.689 E13.75804
G1 X117.444 Y103.733 E13.80425
G1 X117.91 Y104.336 E13.82833
G1 X118.703 Y105.581 E13.87497
G1 X119.488 Y107.68 E13.94578
G1 X119.769 Y109.969 E14.01865
G1 X119.537 Y112.088 E14.086
G1 X118.852 Y114.127 E14.15397
G1 X117.72 Y115.915 E14.22083
G1 X117.135 Y116.613 E14.24961
G1 X116.043 Y117.632 E14.2968
G1 X115.446 Y118.07 E14.3202
G1 X114.732 Y118.505 E14.34661
G1 X113.156 Y119.211 E14.40118
G1 X112.358 Y119.444 E14.42745
G1 X111.091 Y119.674 E14.46814
G1 X110.053 Y119.738 E14.501
G1 X108.754 Y119.7 E14.54206
G1 X106.497 Y119.131 E14.6156
G1 X104.46 Y118.066 E14.68823
G1 X102.847 Y116.681 E14.75541
G1 X101.654 Y115.042 E14.81946
G1 X101.217 Y114.236 E14.84843
G1 X100.735 Y113.056 E14.88871
G1 X100.519 Y112.298 E14.91361
G1 X100.268 Y110.729 E14.96382
G1 X100.242 Y110.196 E14.98068
G1 X100.348 Y108.612 E15.03084
G1 X100.564 Y107.504 E15.06651
G1 X100.751 Y106.891 E15.08676
G1 X101.376 Y105.45 E15.13639
G1 X101.855 Y104.644 E15.16602
G1 X102.719 Y103.464 E15.21223
M204 S2000
G0 F7200 X103.016 Y103.735
M204 S500
G1 F1500 X104.651 Y102.284 E15.2813
G1 X106.528 Y101.281 E15.34854
G1 X108.509 Y100.737 E15.41345
G1 X110.022 Y100.663 E15.46132
G1 X111.456 Y100.78 E15.50678
G1 X112.433 Y100.989 E15.53835
G1 X113.489 Y101.344 E15.57355
G1 X114.439 Y101.792 E15.60674
G1 X115.401 Y102.388 E15.64249
G1 X116.17 Y103.002 E15.67359
G1 X117.127 Y103.978 E15.71678
G1 X117.593 Y104.581 E15.74086
G1 X118.342 Y105.76 E15.78499
G1 X119.097 Y107.777 E15.85304
G1 X119.366 Y109.97 E15.92285
G1 X119.144 Y112.003 E15.98747
G1 X118.487 Y113.956 E16.05258
G1 X117.413 Y115.658 E16.11617
G1 X116.828 Y116.356 E16.14495
G1 X115.806 Y117.31 E16.18912
G1 X115.236 Y117.729 E16.21147
G1 X114.568 Y118.14 E16.23626
G1 X112.992 Y118.846 E16.29082
G1 X112.287 Y119.05 E16.31401
G1 X111.02 Y119.28 E16.3547
G1 X110.065 Y119.338 E16.38493
G1 X108.809 Y119.301 E16.42463
G1 X106.637 Y118.754 E16.4954
G1 X104.687 Y117.734 E16.56494
G1 X103.143 Y116.408 E16.62925
G1 X102.006 Y114.851 E16.69016
G1 X101.569 Y114.045 E16.71913
G1 X101.12 Y112.946 E16.75665
G1 X100.904 Y112.188 E16.78155
G1 X100.668 Y110.71 E16.82884
G1 X100.642 Y110.177 E16.8457
G1 X100.741 Y108.689 E16.89282
G1 X100.957 Y107.581 E16.92849
G1 X101.118 Y107.05 E16.94602
G1 X101.743 Y105.609 E16.99565
G1 X102.178 Y104.88 E17.02248
G1 X103.016 Y103.735 E17.06731
M204 S2000
G0 F7200 X103.315 Y104.004
M204 S500
G1 F1500 X104.878 Y102.617 E17.13334
G1 X106.678 Y101.655 E17.19783
G1 X108.572 Y101.135 E17.25989
G1 X110.042 Y101.063 E17.30639
G1 X111.422 Y101.179 E17.35015
G1 X112.306 Y101.368 E17.37871
G1 X113.319 Y101.706 E17.41245
G1 X114.229 Y102.133 E17.44421
G1 X115.151 Y102.701 E17.47843
G1 X115.92 Y103.315 E17.50952
G1 X116.81 Y104.223 E17.5497
G1 X117.276 Y104.826 E17.57378
G1 X117.981 Y105.938 E17.61538
G1 X118.706 Y107.874 E17.6807
G1 X118.963 Y109.971 E17.74746
G1 X118.75 Y111.919 E17.80937
G1 X118.124 Y113.781 E17.87144
G1 X117.106 Y115.401 E17.9319
G1 X116.521 Y116.099 E17.96068
G1 X115.569 Y116.988 E18.00183
G1 X115.026 Y117.388 E18.02314
G1 X114.358 Y117.799 E18.04792
G1 X112.88 Y118.462 E18.09911
G1 X112.216 Y118.656 E18.12097
G1 X110.949 Y118.886 E18.16165
G1 X110.077 Y118.938 E18.18925
G1 X108.864 Y118.902 E18.2276
G1 X106.777 Y118.377 E18.2956
G1 X104.914 Y117.402 E18.36204
G1 X103.441 Y116.137 E18.42339
G1 X102.358 Y114.66 E18.48126
G1 X101.921 Y113.854 E18.51023
G1 X101.505 Y112.836 E18.54497
G1 X101.289 Y112.078 E18.56988
G1 X101.068 Y110.691 E18.61426
G1 X101.042 Y110.158 E18.63112
G1 X101.134 Y108.766 E18.6752
G1 X101.35 Y107.658 E18.71087
G1 X101.485 Y107.208 E18.72571
G1 X102.087 Y105.813 E18.77372
G1 X102.501 Y105.116 E18.79933
G1 X103.315 Y104.004 E18.84288
M204 S2000
G0 F7200 X103.614 Y104.273
M204 S500
G1 F1500 X105.105 Y102.95 E18.90586
G1 X106.828 Y102.029 E18.96759
G1 X108.635 Y101.533 E19.0268
G1 X110.062 Y101.463 E19.07194
G1 X111.387 Y101.578 E19.11397
G1 X112.221 Y101.759 E19.14093
G1 X113.15 Y102.069 E19.17188
G1 X114.019 Y102.474 E19.20217
G1 X114.941 Y103.042 E19.23639
G1 X115.669 Y103.627 E19.2659
G1 X116.493 Y104.468 E19.3031
G1 X116.959 Y105.071 E19.32718
G1 X117.62 Y106.116 E19.36625
G1 X118.315 Y107.971 E19.42884
G1 X118.56 Y109.972 E19.49254
G1 X118.356 Y111.836 E19.55179
G1 X117.761 Y113.606 E19.61079
G1 X116.767 Y115.188 E19.66982
G1 X116.247 Y115.807 E19.69537
G1 X115.331 Y116.666 E19.73505
G1 X114.816 Y117.047 E19.75529
G1 X114.148 Y117.458 E19.78007
G1 X112.766 Y118.078 E19.82793
G1 X112.145 Y118.262 E19.8484
G1 X110.878 Y118.492 E19.88908
G1 X110.089 Y118.538 E19.91406
G1 X108.918 Y118.503 E19.95107
G1 X106.92 Y118.001 E20.01617
G1 X105.14 Y117.069 E20.07965
G1 X103.736 Y115.863 E20.13813
G1 X102.71 Y114.469 E20.19282
G1 X102.273 Y113.663 E20.22179
G1 X101.89 Y112.726 E20.25378
G1 X101.674 Y111.968 E20.27868
G1 X101.468 Y110.672 E20.32015
G1 X101.442 Y110.139 E20.33701
G1 X101.527 Y108.843 E20.37804
G1 X101.743 Y107.735 E20.41371
G1 X101.868 Y107.325 E20.42726
G1 X102.454 Y105.972 E20.47385
G1 X102.824 Y105.352 E20.49666
G1 X103.614 Y104.273 E20.53891
M204 S2000
G0 F7200 X103.913 Y104.542
M204 S500
G1 F1500 X105.332 Y103.283 E20.59885
G1 X106.978 Y102.403 E20.65783
G1 X108.698 Y101.931 E20.71418
G1 X110.082 Y101.863 E20.75797
G1 X111.302 Y101.969 E20.79666
G1 X112.136 Y102.15 E20.82363
G1 X112.982 Y102.432 E20.8518
G1 X113.809 Y102.815 E20.8806
G1 X114.731 Y103.383 E20.91482
G1 X115.384 Y103.908 E20.94129
G1 X116.176 Y104.713 E20.97698
G1 X116.642 Y105.316 E21.00105
G1 X117.258 Y106.292 E21.03752
G1 X117.924 Y108.068 E21.09745
G1 X118.157 Y109.973 E21.1581
G1 X117.962 Y111.753 E21.21467
G1 X117.398 Y113.431 E21.27061
G1 X116.428 Y114.975 E21.32822
G1 X115.973 Y115.516 E21.35056
G1 X115.093 Y116.345 E21.38876
G1 X114.606 Y116.706 E21.40792
G1 X113.938 Y117.117 E21.4327
G1 X112.651 Y117.695 E21.47728
G1 X112.074 Y117.868 E21.49631
G1 X110.807 Y118.098 E21.537
G1 X110.101 Y118.138 E21.55934
G1 X108.972 Y118.104 E21.59503
G1 X107.063 Y117.625 E21.65722
G1 X105.366 Y116.736 E21.71775
G1 X104.033 Y115.591 E21.77327
G1 X103.061 Y114.277 E21.82492
G1 X102.643 Y113.511 E21.85249
G1 X102.275 Y112.616 E21.88307
G1 X102.059 Y111.858 E21.90797
G1 X101.868 Y110.653 E21.94652
G1 X101.842 Y110.12 E21.96338
G1 X101.92 Y108.919 E22.00141
G1 X102.126 Y107.852 E22.03575
G1 X102.251 Y107.442 E22.04929
G1 X102.798 Y106.176 E22.09287
G1 X103.147 Y105.588 E22.11447
G1 X103.913 Y104.542 E22.15544
M204 S2000
G0 F7200 X104.212 Y104.811
M204 S500
G1 F1500 X105.559 Y103.616 E22.21233
G1 X107.128 Y102.777 E22.26855
G1 X108.761 Y102.329 E22.32206
G1 X110.102 Y102.263 E22.36448
G1 X111.217 Y102.36 E22.39984
G1 X112.051 Y102.541 E22.42681
G1 X112.815 Y102.796 E22.45226
G1 X113.599 Y103.156 E22.47952
G1 X114.521 Y103.724 E22.51373
G1 X115.099 Y104.189 E22.53717
G1 X115.859 Y104.958 E22.57134
