;FLAVOR:Marlin
;TIME:11654
;Filament used: 23.5932m
;Layer height: 0.28
;MINX:47.097
;MINY:20.58
;MINZ:0.28
;MAXX:172.87
;MAXY:199.415
;MAXZ:17
;TARGET_MACHINE.NAME:Creality Ender-3 S1 Pro
;Generated with Cura_SteamEngine 5.6.0
M82 ;absolute extrusion mode
; Ender 3 S1 Pro Start G-code
M413 S0 ; Disable power loss recovery
G92 E0 ; Reset Extruder
; Prep surfaces before auto home for better accuracy
M140 S85.0
M104 S245.0
G28 X Y; always home X and Y
G28 O ; Home all untrusted axes
M420 S1 Z10 ; use bed leveling
G1 Z10.0 F3000 ; Move Z Axis up little to prevent scratching of Heat Bed
G1 X0 Y0

M190 S85.0
M109 S245.0

G1 X0.1 Y20 Z0.3 F5000.0 ; Move to start position
G1 X0.1 Y200.0 Z0.3 F1500.0 E15 ; Draw the first line
G1 X0.4 Y200.0 Z0.3 F5000.0 ; Move to side a little
G1 X0.4 Y20 Z0.3 F1500.0 E30 ; Draw the second line
G92 E0 ; Reset Extruder
G1 Z2.0 F3000 ; Move Z Axis up little to prevent scratching of Heat Bed
G1 X5 Y20 Z0.3 F5000.0 ; Move over to prevent blob squish
G92 E0
G92 E0
G1 F2400 E-0.8
;LAYER_COUNT:60
;LAYER:0
M107
M204 S2000
G1 F300 Z0.48
G0 F7500 X48.293 Y25.675 Z0.48
M204 S500
;TYPE:SKIRT
G1 F300 Z0.28
G1 F2400 E0
G1 F1500 X49.374 Y24.107 E0.1011
G1 X51.07 Y22.413 E0.22834
G1 X53.315 Y21.252 E0.36251
G1 X55.215 Y20.7 E0.46754
G1 X57.001 Y20.58 E0.56256
G1 X163.962 Y20.629 E6.24039
G1 X165.565 Y20.815 E6.32605
G1 X167.75 Y21.747 E6.45215
G1 X169.322 Y22.811 E6.55291
G1 X170.762 Y24.259 E6.66131
G1 X171.813 Y25.886 E6.76413
G1 X172.689 Y28.005 E6.88585
G1 X172.87 Y29.501 E6.96584
G1 X172.868 Y190.525 E15.51351
G1 X172.689 Y192.025 E15.5937
G1 X171.718 Y194.299 E15.72495
G1 X170.667 Y195.837 E15.82383
G1 X169.294 Y197.21 E15.92691
G1 X167.667 Y198.294 E16.03069
G1 X165.443 Y199.213 E16.15843
G1 X163.154 Y199.415 E16.28041
G1 X56.148 Y199.362 E21.96062
G1 X54.536 Y199.097 E22.04734
G1 X53.224 Y198.715 E22.11988
G1 X51.399 Y197.738 E22.22977
G1 X49.886 Y196.466 E22.33469
G1 X48.669 Y194.956 E22.43764
G1 X47.701 Y193.084 E22.54951
G1 X47.309 Y191.576 E22.63222
G1 X47.097 Y189.874 E22.72327
G1 X47.129 Y29.534 E31.23462
G1 X47.315 Y27.965 E31.31849
G1 X48.293 Y25.675 E31.45068
M204 S2000
G0 F7500 X48.713 Y25.911
M204 S500
G1 F1500 X49.744 Y24.416 E31.54708
G1 X51.358 Y22.804 E31.66817
G1 X53.491 Y21.701 E31.79564
G1 X55.299 Y21.176 E31.89557
G1 X57.001 Y21.06 E31.98613
G1 X163.907 Y21.106 E37.66104
G1 X165.44 Y21.284 E37.74297
G1 X167.523 Y22.172 E37.86317
G1 X169.015 Y23.182 E37.95881
G1 X170.386 Y24.561 E38.06203
G1 X171.383 Y26.105 E38.15959
G1 X172.22 Y28.128 E38.27581
G1 X172.393 Y29.559 E38.35232
G1 X172.391 Y190.468 E46.89388
G1 X172.22 Y191.903 E46.9706
G1 X171.297 Y194.065 E47.09538
G1 X170.295 Y195.531 E47.18964
G1 X168.989 Y196.837 E47.28769
G1 X167.443 Y197.867 E47.3863
G1 X165.327 Y198.741 E47.50783
G1 X163.154 Y198.935 E47.62364
G1 X56.148 Y198.882 E53.30386
G1 X54.67 Y198.636 E53.38339
G1 X53.404 Y198.267 E53.45339
G1 X51.67 Y197.339 E53.55779
G1 X50.232 Y196.13 E53.65752
G1 X49.071 Y194.69 E53.75571
G1 X48.154 Y192.916 E53.86171
G1 X47.774 Y191.455 E53.94185
G1 X47.577 Y189.874 E54.02642
G1 X47.606 Y29.59 E62.53481
G1 X47.784 Y28.087 E62.61515
G1 X48.713 Y25.911 E62.74074
M204 S2000
G0 F7500 X49.133 Y26.147
M204 S500
G1 F1500 X50.114 Y24.725 E62.83245
G1 X51.646 Y23.195 E62.94738
G1 X53.667 Y22.15 E63.06816
G1 X55.383 Y21.652 E63.163
G1 X57.001 Y21.54 E63.2491
G1 X163.852 Y21.583 E68.92109
G1 X165.315 Y21.753 E68.99927
G1 X167.296 Y22.597 E69.11358
G1 X168.708 Y23.553 E69.20409
G1 X170.01 Y24.863 E69.30214
G1 X170.956 Y26.328 E69.39471
G1 X171.751 Y28.248 E69.50502
G1 X171.916 Y29.616 E69.57816
G1 X171.914 Y190.411 E78.11367
G1 X171.751 Y191.781 E78.18691
G1 X170.876 Y193.831 E78.30523
G1 X169.923 Y195.225 E78.39487
G1 X168.684 Y196.464 E78.48788
G1 X167.219 Y197.44 E78.58132
G1 X165.21 Y198.27 E78.69671
G1 X163.154 Y198.455 E78.80629
G1 X56.226 Y198.408 E84.48237
G1 X54.804 Y198.175 E84.55886
G1 X53.584 Y197.819 E84.62632
G1 X51.941 Y196.94 E84.72523
G1 X50.578 Y195.794 E84.81976
G1 X49.475 Y194.426 E84.91304
G1 X48.606 Y192.746 E85.01345
G1 X48.239 Y191.334 E85.09089
G1 X48.057 Y189.874 E85.16899
G1 X48.083 Y29.646 E93.6744
G1 X48.253 Y28.209 E93.75122
G1 X49.133 Y26.147 E93.87023
M204 S2000
G0 F7500 X49.556 Y26.379
M204 S500
G1 F1500 X50.482 Y25.036 E93.95682
G1 X51.934 Y23.586 E94.06575
G1 X53.843 Y22.599 E94.17983
G1 X55.467 Y22.128 E94.26959
G1 X57.001 Y22.02 E94.35122
G1 X163.797 Y22.06 E100.02029
G1 X165.19 Y22.222 E100.09473
G1 X167.065 Y23.021 E100.20292
G1 X168.401 Y23.925 E100.28855
G1 X169.636 Y25.168 E100.38157
G1 X170.529 Y26.551 E100.46895
G1 X171.282 Y28.368 E100.57336
G1 X171.439 Y29.673 E100.64313
G1 X171.437 Y190.354 E109.17259
G1 X171.282 Y191.658 E109.2423
G1 X170.453 Y193.599 E109.35434
G1 X169.551 Y194.919 E109.4392
G1 X168.379 Y196.091 E109.52719
G1 X166.995 Y197.013 E109.61546
G1 X165.093 Y197.799 E109.72471
G1 X163.154 Y197.975 E109.82806
G1 X56.304 Y197.934 E115.5
G1 X54.882 Y197.701 E115.57649
G1 X53.767 Y197.373 E115.63818
G1 X52.212 Y196.541 E115.7318
G1 X50.924 Y195.458 E115.82113
G1 X49.877 Y194.16 E115.90965
G1 X49.059 Y192.578 E116.00419
G1 X48.704 Y191.213 E116.07906
G1 X48.537 Y189.874 E116.15069
G1 X48.56 Y29.702 E124.65313
G1 X48.722 Y28.332 E124.72636
G1 X49.556 Y26.379 E124.83909
M204 S2000
G0 F7500 X49.976 Y26.615
M204 S500
G1 F1500 X50.852 Y25.345 E124.92099
G1 X52.221 Y23.978 E125.02368
G1 X54.021 Y23.047 E125.13126
G1 X55.551 Y22.603 E125.21583
G1 X57.001 Y22.5 E125.29299
G1 X163.742 Y22.537 E130.95914
G1 X165.065 Y22.691 E131.02984
G1 X166.834 Y23.445 E131.13192
G1 X168.094 Y24.297 E131.21266
G1 X169.262 Y25.473 E131.30065
G1 X170.102 Y26.774 E131.38285
G1 X170.812 Y28.488 E131.48133
G1 X170.962 Y29.731 E131.5478
G1 X170.96 Y190.297 E140.07115
G1 X170.813 Y191.536 E140.13738
G1 X170.032 Y193.365 E140.24295
G1 X169.179 Y194.613 E140.32319
G1 X168.074 Y195.718 E140.40615
G1 X166.771 Y196.586 E140.48926
G1 X164.976 Y197.328 E140.59236
G1 X163.154 Y197.495 E140.68948
G1 X56.38 Y197.46 E146.35739
G1 X55.017 Y197.24 E146.43068
G1 X53.949 Y196.926 E146.48977
G1 X52.485 Y196.142 E146.57792
G1 X51.267 Y195.119 E146.66236
G1 X50.279 Y193.894 E146.7459
G1 X49.512 Y192.41 E146.83457
G1 X49.169 Y191.092 E146.90687
G1 X49.017 Y189.874 E146.97203
G1 X49.037 Y29.758 E155.47149
G1 X49.191 Y28.454 E155.54119
G1 X49.976 Y26.615 E155.64733
M204 S2000
G0 F7500 X50.399 Y26.847
M204 S500
G1 F1500 X51.22 Y25.656 E155.72412
G1 X52.508 Y24.37 E155.82074
G1 X54.199 Y23.495 E155.92181
G1 X55.635 Y23.079 E156.00117
G1 X57.001 Y22.98 E156.07387
G1 X163.686 Y23.014 E161.73705
G1 X164.94 Y23.16 E161.80407
G1 X166.603 Y23.869 E161.90003
G1 X167.79 Y24.672 E161.9761
G1 X168.886 Y25.775 E162.05865
G1 X169.675 Y26.997 E162.13586
G1 X170.343 Y28.608 E162.22844
G1 X170.485 Y29.788 E162.29153
G1 X170.483 Y190.241 E170.80888
G1 X170.344 Y191.414 E170.87158
G1 X169.611 Y193.131 E170.97069
G1 X168.807 Y194.307 E171.04631
G1 X167.769 Y195.345 E171.12423
G1 X166.547 Y196.159 E171.20217
G1 X164.859 Y196.857 E171.29913
G1 X163.154 Y197.015 E171.39003
G1 X56.455 Y196.986 E177.05395
G1 X55.152 Y196.779 E177.12399
G1 X54.131 Y196.479 E177.18047
G1 X52.758 Y195.743 E177.26317
G1 X51.61 Y194.779 E177.34274
G1 X50.683 Y193.63 E177.42111
G1 X49.964 Y192.24 E177.50418
G1 X49.634 Y190.971 E177.57379
G1 X49.497 Y189.874 E177.63247
G1 X49.514 Y29.814 E186.12896
G1 X49.66 Y28.577 E186.19508
G1 X50.399 Y26.847 E186.29495
M204 S2000
G0 F7500 X50.819 Y27.083
M204 S500
G1 F1500 X51.59 Y25.965 E186.36704
G1 X52.795 Y24.762 E186.45742
G1 X54.377 Y23.943 E186.55199
G1 X55.719 Y23.554 E186.62616
G1 X57.001 Y23.46 E186.69439
G1 X163.63 Y23.491 E192.3546
G1 X164.815 Y23.629 E192.41793
G1 X166.372 Y24.293 E192.50778
G1 X167.486 Y25.047 E192.57919
G1 X168.51 Y26.077 E192.65628
G1 X169.248 Y27.22 E192.72851
G1 X169.874 Y28.728 E192.81518
G1 X170.008 Y29.845 E192.8749
G1 X170.006 Y190.185 E201.38625
G1 X169.875 Y191.292 E201.44543
G1 X169.19 Y192.897 E201.53806
G1 X168.435 Y194.001 E201.60906
G1 X167.467 Y194.969 E201.68173
G1 X166.321 Y195.732 E201.75481
G1 X164.741 Y196.386 E201.84558
G1 X163.154 Y196.535 E201.9302
G1 X56.529 Y196.512 E207.59019
G1 X55.287 Y196.318 E207.65692
G1 X54.313 Y196.032 E207.7108
G1 X53.031 Y195.344 E207.78804
G1 X51.953 Y194.439 E207.86275
G1 X51.087 Y193.366 E207.93595
G1 X50.416 Y192.07 E208.01342
G1 X50.099 Y190.85 E208.08033
G1 X49.977 Y189.874 E208.13254
G1 X49.991 Y29.87 E216.62606
G1 X50.129 Y28.699 E216.68865
G1 X50.819 Y27.083 E216.78193
M204 S2000
G0 F7500 X51.239 Y27.319
M204 S500
G1 F1500 X51.96 Y26.274 E216.84932
G1 X53.082 Y25.154 E216.93348
G1 X54.555 Y24.391 E217.02154
G1 X55.803 Y24.029 E217.09051
G1 X57.001 Y23.94 E217.15428
G1 X163.574 Y23.968 E222.81152
G1 X164.69 Y24.098 E222.87116
G1 X166.145 Y24.718 E222.95511
G1 X167.179 Y25.418 E223.0214
G1 X168.132 Y26.377 E223.09316
G1 X168.823 Y27.446 E223.16073
G1 X169.405 Y28.848 E223.24131
G1 X169.531 Y29.902 E223.29766
G1 X169.529 Y190.129 E231.80302
G1 X169.406 Y191.17 E231.85866
G1 X168.769 Y192.663 E231.94483
G1 X168.063 Y193.695 E232.0112
G1 X167.162 Y194.596 E232.07884
G1 X166.099 Y195.304 E232.14664
G1 X164.623 Y195.915 E232.23144
G1 X163.154 Y196.055 E232.30977
G1 X56.601 Y196.037 E237.96594
G1 X55.422 Y195.857 E238.02925
G1 X54.495 Y195.585 E238.08054
G1 X53.3 Y194.944 E238.15252
G1 X52.298 Y194.102 E238.22199
G1 X51.489 Y193.101 E238.29032
G1 X50.869 Y191.901 E238.36201
G1 X50.564 Y190.729 E238.4263
G1 X50.457 Y189.874 E238.47204
G1 X50.468 Y29.926 E246.96259
G1 X50.598 Y28.821 E247.02165
G1 X51.239 Y27.319 E247.10834
M204 S2000
G0 F7500 X51.661 Y27.553
M204 S500
G1 F1500 X52.33 Y26.583 E247.17089
G1 X53.369 Y25.546 E247.24881
G1 X54.733 Y24.839 E247.33036
G1 X55.887 Y24.504 E247.39415
G1 X57.001 Y24.42 E247.45345
G1 X163.518 Y24.445 E253.10772
G1 X164.565 Y24.567 E253.16367
G1 X165.918 Y25.143 E253.24173
G1 X166.869 Y25.787 E253.3027
G1 X167.758 Y26.682 E253.36966
G1 X168.396 Y27.67 E253.43209
G1 X168.936 Y28.968 E253.50672
G1 X169.054 Y29.959 E253.55969
G1 X169.052 Y190.073 E262.05905
G1 X168.937 Y191.047 E262.11112
G1 X168.346 Y192.431 E262.191
G1 X167.691 Y193.389 E262.2526
G1 X166.86 Y194.22 E262.31499
G1 X165.869 Y194.88 E262.37819
G1 X164.508 Y195.444 E262.4564
G1 X163.154 Y195.575 E262.52861
G1 X56.673 Y195.562 E268.18096
G1 X55.494 Y195.382 E268.24427
G1 X54.678 Y195.139 E268.28946
G1 X53.569 Y194.544 E268.35627
G1 X52.643 Y193.765 E268.42051
G1 X51.893 Y192.837 E268.48384
G1 X51.321 Y191.731 E268.54994
G1 X51.029 Y190.608 E268.61153
G1 X50.937 Y189.874 E268.6508
G1 X50.945 Y29.982 E277.13838
G1 X51.067 Y28.944 E277.19386
G1 X51.661 Y27.553 E277.27415
M204 S2000
G0 F7500 X52.081 Y27.789
M204 S500
G1 F1500 X52.7 Y26.892 E277.332
G1 X53.656 Y25.938 E277.40369
G1 X54.911 Y25.287 E277.47874
G1 X55.971 Y24.979 E277.53734
G1 X57.001 Y24.9 E277.59217
G1 X163.462 Y24.922 E283.24346
G1 X164.44 Y25.036 E283.29573
G1 X165.687 Y25.567 E283.36767
G1 X166.562 Y26.159 E283.42375
G1 X167.382 Y26.985 E283.48554
G1 X167.971 Y27.896 E283.54312
G1 X168.467 Y29.088 E283.61166
G1 X168.577 Y30.016 E283.66126
G1 X168.575 Y190.017 E292.15462
G1 X168.468 Y190.925 E292.20316
G1 X167.925 Y192.197 E292.27657
G1 X167.319 Y193.083 E292.33356
G1 X166.558 Y193.844 E292.39068
G1 X165.639 Y194.456 E292.4493
G1 X164.392 Y194.973 E292.52095
G1 X163.154 Y195.095 E292.58699
G1 X56.745 Y195.087 E298.23552
G1 X55.566 Y194.907 E298.29883
G1 X54.863 Y194.693 E298.33783
G1 X53.839 Y194.144 E298.39951
G1 X52.988 Y193.428 E298.45855
G1 X52.297 Y192.573 E298.5169
G1 X51.773 Y191.561 E298.5774
G1 X51.494 Y190.487 E298.6363
G1 X51.417 Y189.874 E298.6691
G1 X51.422 Y30.038 E307.1537
G1 X51.536 Y29.066 E307.20565
G1 X52.081 Y27.789 E307.27935
M204 S2000
G0 F7500 X52.504 Y28.021
M204 S500
G1 F1500 X53.068 Y27.203 E307.33209
G1 X53.943 Y26.33 E307.39771
G1 X55.089 Y25.735 E307.46625
G1 X56.056 Y25.454 E307.51971
G1 X57.001 Y25.38 E307.57002
G1 X163.406 Y25.399 E313.21834
G1 X164.315 Y25.505 E313.26692
G1 X165.456 Y25.991 E313.33275
G1 X166.255 Y26.531 E313.38394
G1 X167.006 Y27.288 E313.44055
G1 X167.546 Y28.123 E313.49333
G1 X167.998 Y29.209 E313.55577
G1 X168.1 Y30.072 E313.6019
G1 X168.098 Y189.961 E322.08932
G1 X167.999 Y190.803 E322.13432
G1 X167.504 Y191.963 E322.20127
G1 X166.947 Y192.777 E322.25363
G1 X166.256 Y193.468 E322.3055
G1 X165.409 Y194.032 E322.35952
G1 X164.276 Y194.502 E322.42463
G1 X163.154 Y194.615 E322.48449
G1 X56.745 Y194.607 E328.13302
G1 X55.706 Y194.448 E328.18882
G1 X55.049 Y194.248 E328.22527
G1 X54.109 Y193.744 E328.28189
G1 X53.333 Y193.091 E328.33573
G1 X52.701 Y192.309 E328.3891
G1 X52.225 Y191.39 E328.44404
G1 X51.959 Y190.366 E328.5002
G1 X51.897 Y189.874 E328.52652
G1 X51.899 Y30.094 E337.00815
G1 X52.005 Y29.189 E337.05652
G1 X52.504 Y28.021 E337.12395
M204 S2000
G0 F7500 X52.924 Y28.257
M204 S500
G1 F1500 X53.438 Y27.512 E337.17199
G1 X54.23 Y26.722 E337.23137
G1 X55.268 Y26.183 E337.29346
G1 X56.145 Y25.928 E337.34194
G1 X57.001 Y25.86 E337.38752
G1 X163.35 Y25.876 E343.03287
G1 X164.19 Y25.974 E343.07776
G1 X165.225 Y26.415 E343.13748
G1 X165.948 Y26.903 E343.18378
G1 X166.63 Y27.591 E343.23521
G1 X167.121 Y28.35 E343.28319
G1 X167.529 Y29.33 E343.33954
G1 X167.623 Y30.128 E343.38219
G1 X167.621 Y189.905 E351.86367
G1 X167.53 Y190.678 E351.90498
G1 X167.08 Y191.733 E351.96587
G1 X166.575 Y192.471 E352.01334
G1 X165.954 Y193.092 E352.05995
G1 X165.179 Y193.608 E352.10938
G1 X164.157 Y194.032 E352.16811
G1 X163.154 Y194.135 E352.22164
G1 X56.745 Y194.127 E357.87016
G1 X55.846 Y193.989 E357.91844
G1 X55.235 Y193.803 E357.95235
G1 X54.379 Y193.344 E358.00391
G1 X53.678 Y192.754 E358.05254
G1 X53.105 Y192.045 E358.10093
G1 X52.677 Y191.219 E358.15032
G1 X52.424 Y190.245 E358.20374
G1 X52.374 Y189.818 E358.22656
G1 X52.376 Y30.15 E366.70224
G1 X52.474 Y29.311 E366.74708
G1 X52.924 Y28.257 E366.80792
M204 S2000
G0 F7500 X53.347 Y28.489
M204 S500
G1 F1500 X53.808 Y27.821 E366.851
G1 X54.517 Y27.114 E366.90415
G1 X55.447 Y26.631 E366.95978
G1 X56.234 Y26.402 E367.00329
G1 X57.001 Y26.34 E367.04414
G1 X163.294 Y26.353 E372.68651
G1 X164.065 Y26.443 E372.72771
G1 X164.994 Y26.839 E372.78132
G1 X165.641 Y27.276 E372.82276
G1 X166.256 Y27.895 E372.86908
G1 X166.693 Y28.572 E372.91186
G1 X167.06 Y29.452 E372.96247
G1 X167.146 Y30.184 E373.00159
G1 X167.144 Y189.849 E381.47712
G1 X167.061 Y190.555 E381.51485
G1 X166.657 Y191.501 E381.56946
G1 X166.203 Y192.165 E381.61216
G1 X165.652 Y192.716 E381.65352
G1 X164.949 Y193.184 E381.69835
G1 X164.038 Y193.562 E381.75071
G1 X163.154 Y193.655 E381.79789
G1 X56.745 Y193.647 E387.44642
G1 X55.986 Y193.53 E387.48719
G1 X55.421 Y193.358 E387.51854
G1 X54.649 Y192.944 E387.56504
G1 X54.023 Y192.417 E387.60848
G1 X53.509 Y191.781 E387.65188
G1 X53.128 Y191.047 E387.69578
G1 X52.901 Y190.189 E387.7429
G1 X52.851 Y189.762 E387.76572
G1 X52.853 Y30.206 E396.23546
G1 X52.943 Y29.436 E396.27661
G1 X53.347 Y28.489 E396.33126
M204 S2000
G0 F7500 X53.769 Y28.723
M204 S500
G1 F1500 X54.178 Y28.13 E396.3695
G1 X54.804 Y27.506 E396.41642
G1 X55.626 Y27.079 E396.46559
G1 X56.323 Y26.876 E396.50413
G1 X57.001 Y26.82 E396.54024
G1 X163.238 Y26.83 E402.17964
G1 X163.94 Y26.912 E402.21715
G1 X164.767 Y27.264 E402.26487
G1 X165.334 Y27.648 E402.30122
G1 X165.878 Y28.195 E402.34217
G1 X166.267 Y28.797 E402.38022
G1 X166.591 Y29.574 E402.4249
G1 X166.669 Y30.24 E402.4605
G1 X166.667 Y189.793 E410.93008
G1 X166.592 Y190.433 E410.96428
G1 X166.236 Y191.267 E411.01242
G1 X165.831 Y191.859 E411.0505
G1 X165.35 Y192.34 E411.0866
G1 X164.719 Y192.76 E411.12684
G1 X163.919 Y193.092 E411.17282
G1 X163.154 Y193.175 E411.21367
G1 X56.745 Y193.167 E416.86219
G1 X56.126 Y193.071 E416.89545
G1 X55.607 Y192.913 E416.92424
G1 X54.919 Y192.544 E416.96569
G1 X54.368 Y192.081 E417.00389
G1 X53.912 Y191.516 E417.04243
G1 X53.578 Y190.872 E417.08094
G1 X53.378 Y190.133 E417.12158
G1 X53.328 Y189.706 E417.1444
G1 X53.33 Y30.262 E425.6082
G1 X53.412 Y29.559 E425.64577
G1 X53.769 Y28.723 E425.69402
M204 S2000
G0 F7500 X54.192 Y28.955
M204 S500
G1 F1500 X54.548 Y28.439 E425.7273
G1 X55.091 Y27.898 E425.76799
