;FLAVOR:Marlin
;TIME:6255
;Filament used: 3.39877m
;Layer height: 0.2
;MINX:77.108
;MINY:77.1
;MINZ:0.2
;MAXX:142.892
;MAXY:142.901
;MAXZ:18.36
;TARGET_MACHINE.NAME:Creality Ender-3 S1 Pro
;Generated with Cura_SteamEngine 5.6.0
M82 ;absolute extrusion mode
; Ender 3 S1 Pro Start G-code
M413 S0 ; Disable power loss recovery
G92 E0 ; Reset Extruder
; Prep surfaces before auto home for better accuracy
M140 S60
M104 S220.0
G28 X Y; always home X and Y
G28 O ; Home all untrusted axes
M420 S1 Z10 ; use bed leveling
G1 Z10.0 F3000 ; Move Z Axis up little to prevent scratching of Heat Bed
G1 X0 Y0

M190 S60
M109 S220.0

G1 X0.1 Y20 Z0.3 F5000.0 ; Move to start position
G1 X0.1 Y200.0 Z0.3 F1500.0 E15 ; Draw the first line
G1 X0.4 Y200.0 Z0.3 F5000.0 ; Move to side a little
G1 X0.4 Y20 Z0.3 F1500.0 E30 ; Draw the second line
G92 E0 ; Reset Extruder
G1 Z2.0 F3000 ; Move Z Axis up little to prevent scratching of Heat Bed
G1 X5 Y20 Z0.3 F5000.0 ; Move over to prevent blob squish
G92 E0
G92 E0
G1 F2400 E-0.8
;LAYER_COUNT:81
;LAYER:0
M107
M204 S2000
G0 F7200 X86.507 Y86.965 Z0.2
M204 S500
;TYPE:SKIRT
G1 F2400 E0
G1 F1500 X87.752 Y85.763 E0.05468
G1 X88.991 Y84.671 E0.10686
G1 X89.978 Y83.883 E0.14677
G1 X91.564 Y82.754 E0.20828
G1 X93.022 Y81.822 E0.26296
G1 X94.441 Y81.01 E0.31462
G1 X95.692 Y80.374 E0.35896
G1 X97.411 Y79.607 E0.41844
G1 X98.931 Y79.018 E0.46995
G1 X100.414 Y78.527 E0.51931
G1 X102.012 Y78.086 E0.57169
G1 X103.658 Y77.721 E0.62496
G1 X105.311 Y77.44 E0.67794
G1 X106.939 Y77.245 E0.72975
G1 X108.579 Y77.131 E0.78169
G1 X110.215 Y77.1 E0.83339
G1 X111.86 Y77.15 E0.88539
G1 X113.462 Y77.279 E0.93618
G1 X115.104 Y77.498 E0.98852
G1 X116.738 Y77.792 E1.04098
G1 X118.161 Y78.124 E1.08715
G1 X119.893 Y78.625 E1.14412
G1 X121.431 Y79.145 E1.19542
G1 X122.663 Y79.627 E1.23722
G1 X124.354 Y80.396 E1.29591
G1 X125.873 Y81.18 E1.34992
G1 X127.246 Y81.981 E1.40015
G1 X128.701 Y82.925 E1.45495
G1 X129.793 Y83.712 E1.49748
G1 X131.31 Y84.936 E1.55907
G1 X132.48 Y85.98 E1.60862
G1 X133.686 Y87.171 E1.66218
G1 X134.754 Y88.326 E1.71188
G1 X135.787 Y89.569 E1.76295
G1 X136.83 Y90.966 E1.81804
G1 X137.74 Y92.31 E1.86932
G1 X138.548 Y93.643 E1.91857
G1 X139.335 Y95.099 E1.97087
G1 X140.031 Y96.569 E2.02226
G1 X140.702 Y98.185 E2.07755
G1 X141.236 Y99.681 E2.12774
G1 X141.702 Y101.206 E2.17812
G1 X142.113 Y102.875 E2.23243
G1 X142.44 Y104.514 E2.28524
G1 X142.666 Y106.1 E2.33586
G1 X142.83 Y107.735 E2.38778
G1 X142.892 Y109.004 E2.42793
G1 X142.874 Y111.015 E2.49147
G1 X142.791 Y112.671 E2.54386
G1 X142.659 Y113.967 E2.58502
G1 X142.362 Y115.923 E2.64754
G1 X142.078 Y117.302 E2.69202
G1 X141.61 Y119.105 E2.75088
G1 X141.156 Y120.567 E2.79925
G1 X140.573 Y122.152 E2.85261
G1 X139.932 Y123.653 E2.90418
G1 X139.253 Y125.066 E2.95372
G1 X138.491 Y126.463 E3.004
G1 X137.519 Y128.028 E3.06221
G1 X136.629 Y129.323 E3.11186
G1 X135.682 Y130.567 E3.16126
G1 X134.675 Y131.763 E3.21066
G1 X133.423 Y133.105 E3.26865
G1 X132.357 Y134.139 E3.31558
G1 X131.042 Y135.291 E3.37082
G1 X129.722 Y136.329 E3.42388
G1 X128.349 Y137.303 E3.47707
G1 X126.978 Y138.178 E3.52846
G1 X125.579 Y138.979 E3.57939
G1 X124.289 Y139.635 E3.62512
G1 X122.588 Y140.394 E3.68398
G1 X121.071 Y140.982 E3.73538
G1 X119.568 Y141.48 E3.78541
G1 X117.988 Y141.916 E3.8372
G1 X116.361 Y142.277 E3.88986
G1 X114.687 Y142.561 E3.94351
G1 X113.065 Y142.755 E3.99513
G1 X111.421 Y142.87 E4.0472
G1 X109.775 Y142.901 E4.09922
G1 X108.144 Y142.849 E4.15078
G1 X106.512 Y142.717 E4.20251
G1 X104.995 Y142.521 E4.25084
G1 X103.276 Y142.207 E4.30606
G1 X101.672 Y141.832 E4.35811
G1 X100.231 Y141.421 E4.40545
G1 X98.655 Y140.881 E4.45809
G1 X97.064 Y140.247 E4.51221
G1 X95.596 Y139.579 E4.56317
G1 X94.126 Y138.821 E4.61543
G1 X92.753 Y138.02 E4.66566
G1 X91.298 Y137.074 E4.72049
G1 X90.206 Y136.287 E4.76302
G1 X88.69 Y135.064 E4.82457
G1 X87.563 Y134.06 E4.87226
G1 X86.319 Y132.829 E4.92756
G1 X85.196 Y131.619 E4.97972
G1 X84.294 Y130.54 E5.02416
G1 X83.235 Y129.134 E5.07977
G1 X82.259 Y127.689 E5.13487
G1 X81.452 Y126.357 E5.18408
G1 X80.665 Y124.901 E5.23638
G1 X79.921 Y123.323 E5.2915
G1 X79.32 Y121.869 E5.34121
G1 X78.774 Y120.346 E5.39233
G1 X78.273 Y118.728 E5.44585
G1 X77.962 Y117.508 E5.48563
G1 X77.559 Y115.482 E5.5509
G1 X77.334 Y113.898 E5.60146
G1 X77.169 Y112.226 E5.65454
G1 X77.108 Y110.661 E5.70403
G1 X77.125 Y108.985 E5.75699
G1 X77.208 Y107.327 E5.80944
G1 X77.338 Y106.052 E5.84994
G1 X77.638 Y104.075 E5.91312
G1 X77.961 Y102.529 E5.96303
G1 X78.39 Y100.896 E6.01637
G1 X78.876 Y99.335 E6.06803
G1 X79.363 Y98.009 E6.11267
G1 X80.102 Y96.284 E6.17196
G1 X80.82 Y94.798 E6.22411
G1 X81.524 Y93.518 E6.27027
G1 X82.413 Y92.073 E6.32387
G1 X83.283 Y90.798 E6.37265
G1 X84.386 Y89.354 E6.43006
G1 X85.427 Y88.122 E6.48102
G1 X86.507 Y86.965 E6.53103
M204 S2000
G0 F7200 X86.785 Y87.253
M204 S500
G1 F1500 X88.017 Y86.063 E6.58516
G1 X89.241 Y84.984 E6.63671
G1 X90.228 Y84.196 E6.67662
G1 X91.779 Y83.091 E6.73679
G1 X93.221 Y82.169 E6.79087
G1 X94.622 Y81.367 E6.84188
G1 X95.873 Y80.731 E6.88622
G1 X97.556 Y79.98 E6.94445
G1 X99.057 Y79.398 E6.99532
G1 X100.52 Y78.913 E7.04402
G1 X102.099 Y78.477 E7.09578
G1 X103.745 Y78.112 E7.14905
G1 X105.359 Y77.837 E7.20079
G1 X106.967 Y77.644 E7.25196
G1 X108.587 Y77.531 E7.30327
G1 X110.203 Y77.5 E7.35434
G1 X111.828 Y77.549 E7.40571
G1 X113.43 Y77.678 E7.45649
G1 X115.033 Y77.892 E7.50759
G1 X116.647 Y78.182 E7.55941
G1 X118.07 Y78.514 E7.60558
G1 X119.765 Y79.004 E7.66133
G1 X121.285 Y79.518 E7.71203
G1 X122.517 Y80 E7.75383
G1 X124.188 Y80.76 E7.81183
G1 X125.671 Y81.525 E7.86456
G1 X127.028 Y82.317 E7.9142
G1 X128.467 Y83.25 E7.96839
G1 X129.559 Y84.037 E8.01092
G1 X131.044 Y85.235 E8.07121
G1 X132.199 Y86.265 E8.12011
G1 X133.392 Y87.443 E8.17308
G1 X134.446 Y88.582 E8.22212
G1 X135.479 Y89.825 E8.27318
G1 X136.499 Y91.19 E8.32703
G1 X137.398 Y92.517 E8.37767
G1 X138.196 Y93.833 E8.4263
G1 X138.973 Y95.27 E8.47792
G1 X139.669 Y96.74 E8.52931
G1 X140.325 Y98.32 E8.58336
G1 X140.853 Y99.798 E8.63296
G1 X141.319 Y101.323 E8.68334
G1 X141.721 Y102.953 E8.73639
G1 X142.044 Y104.57 E8.78849
G1 X142.268 Y106.14 E8.8386
G1 X142.43 Y107.755 E8.88988
G1 X142.492 Y109.024 E8.93003
G1 X142.475 Y110.995 E8.99231
G1 X142.393 Y112.63 E9.04404
G1 X142.261 Y113.926 E9.0852
G1 X141.97 Y115.842 E9.14643
G1 X141.686 Y117.221 E9.19092
G1 X141.228 Y118.986 E9.24853
G1 X140.774 Y120.448 E9.29691
G1 X140.205 Y121.995 E9.34899
G1 X139.571 Y123.48 E9.40001
G1 X138.892 Y124.893 E9.44954
G1 X138.151 Y126.252 E9.49845
G1 X137.189 Y127.801 E9.55606
G1 X136.299 Y129.096 E9.60571
G1 X135.376 Y130.309 E9.65388
G1 X134.369 Y131.505 E9.70328
G1 X133.144 Y132.818 E9.76002
G1 X132.093 Y133.838 E9.80629
G1 X130.778 Y134.99 E9.86153
G1 X129.491 Y136.003 E9.91328
G1 X128.134 Y136.966 E9.96586
G1 X126.779 Y137.831 E10.01666
G1 X125.398 Y138.622 E10.06694
G1 X124.108 Y139.278 E10.11267
G1 X122.443 Y140.021 E10.17028
G1 X120.945 Y140.602 E10.22105
G1 X119.462 Y141.094 E10.27042
G1 X117.901 Y141.525 E10.32159
G1 X116.274 Y141.886 E10.37424
G1 X114.639 Y142.164 E10.42665
G1 X113.037 Y142.356 E10.47763
G1 X111.413 Y142.47 E10.52907
G1 X109.788 Y142.501 E10.58042
G1 X108.176 Y142.45 E10.63138
G1 X106.563 Y142.32 E10.68251
G1 X105.067 Y142.127 E10.73018
G1 X103.367 Y141.817 E10.78478
G1 X101.782 Y141.447 E10.8362
G1 X100.341 Y141.036 E10.88355
G1 X98.803 Y140.509 E10.93492
G1 X97.23 Y139.883 E10.98842
G1 X95.779 Y139.223 E11.03878
G1 X94.328 Y138.475 E11.09036
G1 X92.955 Y137.674 E11.14059
G1 X91.532 Y136.749 E11.19422
G1 X90.44 Y135.962 E11.23675
G1 X88.956 Y134.765 E11.29699
G1 X87.829 Y133.761 E11.34468
G1 X86.612 Y132.557 E11.39877
G1 X85.503 Y131.362 E11.45029
G1 X84.614 Y130.299 E11.49407
G1 X83.555 Y128.893 E11.54969
G1 X82.601 Y127.482 E11.60351
G1 X81.804 Y126.167 E11.65209
G1 X81.027 Y124.73 E11.70371
G1 X80.291 Y123.17 E11.75821
G1 X79.697 Y121.734 E11.80731
G1 X79.151 Y120.211 E11.85844
G1 X78.661 Y118.629 E11.91077
G1 X78.35 Y117.409 E11.95055
G1 X77.955 Y115.426 E12.01444
G1 X77.732 Y113.859 E12.06445
G1 X77.569 Y112.21 E12.1168
G1 X77.508 Y110.665 E12.16566
G1 X77.524 Y109.005 E12.21811
G1 X77.606 Y107.368 E12.2699
G1 X77.736 Y106.093 E12.3104
G1 X78.03 Y104.157 E12.37227
G1 X78.348 Y102.631 E12.42152
G1 X78.772 Y101.015 E12.47431
G1 X79.252 Y99.473 E12.52534
G1 X79.731 Y98.166 E12.56933
G1 X80.462 Y96.458 E12.62803
G1 X81.171 Y94.991 E12.67951
G1 X81.865 Y93.728 E12.72505
G1 X82.754 Y92.283 E12.77865
G1 X83.601 Y91.041 E12.82615
G1 X84.692 Y89.612 E12.88296
G1 X85.733 Y88.38 E12.93392
G1 X86.785 Y87.253 E12.98264
M204 S2000
G0 F7200 X87.063 Y87.541
M204 S500
G1 F1500 X88.282 Y86.363 E13.0362
G1 X89.491 Y85.297 E13.08713
G1 X90.478 Y84.509 E13.12704
G1 X91.995 Y83.428 E13.18589
G1 X93.42 Y82.516 E13.23935
G1 X94.803 Y81.724 E13.28971
G1 X96.054 Y81.088 E13.33405
G1 X97.701 Y80.353 E13.39104
G1 X99.183 Y79.778 E13.44127
G1 X100.627 Y79.299 E13.48934
G1 X102.186 Y78.868 E13.54045
G1 X103.832 Y78.503 E13.59372
G1 X105.407 Y78.234 E13.64421
G1 X106.995 Y78.043 E13.69474
G1 X108.595 Y77.931 E13.74542
G1 X110.191 Y77.9 E13.79586
G1 X111.796 Y77.948 E13.8466
G1 X113.377 Y78.075 E13.89671
G1 X114.962 Y78.286 E13.94724
G1 X116.556 Y78.572 E13.99841
G1 X117.979 Y78.904 E14.04458
G1 X119.637 Y79.383 E14.09911
G1 X121.139 Y79.891 E14.14921
G1 X122.371 Y80.373 E14.19101
G1 X124.005 Y81.116 E14.24772
G1 X125.469 Y81.871 E14.29977
G1 X126.81 Y82.653 E14.34882
G1 X128.233 Y83.575 E14.4024
G1 X129.325 Y84.362 E14.44493
G1 X130.778 Y85.534 E14.50391
G1 X131.918 Y86.55 E14.55216
G1 X133.098 Y87.715 E14.60456
G1 X134.152 Y88.854 E14.65359
G1 X135.159 Y90.064 E14.70333
G1 X136.168 Y91.414 E14.75659
G1 X137.056 Y92.724 E14.80659
G1 X137.844 Y94.023 E14.8546
G1 X138.611 Y95.441 E14.90554
G1 X139.307 Y96.911 E14.95693
G1 X139.948 Y98.455 E15.00975
G1 X140.47 Y99.915 E15.05874
G1 X140.936 Y101.44 E15.10913
G1 X141.329 Y103.031 E15.16091
G1 X141.648 Y104.627 E15.21234
G1 X141.87 Y106.18 E15.26191
G1 X142.03 Y107.775 E15.31256
G1 X142.092 Y109.044 E15.3527
G1 X142.076 Y110.975 E15.41372
G1 X141.995 Y112.589 E15.46478
G1 X141.863 Y113.885 E15.50594
G1 X141.578 Y115.761 E15.5659
G1 X141.294 Y117.14 E15.61038
G1 X140.846 Y118.867 E15.66676
G1 X140.392 Y120.329 E15.71513
G1 X139.837 Y121.838 E15.76593
G1 X139.21 Y123.307 E15.8164
G1 X138.531 Y124.72 E15.86593
G1 X137.811 Y126.041 E15.91347
G1 X136.859 Y127.574 E15.97049
G1 X135.969 Y128.869 E16.02014
G1 X135.07 Y130.051 E16.06706
G1 X134.063 Y131.247 E16.11646
G1 X132.865 Y132.531 E16.17195
G1 X131.829 Y133.537 E16.21758
G1 X130.514 Y134.689 E16.27282
G1 X129.259 Y135.677 E16.32329
G1 X127.919 Y136.629 E16.37522
G1 X126.58 Y137.484 E16.42542
G1 X125.217 Y138.265 E16.47506
G1 X123.927 Y138.921 E16.52079
G1 X122.298 Y139.648 E16.57715
G1 X120.819 Y140.222 E16.62728
G1 X119.355 Y140.708 E16.67602
G1 X117.814 Y141.134 E16.72654
G1 X116.187 Y141.495 E16.7792
G1 X114.591 Y141.767 E16.83035
G1 X113.009 Y141.957 E16.8807
G1 X111.405 Y142.07 E16.9315
G1 X109.801 Y142.101 E16.9822
G1 X108.208 Y142.051 E17.03255
G1 X106.614 Y141.923 E17.08308
G1 X105.118 Y141.73 E17.13074
G1 X103.458 Y141.427 E17.18406
G1 X101.892 Y141.062 E17.23487
G1 X100.451 Y140.651 E17.28222
G1 X98.951 Y140.137 E17.33232
G1 X97.396 Y139.519 E17.38519
G1 X95.962 Y138.867 E17.43496
G1 X94.53 Y138.129 E17.48587
G1 X93.157 Y137.328 E17.53609
G1 X91.766 Y136.424 E17.58851
G1 X90.674 Y135.637 E17.63104
G1 X89.222 Y134.466 E17.68998
G1 X88.095 Y133.462 E17.73767
G1 X86.905 Y132.285 E17.79056
G1 X85.81 Y131.105 E17.84142
G1 X84.934 Y130.058 E17.88456
G1 X83.875 Y128.652 E17.94017
G1 X82.943 Y127.275 E17.99271
G1 X82.156 Y125.977 E18.04067
G1 X81.389 Y124.559 E18.09161
G1 X80.661 Y123.017 E18.14549
G1 X80.074 Y121.599 E18.19399
G1 X79.528 Y120.076 E18.24511
G1 X79.049 Y118.53 E18.29625
G1 X78.738 Y117.31 E18.33603
G1 X78.351 Y115.37 E18.39853
G1 X78.13 Y113.82 E18.44801
G1 X77.969 Y112.194 E18.49963
G1 X77.908 Y110.669 E18.54786
G1 X77.923 Y109.025 E18.59981
G1 X78.004 Y107.409 E18.65093
G1 X78.134 Y106.134 E18.69143
G1 X78.422 Y104.239 E18.75199
G1 X78.74 Y102.713 E18.80124
G1 X79.154 Y101.134 E18.85282
G1 X79.628 Y99.61 E18.90325
G1 X80.099 Y98.323 E18.94655
G1 X80.822 Y96.632 E19.00466
G1 X81.522 Y95.184 E19.05548
G1 X82.216 Y93.921 E19.10102
G1 X83.084 Y92.508 E19.15341
G1 X83.919 Y91.284 E19.20023
G1 X84.998 Y89.87 E19.25643
G1 X86.039 Y88.638 E19.3074
G1 X87.063 Y87.541 E19.35481
M204 S2000
G0 F7200 X87.341 Y87.829
M204 S500
G1 F1500 X88.56 Y86.651 E19.40838
G1 X89.741 Y85.61 E19.45812
G1 X90.728 Y84.822 E19.49803
G1 X92.211 Y83.765 E19.55557
G1 X93.619 Y82.863 E19.6084
G1 X94.984 Y82.081 E19.65811
G1 X96.235 Y81.445 E19.70245
G1 X97.846 Y80.726 E19.75819
G1 X99.309 Y80.158 E19.80778
G1 X100.734 Y79.685 E19.85522
G1 X102.293 Y79.254 E19.90633
G1 X103.899 Y78.897 E19.95832
G1 X105.455 Y78.631 E20.00819
G1 X107.023 Y78.442 E20.0581
G1 X108.603 Y78.331 E20.10814
G1 X110.179 Y78.3 E20.15795
G1 X111.764 Y78.347 E20.20805
G1 X113.345 Y78.474 E20.25817
G1 X114.891 Y78.68 E20.30745
G1 X116.465 Y78.962 E20.35798
G1 X117.888 Y79.294 E20.40415
G1 X119.509 Y79.762 E20.45746
G1 X120.993 Y80.264 E20.50696
G1 X122.225 Y80.746 E20.54876
G1 X123.822 Y81.472 E20.60419
G1 X125.267 Y82.217 E20.65556
G1 X126.608 Y82.999 E20.70461
G1 X127.999 Y83.9 E20.75697
G1 X129.091 Y84.687 E20.79951
G1 X130.512 Y85.833 E20.85719
G1 X131.637 Y86.835 E20.90479
G1 X132.804 Y87.987 E20.9566
G1 X133.858 Y89.126 E21.00564
G1 X134.839 Y90.304 E21.05407
G1 X135.837 Y91.638 E21.10672
G1 X136.714 Y92.932 E21.15611
G1 X137.492 Y94.213 E21.20346
G1 X138.249 Y95.612 E21.25372
G1 X138.945 Y97.082 E21.30512
G1 X139.571 Y98.59 E21.35671
G1 X140.087 Y100.032 E21.4051
G1 X140.553 Y101.557 E21.45548
G1 X140.937 Y103.109 E21.506
G1 X141.252 Y104.684 E21.55675
G1 X141.472 Y106.22 E21.60578
G1 X141.63 Y107.795 E21.6558
G1 X141.692 Y109.064 E21.69594
G1 X141.677 Y110.955 E21.75569
G1 X141.597 Y112.548 E21.80609
G1 X141.465 Y113.844 E21.84725
G1 X141.186 Y115.68 E21.90593
G1 X140.902 Y117.059 E21.95042
G1 X140.464 Y118.748 E22.00555
G1 X140.01 Y120.21 E22.05392
G1 X139.469 Y121.681 E22.10344
G1 X138.849 Y123.134 E22.15336
G1 X138.17 Y124.547 E22.20289
G1 X137.471 Y125.83 E22.24906
G1 X136.529 Y127.347 E22.30548
G1 X135.639 Y128.642 E22.35513
G1 X134.764 Y129.793 E22.40082
G1 X133.757 Y130.989 E22.45022
G1 X132.586 Y132.244 E22.50445
G1 X131.565 Y133.236 E22.54943
G1 X130.25 Y134.388 E22.60467
G1 X129.027 Y135.351 E22.65386
G1 X127.704 Y136.292 E22.70516
G1 X126.381 Y137.137 E22.75476
G1 X125.036 Y137.908 E22.80374
G1 X123.746 Y138.564 E22.84947
G1 X122.153 Y139.275 E22.90459
G1 X120.693 Y139.842 E22.95408
G1 X119.248 Y140.322 E23.00219
G1 X117.727 Y140.743 E23.05206
G1 X116.1 Y141.104 E23.10472
G1 X114.543 Y141.37 E23.15462
G1 X112.981 Y141.558 E23.20434
G1 X111.397 Y141.67 E23.25451
G1 X109.813 Y141.701 E23.30457
G1 X108.24 Y141.652 E23.3543
G1 X106.665 Y141.526 E23.40422
G1 X105.169 Y141.333 E23.45188
G1 X103.549 Y141.037 E23.50392
G1 X102.002 Y140.677 E23.5541
G1 X100.561 Y140.266 E23.60145
G1 X99.099 Y139.765 E23.65028
G1 X97.562 Y139.155 E23.70253
G1 X96.145 Y138.511 E23.75171
G1 X94.732 Y137.783 E23.80194
G1 X93.359 Y136.982 E23.85216
G1 X92 Y136.099 E23.90337
G1 X90.908 Y135.312 E23.9459
G1 X89.488 Y134.167 E24.00354
G1 X88.361 Y133.163 E24.05123
G1 X87.198 Y132.013 E24.10291
G1 X86.117 Y130.848 E24.15313
G1 X85.254 Y129.817 E24.19561
G1 X84.195 Y128.411 E24.25123
G1 X83.285 Y127.067 E24.30251
G1 X82.508 Y125.787 E24.34982
G1 X81.751 Y124.388 E24.40008
G1 X81.031 Y122.864 E24.45334
G1 X80.451 Y121.464 E24.50122
G1 X79.905 Y119.941 E24.55235
G1 X79.437 Y118.431 E24.6023
G1 X79.126 Y117.211 E24.64208
G1 X78.747 Y115.313 E24.70323
G1 X78.528 Y113.78 E24.75216
G1 X78.369 Y112.178 E24.80303
G1 X78.308 Y110.672 E24.85065
G1 X78.322 Y109.045 E24.90207
G1 X78.402 Y107.45 E24.95253
G1 X78.532 Y106.175 E24.99302
G1 X78.814 Y104.321 E25.05228
G1 X79.132 Y102.795 E25.10153
G1 X79.536 Y101.253 E25.1519
G1 X80.004 Y99.747 E25.20173
G1 X80.467 Y98.48 E25.24435
G1 X81.182 Y96.806 E25.30187
G1 X81.873 Y95.377 E25.35202
