;FLAVOR:Marlin
;TIME:13337
;Filament used: 15.8492m
;Layer height: 0.28
;MINX:69.719
;MINY:16.7
;MINZ:0.28
;MAXX:150.3
;MAXY:203.3
;MAXZ:77.2
;Generated with Cura_SteamEngine 5.4.0
M82 ;absolute extrusion mode
; Ender 3 S1 Pro Start G-code
M413 S0 ; Disable power loss recovery
G92 E0 ; Reset Extruder
; Prep surfaces before auto home for better accuracy
M140 S60
M104 S200

G28 O ; Home all untrusted axes
M420 S1 Z10 ; use bed leveling
G1 Z10.0 F3000 ; Move Z Axis up little to prevent scratching of Heat Bed
G1 X0 Y0

M190 S60
M109 S200

G1 X0.1 Y20 Z0.3 F5000.0 ; Move to start position
G1 X0.1 Y200.0 Z0.3 F1500.0 E15 ; Draw the first line
G1 X0.4 Y200.0 Z0.3 F5000.0 ; Move to side a little
G1 X0.4 Y20 Z0.3 F1500.0 E30 ; Draw the second line
G92 E0 ; Reset Extruder
G1 Z2.0 F3000 ; Move Z Axis up little to prevent scratching of Heat Bed
G1 X5 Y20 Z0.3 F5000.0 ; Move over to prevent blob squish
G92 E0
G92 E0
G1 F2400 E-0.8
;LAYER_COUNT:275
;LAYER:0
M107
M204 S2000
G1 F300 Z0.48
G0 F7500 X74.495 Y37.898 Z0.48
M204 S500
;TYPE:SKIRT
G1 F300 Z0.28
G1 F2400 E0
G1 F1500 X75.441 Y36.238 E0.08897
G1 X76.547 Y34.5 E0.18489
G1 X77.648 Y32.943 E0.27369
G1 X78.863 Y31.396 E0.36528
G1 X80.215 Y29.834 E0.46148
G1 X81.454 Y28.533 E0.54514
G1 X83.049 Y27.029 E0.64722
G1 X84.545 Y25.75 E0.73886
G1 X86.102 Y24.543 E0.8306
G1 X87.727 Y23.407 E0.92292
G1 X89.354 Y22.387 E1.01234
G1 X91.148 Y21.38 E1.10813
G1 X92.934 Y20.494 E1.20097
G1 X94.73 Y19.709 E1.29224
G1 X96.583 Y18.997 E1.38467
G1 X98.469 Y18.377 E1.47712
G1 X100.247 Y17.889 E1.56297
G1 X102.091 Y17.48 E1.65092
G1 X104.28 Y17.112 E1.75428
G1 X106.248 Y16.877 E1.84657
G1 X108.232 Y16.739 E1.93917
G1 X110.213 Y16.7 E2.03144
G1 X112.198 Y16.759 E2.12391
G1 X114.164 Y16.916 E2.21574
G1 X116.148 Y17.17 E2.30888
G1 X118.079 Y17.522 E2.40028
G1 X120.012 Y17.968 E2.49265
G1 X121.905 Y18.501 E2.58422
G1 X123.804 Y19.133 E2.67742
G1 X125.488 Y19.791 E2.76161
G1 X127.449 Y20.669 E2.86165
G1 X129.029 Y21.469 E2.94412
G1 X130.923 Y22.549 E3.04564
G1 X132.47 Y23.532 E3.13099
G1 X134.145 Y24.722 E3.22666
G1 X135.769 Y26.008 E3.32312
G1 X137.227 Y27.271 E3.41294
G1 X138.629 Y28.618 E3.50347
G1 X140.05 Y30.125 E3.59992
G1 X141.266 Y31.542 E3.68687
G1 X142.483 Y33.117 E3.77955
G1 X143.66 Y34.811 E3.8756
G1 X144.707 Y36.489 E3.9677
G1 X145.696 Y38.261 E4.06219
G1 X146.579 Y40.039 E4.15463
G1 X147.347 Y41.804 E4.24426
G1 X148.019 Y43.561 E4.33185
G1 X148.677 Y45.58 E4.43073
G1 X149.172 Y47.394 E4.51829
G1 X149.587 Y49.279 E4.60816
G1 X149.922 Y51.28 E4.70263
G1 X150.165 Y53.406 E4.80227
G1 X150.3 Y55.83 E4.91532
G1 X145.255 Y176.982 E10.56155
G1 X144.255 Y179.779 E10.69987
G1 X143.622 Y181.313 E10.77714
G1 X142.825 Y183.017 E10.86474
G1 X142.012 Y184.551 E10.94558
G1 X141.097 Y186.094 E11.02911
G1 X140.136 Y187.549 E11.1103
G1 X139.076 Y188.994 E11.19375
G1 X137.938 Y190.405 E11.27816
G1 X136.896 Y191.574 E11.35108
G1 X135.51 Y192.979 E11.44298
G1 X134.206 Y194.187 E11.52575
G1 X132.927 Y195.261 E11.60351
G1 X131.439 Y196.386 E11.69038
G1 X129.989 Y197.382 E11.77229
G1 X128.486 Y198.306 E11.85444
G1 X126.896 Y199.178 E11.93888
G1 X125.335 Y199.939 E12.01975
G1 X123.652 Y200.665 E12.10509
G1 X122.038 Y201.266 E12.18529
G1 X120.318 Y201.818 E12.2694
G1 X118.6 Y202.283 E12.35228
G1 X117.067 Y202.619 E12.42536
G1 X115.258 Y202.922 E12.51076
G1 X113.346 Y203.145 E12.6004
G1 X111.567 Y203.266 E12.68343
G1 X109.783 Y203.3 E12.76651
G1 X108.02 Y203.246 E12.84864
G1 X106.228 Y203.107 E12.93234
G1 X104.495 Y202.879 E13.01373
G1 X102.767 Y202.576 E13.09542
G1 X101.01 Y202.186 E13.17922
G1 X99.651 Y201.814 E13.24483
G1 X97.63 Y201.152 E13.34386
G1 X96.079 Y200.561 E13.42115
G1 X94.512 Y199.876 E13.50078
G1 X92.747 Y198.99 E13.59274
G1 X91.221 Y198.131 E13.67428
G1 X89.692 Y197.168 E13.75842
G1 X88.311 Y196.204 E13.83684
G1 X86.93 Y195.142 E13.91796
G1 X85.507 Y193.928 E14.00506
G1 X84.199 Y192.707 E14.08838
G1 X83.137 Y191.612 E14.15941
G1 X81.8 Y190.086 E14.25388
G1 X80.714 Y188.725 E14.33496
G1 X79.724 Y187.347 E14.41397
G1 X78.691 Y185.751 E14.50249
G1 X77.845 Y184.29 E14.5811
G1 X76.999 Y182.656 E14.66678
G1 X76.256 Y181.045 E14.74939
G1 X75.711 Y179.702 E14.81688
G1 X74.739 Y176.929 E14.95371
G1 X69.719 Y54.949 E20.63841
G1 X69.873 Y52.935 E20.73247
G1 X70.125 Y50.971 E20.82467
G1 X70.473 Y49.037 E20.91617
G1 X70.914 Y47.092 E21.00904
G1 X71.442 Y45.207 E21.10019
G1 X72.075 Y43.308 E21.1934
G1 X72.799 Y41.456 E21.28599
G1 X73.597 Y39.671 E21.37703
G1 X74.495 Y37.898 E21.46958
M204 S2000
G0 F7500 X74.843 Y38.096
M204 S500
G1 F1500 X75.789 Y36.436 E21.55855
G1 X76.874 Y34.731 E21.65265
G1 X77.963 Y33.19 E21.74051
G1 X79.165 Y31.658 E21.83119
G1 X80.505 Y30.11 E21.92652
G1 X81.744 Y28.809 E22.01018
G1 X83.309 Y27.333 E22.11035
G1 X84.79 Y26.066 E22.2011
G1 X86.331 Y24.871 E22.29191
G1 X87.94 Y23.746 E22.38333
G1 X89.55 Y22.736 E22.47182
G1 X91.326 Y21.738 E22.56668
G1 X93.094 Y20.86 E22.6586
G1 X94.873 Y20.082 E22.74902
G1 X96.708 Y19.377 E22.84055
G1 X98.575 Y18.763 E22.93207
G1 X100.334 Y18.28 E23.017
G1 X102.178 Y17.871 E23.10496
G1 X104.327 Y17.509 E23.20643
G1 X106.276 Y17.276 E23.29783
G1 X108.24 Y17.139 E23.38951
G1 X110.201 Y17.1 E23.48084
G1 X112.166 Y17.158 E23.57237
G1 X114.113 Y17.313 E23.66332
G1 X116.076 Y17.564 E23.75547
G1 X117.989 Y17.912 E23.84601
G1 X119.904 Y18.353 E23.93751
G1 X121.779 Y18.88 E24.02821
G1 X123.658 Y19.506 E24.12043
G1 X125.342 Y20.164 E24.20462
G1 X127.268 Y21.026 E24.30287
G1 X128.831 Y21.817 E24.38444
G1 X130.708 Y22.887 E24.48504
G1 X132.255 Y23.87 E24.57039
G1 X133.897 Y25.036 E24.66417
G1 X135.507 Y26.31 E24.75977
G1 X136.95 Y27.56 E24.84866
G1 X138.338 Y28.893 E24.93827
G1 X139.746 Y30.385 E25.0338
G1 X140.949 Y31.787 E25.11982
G1 X142.166 Y33.362 E25.2125
G1 X143.321 Y35.023 E25.30671
G1 X144.358 Y36.684 E25.39788
G1 X145.338 Y38.439 E25.49148
G1 X146.212 Y40.199 E25.58298
G1 X146.973 Y41.947 E25.67176
G1 X147.645 Y43.704 E25.75935
G1 X148.291 Y45.685 E25.85637
G1 X148.781 Y47.48 E25.94302
G1 X149.192 Y49.345 E26.03194
G1 X149.527 Y51.346 E26.12641
G1 X149.766 Y53.428 E26.224
G1 X149.9 Y55.813 E26.33523
G1 X144.858 Y176.904 E31.97862
G1 X143.885 Y179.626 E32.11322
G1 X143.252 Y181.16 E32.19049
G1 X142.472 Y182.83 E32.27632
G1 X141.668 Y184.347 E32.35626
G1 X140.763 Y185.874 E32.43892
G1 X139.813 Y187.312 E32.51917
G1 X138.753 Y188.757 E32.60262
G1 X137.639 Y190.139 E32.68527
G1 X136.611 Y191.293 E32.75723
G1 X135.238 Y192.686 E32.84831
G1 X133.949 Y193.881 E32.93016
G1 X132.686 Y194.942 E33.00696
G1 X131.213 Y196.056 E33.09296
G1 X129.779 Y197.041 E33.17397
G1 X128.294 Y197.955 E33.25516
G1 X126.721 Y198.818 E33.33871
G1 X125.16 Y199.579 E33.41957
G1 X123.512 Y200.29 E33.50315
G1 X121.916 Y200.885 E33.58246
G1 X120.214 Y201.432 E33.66571
G1 X118.514 Y201.892 E33.74771
G1 X117.001 Y202.224 E33.81984
G1 X115.192 Y202.527 E33.90525
G1 X113.319 Y202.746 E33.99306
G1 X111.559 Y202.866 E34.0752
G1 X109.795 Y202.9 E34.15735
G1 X108.051 Y202.847 E34.2386
G1 X106.28 Y202.71 E34.32131
G1 X104.564 Y202.485 E34.4019
G1 X102.854 Y202.186 E34.48273
G1 X101.116 Y201.8 E34.56563
G1 X99.757 Y201.428 E34.63124
G1 X97.772 Y200.778 E34.7285
G1 X96.239 Y200.194 E34.80489
G1 X94.672 Y199.509 E34.88452
G1 X92.943 Y198.641 E34.97461
G1 X91.417 Y197.782 E35.05615
G1 X89.921 Y196.84 E35.13847
G1 X88.555 Y195.887 E35.21602
G1 X87.19 Y194.838 E35.29618
G1 X85.78 Y193.635 E35.38249
G1 X84.486 Y192.428 E35.46489
G1 X83.438 Y191.348 E35.53496
G1 X82.113 Y189.837 E35.62854
G1 X81.039 Y188.491 E35.70872
G1 X80.06 Y187.13 E35.78679
G1 X79.037 Y185.551 E35.87439
G1 X78.2 Y184.106 E35.95215
G1 X77.362 Y182.489 E36.03696
G1 X76.627 Y180.895 E36.11869
G1 X76.082 Y179.552 E36.18618
G1 X75.137 Y176.856 E36.31921
G1 X70.118 Y54.979 E41.99912
G1 X70.27 Y52.986 E42.09219
G1 X70.519 Y51.042 E42.18345
G1 X70.863 Y49.125 E42.27414
G1 X71.299 Y47.2 E42.36605
G1 X71.822 Y45.333 E42.45633
G1 X72.448 Y43.453 E42.5486
G1 X73.164 Y41.619 E42.64027
G1 X73.954 Y39.852 E42.7304
G1 X74.843 Y38.096 E42.82205
M204 S2000
G0 F7500 X75.191 Y38.294
M204 S500
G1 F1500 X76.137 Y36.634 E42.91101
G1 X77.201 Y34.962 E43.0033
G1 X78.278 Y33.437 E43.09023
G1 X79.467 Y31.92 E43.17998
G1 X80.795 Y30.386 E43.27446
G1 X82.034 Y29.085 E43.35811
G1 X83.569 Y27.637 E43.45637
G1 X85.035 Y26.382 E43.54623
G1 X86.56 Y25.199 E43.63611
G1 X88.153 Y24.085 E43.72662
G1 X89.746 Y23.085 E43.8142
G1 X91.504 Y22.096 E43.90813
G1 X93.254 Y21.226 E43.99913
G1 X95.017 Y20.455 E44.08873
G1 X96.833 Y19.757 E44.17932
G1 X98.681 Y19.149 E44.26991
G1 X100.421 Y18.671 E44.35393
G1 X102.265 Y18.262 E44.44188
G1 X104.375 Y17.906 E44.54152
G1 X106.304 Y17.675 E44.63198
G1 X108.248 Y17.539 E44.72273
G1 X110.189 Y17.5 E44.81313
G1 X112.134 Y17.557 E44.90373
G1 X114.062 Y17.71 E44.99379
G1 X116.005 Y17.958 E45.085
G1 X117.899 Y18.302 E45.17463
G1 X119.796 Y18.738 E45.26527
G1 X121.653 Y19.26 E45.35509
G1 X123.512 Y19.879 E45.44633
G1 X125.196 Y20.537 E45.53051
G1 X127.087 Y21.383 E45.62698
G1 X128.65 Y22.174 E45.70855
G1 X130.493 Y23.225 E45.80734
G1 X132.04 Y24.208 E45.89268
G1 X133.649 Y25.35 E45.98456
G1 X135.245 Y26.612 E46.0793
G1 X136.673 Y27.848 E46.16724
G1 X138.047 Y29.168 E46.25596
G1 X139.442 Y30.645 E46.35056
G1 X140.632 Y32.032 E46.43566
G1 X141.849 Y33.607 E46.52834
G1 X142.982 Y35.235 E46.6207
G1 X144.009 Y36.879 E46.71096
G1 X144.98 Y38.617 E46.80366
G1 X145.845 Y40.359 E46.89423
G1 X146.599 Y42.09 E46.98215
G1 X147.271 Y43.847 E47.06974
G1 X147.905 Y45.79 E47.16491
G1 X148.39 Y47.566 E47.25063
G1 X148.797 Y49.411 E47.33861
G1 X149.132 Y51.412 E47.43308
G1 X149.367 Y53.451 E47.52866
G1 X149.5 Y55.796 E47.63802
G1 X144.461 Y176.826 E53.27857
G1 X143.515 Y179.473 E53.40946
G1 X142.882 Y181.007 E53.48673
G1 X142.118 Y182.643 E53.57081
G1 X141.324 Y184.143 E53.64984
G1 X140.429 Y185.654 E53.73161
G1 X139.491 Y187.075 E53.8109
G1 X138.441 Y188.506 E53.89354
G1 X137.34 Y189.873 E53.97527
G1 X136.326 Y191.012 E54.04628
G1 X134.966 Y192.393 E54.13653
G1 X133.692 Y193.575 E54.21746
G1 X132.445 Y194.623 E54.29331
G1 X130.987 Y195.726 E54.37844
G1 X129.569 Y196.7 E54.45854
G1 X128.101 Y197.604 E54.53882
G1 X126.546 Y198.458 E54.62143
G1 X124.985 Y199.219 E54.70229
G1 X123.372 Y199.915 E54.78409
G1 X121.794 Y200.504 E54.86252
G1 X120.109 Y201.046 E54.94494
G1 X118.428 Y201.501 E55.02603
G1 X116.935 Y201.829 E55.09721
G1 X115.126 Y202.132 E55.18262
G1 X113.292 Y202.347 E55.2686
G1 X111.551 Y202.466 E55.34986
G1 X109.807 Y202.5 E55.43108
G1 X108.082 Y202.448 E55.51144
G1 X106.332 Y202.313 E55.59317
G1 X104.633 Y202.091 E55.67296
G1 X102.923 Y201.792 E55.75379
G1 X101.222 Y201.414 E55.83493
G1 X99.863 Y201.042 E55.90054
G1 X97.914 Y200.404 E55.99603
G1 X96.399 Y199.827 E56.07152
G1 X94.832 Y199.142 E56.15115
G1 X93.139 Y198.292 E56.23936
G1 X91.63 Y197.443 E56.31998
G1 X90.15 Y196.512 E56.4014
G1 X88.799 Y195.57 E56.47809
G1 X87.45 Y194.534 E56.55729
G1 X86.053 Y193.343 E56.64277
G1 X84.773 Y192.149 E56.72428
G1 X83.739 Y191.084 E56.7934
G1 X82.426 Y189.588 E56.88609
G1 X81.364 Y188.257 E56.96537
G1 X80.396 Y186.912 E57.04254
G1 X79.383 Y185.35 E57.12922
G1 X78.555 Y183.922 E57.20609
G1 X77.725 Y182.322 E57.29002
G1 X76.998 Y180.745 E57.37088
G1 X76.453 Y179.402 E57.43837
G1 X75.535 Y176.783 E57.56759
G1 X70.517 Y55.009 E63.24271
G1 X70.667 Y53.037 E63.3348
G1 X70.913 Y51.112 E63.42517
G1 X71.253 Y49.213 E63.515
G1 X71.684 Y47.308 E63.60595
G1 X72.201 Y45.459 E63.69534
G1 X72.821 Y43.598 E63.78668
G1 X73.529 Y41.782 E63.87744
G1 X74.311 Y40.033 E63.96665
G1 X75.191 Y38.294 E64.05741
M204 S2000
G0 F7500 X75.539 Y38.492
M204 S500
G1 F1500 X76.485 Y36.832 E64.14637
G1 X77.528 Y35.193 E64.23683
G1 X78.593 Y33.684 E64.32284
G1 X79.77 Y32.182 E64.41169
G1 X81.085 Y30.662 E64.50528
G1 X82.309 Y29.376 E64.58795
G1 X83.829 Y27.941 E64.68529
G1 X85.28 Y26.698 E64.77425
G1 X86.789 Y25.527 E64.86319
G1 X88.366 Y24.424 E64.9528
G1 X89.942 Y23.434 E65.03947
G1 X91.682 Y22.454 E65.13246
G1 X93.414 Y21.592 E65.22254
G1 X95.16 Y20.828 E65.31128
G1 X96.958 Y20.137 E65.40098
G1 X98.787 Y19.535 E65.49064
G1 X100.508 Y19.062 E65.57375
G1 X102.352 Y18.653 E65.6617
G1 X104.423 Y18.303 E65.7595
G1 X106.332 Y18.074 E65.84903
G1 X108.256 Y17.939 E65.93884
G1 X110.177 Y17.9 E66.0283
G1 X112.102 Y17.956 E66.11798
G1 X114.011 Y18.107 E66.20715
G1 X115.934 Y18.352 E66.29741
G1 X117.81 Y18.692 E66.38619
G1 X119.688 Y19.123 E66.47591
G1 X121.527 Y19.64 E66.56486
G1 X123.366 Y20.252 E66.65511
G1 X125.05 Y20.91 E66.7393
G1 X126.906 Y21.74 E66.83397
G1 X128.469 Y22.531 E66.91554
G1 X130.278 Y23.563 E67.01252
G1 X131.825 Y24.546 E67.09787
G1 X133.401 Y25.664 E67.18784
G1 X134.983 Y26.914 E67.28173
G1 X136.396 Y28.137 E67.36874
G1 X137.756 Y29.443 E67.45654
G1 X139.138 Y30.905 E67.55022
G1 X140.315 Y32.277 E67.63439
G1 X141.532 Y33.852 E67.72707
G1 X142.643 Y35.447 E67.81759
G1 X143.66 Y37.074 E67.90693
G1 X144.622 Y38.795 E67.99874
G1 X145.478 Y40.519 E68.08836
G1 X146.225 Y42.233 E68.17542
G1 X146.897 Y43.99 E68.26302
G1 X147.519 Y45.895 E68.35633
G1 X147.999 Y47.652 E68.44114
G1 X148.402 Y49.477 E68.52817
G1 X148.737 Y51.478 E68.62264
G1 X148.968 Y53.474 E68.7162
G1 X149.1 Y55.779 E68.82371
G1 X144.064 Y176.748 E74.46141
G1 X143.145 Y179.32 E74.58859
G1 X142.512 Y180.854 E74.66586
G1 X141.764 Y182.456 E74.74819
G1 X140.98 Y183.939 E74.8263
G1 X140.095 Y185.434 E74.9072
G1 X139.169 Y186.838 E74.98551
G1 X138.129 Y188.255 E75.06736
G1 X137.041 Y189.607 E75.14816
G1 X136.041 Y190.731 E75.21822
G1 X134.694 Y192.1 E75.30765
G1 X133.434 Y193.269 E75.38768
G1 X132.204 Y194.304 E75.46253
G1 X130.761 Y195.396 E75.5468
G1 X129.359 Y196.359 E75.626
G1 X127.908 Y197.253 E75.70536
G1 X126.371 Y198.098 E75.78703
G1 X124.81 Y198.859 E75.86789
G1 X123.232 Y199.54 E75.94792
G1 X121.671 Y200.123 E76.02551
G1 X120.004 Y200.66 E76.10706
G1 X118.342 Y201.11 E76.18724
G1 X116.869 Y201.434 E76.25747
G1 X115.06 Y201.737 E76.34288
G1 X113.265 Y201.948 E76.42703
G1 X111.543 Y202.066 E76.5074
G1 X109.819 Y202.1 E76.5877
G1 X108.113 Y202.049 E76.66717
G1 X106.384 Y201.916 E76.74792
G1 X104.702 Y201.697 E76.8269
G1 X103.01 Y201.402 E76.90688
G1 X101.328 Y201.028 E76.98711
G1 X99.969 Y200.656 E77.05272
G1 X98.056 Y200.03 E77.14644
G1 X96.541 Y199.453 E77.22193
G1 X95.011 Y198.784 E77.29969
G1 X93.335 Y197.943 E77.387
G1 X91.843 Y197.104 E77.46671
G1 X90.379 Y196.184 E77.54722
G1 X89.043 Y195.253 E77.62305
G1 X87.694 Y194.217 E77.70225
G1 X86.326 Y193.051 E77.78595
G1 X85.06 Y191.87 E77.86656
G1 X84.04 Y190.82 E77.93473
G1 X82.739 Y189.339 E78.02652
G1 X81.689 Y188.023 E78.10491
G1 X80.732 Y186.694 E78.18117
G1 X79.729 Y185.149 E78.26694
G1 X78.91 Y183.738 E78.34291
G1 X78.088 Y182.154 E78.42601
G1 X77.369 Y180.595 E78.50595
G1 X76.824 Y179.252 E78.57344
G1 X75.933 Y176.71 E78.69887
G1 X70.916 Y55.039 E84.36919
G1 X71.064 Y53.088 E84.4603
G1 X71.307 Y51.182 E84.54977
G1 X71.643 Y49.301 E84.63874
G1 X72.069 Y47.416 E84.72873
G1 X72.586 Y45.567 E84.81813
G1 X73.194 Y43.743 E84.90766
G1 X73.894 Y41.945 E84.9975
G1 X74.668 Y40.214 E85.08579
G1 X75.539 Y38.492 E85.17565
M204 S2000
G0 F7500 X75.896 Y38.673
M204 S500
G1 F1500 X76.823 Y37.047 E85.2628
G1 X77.855 Y35.424 E85.35236
G1 X78.908 Y33.931 E85.43743
G1 X80.072 Y32.444 E85.52537
G1 X81.375 Y30.938 E85.6181
G1 X82.584 Y29.667 E85.69978
G1 X84.089 Y28.245 E85.79619
G1 X85.525 Y27.014 E85.88426
G1 X87.018 Y25.855 E85.97227
G1 X88.579 Y24.763 E86.06098
G1 X90.155 Y23.773 E86.14764
G1 X91.86 Y22.812 E86.23878
G1 X93.574 Y21.958 E86.32794
G1 X95.303 Y21.201 E86.41583
G1 X97.083 Y20.517 E86.50463
G1 X98.893 Y19.921 E86.59336
G1 X100.595 Y19.453 E86.67555
G1 X102.439 Y19.044 E86.7635
G1 X104.471 Y18.7 E86.85947
G1 X106.36 Y18.473 E86.94806
G1 X108.264 Y18.339 E87.03694
G1 X110.165 Y18.3 E87.12548
G1 X112.071 Y18.355 E87.21426
G1 X113.961 Y18.504 E87.30254
G1 X115.863 Y18.746 E87.39182
G1 X117.721 Y19.082 E87.47974
G1 X119.58 Y19.508 E87.56855
G1 X121.401 Y20.019 E87.65662
G1 X123.22 Y20.625 E87.74589
G1 X124.904 Y21.283 E87.83008
G1 X126.725 Y22.097 E87.92296
G1 X128.288 Y22.888 E88.00453
G1 X130.063 Y23.901 E88.09969
G1 X131.61 Y24.884 E88.18504
