;FLAVOR:Marlin
;TIME:7741
;Filament used: 12.3812m
;Layer height: 0.28
;MINX:10.798
;MINY:79.94
;MINZ:0.28
;MAXX:209.397
;MAXY:140.062
;MAXZ:22.32
;TARGET_MACHINE.NAME:Creality Ender-3 S1 Pro
;Generated with Cura_SteamEngine 5.6.0
M82 ;absolute extrusion mode
; Ender 3 S1 Pro Start G-code
M413 S0 ; Disable power loss recovery
G92 E0 ; Reset Extruder
; Prep surfaces before auto home for better accuracy
M140 S60.0
M104 S200.0
G28 X Y; always home X and Y
G28 O ; Home all untrusted axes
M420 S1 Z10 ; use bed leveling
G1 Z10.0 F3000 ; Move Z Axis up little to prevent scratching of Heat Bed
G1 X0 Y0

M190 S60.0
M109 S200.0

G1 X0.1 Y20 Z0.3 F5000.0 ; Move to start position
G1 X0.1 Y200.0 Z0.3 F1500.0 E15 ; Draw the first line
G1 X0.4 Y200.0 Z0.3 F5000.0 ; Move to side a little
G1 X0.4 Y20 Z0.3 F1500.0 E30 ; Draw the second line
G92 E0 ; Reset Extruder
G1 Z2.0 F3000 ; Move Z Axis up little to prevent scratching of Heat Bed
G1 X5 Y20 Z0.3 F5000.0 ; Move over to prevent blob squish
G92 E0
G92 E0
G1 F2400 E-0.8
;LAYER_COUNT:79
;LAYER:0
M107
M204 S2000
G1 F300 Z0.48
G0 F7500 X17.829 Y79.941 Z0.48
M204 S500
;TYPE:SKIRT
G1 F300 Z0.28
G1 F2400 E0
G1 F1500 X202.086 Y79.94 E8.57978
G1 X204.408 Y80.509 E8.6911
G1 X206.373 Y81.787 E8.80025
G1 X207.799 Y83.211 E8.89409
G1 X208.842 Y85.151 E8.99665
G1 X209.397 Y87.062 E9.08931
G1 X209.323 Y132.822 E11.22009
G1 X209.1 Y134.233 E11.28661
G1 X208.184 Y136.104 E11.38361
G1 X207.528 Y137.127 E11.4402
G1 X205.912 Y138.571 E11.54111
G1 X204.251 Y139.473 E11.62912
G1 X202.305 Y140.061 E11.72378
G1 X18.157 Y140.062 E20.29848
G1 X15.846 Y139.504 E20.40918
G1 X13.956 Y138.228 E20.51537
G1 X12.805 Y137.242 E20.58594
G1 X11.553 Y135.302 E20.69346
G1 X10.798 Y133.136 E20.80026
G1 X10.801 Y87.264 E22.93626
G1 X11.39 Y84.895 E23.04993
G1 X11.453 Y84.759 E23.05691
G1 X12.719 Y82.995 E23.15801
G1 X13.875 Y81.727 E23.23791
G1 X15.74 Y80.615 E23.33901
G1 X17.829 Y79.941 E23.44122
M204 S2000
G0 F7500 X17.893 Y80.341
M204 S500
G1 F1500 X202.036 Y80.34 E32.01569
G1 X204.249 Y80.882 E32.12179
G1 X206.118 Y82.098 E32.22561
G1 X207.476 Y83.454 E32.31497
G1 X208.469 Y85.301 E32.41262
G1 X208.997 Y87.119 E32.50077
G1 X208.928 Y132.759 E34.62596
G1 X208.714 Y134.11 E34.68966
G1 X207.847 Y135.888 E34.78176
G1 X207.22 Y136.865 E34.83582
G1 X205.681 Y138.241 E34.93195
G1 X204.095 Y139.102 E35.01598
G1 X202.245 Y139.661 E35.10597
G1 X18.205 Y139.662 E43.67564
G1 X16.009 Y139.132 E43.78084
G1 X14.216 Y137.924 E43.88151
G1 X13.109 Y136.976 E43.94937
G1 X11.916 Y135.127 E44.05183
G1 X11.198 Y133.067 E44.15342
G1 X11.201 Y87.313 E46.28391
G1 X11.778 Y84.992 E46.39528
G1 X13.015 Y83.264 E46.49423
G1 X14.13 Y82.041 E46.5713
G1 X15.906 Y80.982 E46.66758
G1 X17.893 Y80.341 E46.7648
M204 S2000
G0 F7500 X17.957 Y80.741
M204 S500
G1 F1500 X201.99 Y80.74 E55.33415
G1 X204.087 Y81.254 E55.43468
G1 X205.863 Y82.409 E55.53333
G1 X207.153 Y83.697 E55.61821
G1 X208.096 Y85.451 E55.71094
G1 X208.597 Y87.176 E55.79458
G1 X208.533 Y132.697 E57.91423
G1 X208.329 Y133.987 E57.97505
G1 X207.51 Y135.672 E58.06229
G1 X206.912 Y136.603 E58.11381
G1 X205.45 Y137.911 E58.20516
G1 X203.939 Y138.731 E58.28521
G1 X202.185 Y139.261 E58.37053
G1 X18.253 Y139.262 E66.93517
G1 X16.172 Y138.76 E67.03485
G1 X14.476 Y137.62 E67.13001
G1 X13.413 Y136.71 E67.19516
G1 X12.279 Y134.952 E67.29258
G1 X11.598 Y132.998 E67.38893
G1 X11.601 Y87.361 E69.51398
G1 X12.147 Y85.164 E69.61939
G1 X13.311 Y83.534 E69.71266
G1 X14.387 Y82.354 E69.78702
G1 X16.072 Y81.349 E69.87838
G1 X17.957 Y80.741 E69.9706
M204 S2000
G0 F7500 X18.021 Y81.141
M204 S500
G1 F1500 X201.944 Y81.14 E78.53483
G1 X203.925 Y81.626 E78.62981
G1 X205.608 Y82.72 E78.72328
G1 X206.83 Y83.94 E78.80368
G1 X207.723 Y85.601 E78.89149
G1 X208.197 Y87.233 E78.97063
G1 X208.138 Y132.634 E81.08469
G1 X207.943 Y133.865 E81.14272
G1 X207.15 Y135.497 E81.22721
G1 X206.605 Y136.341 E81.27399
G1 X205.219 Y137.581 E81.36059
G1 X203.783 Y138.36 E81.43666
G1 X202.125 Y138.861 E81.51731
G1 X18.301 Y138.862 E90.07693
G1 X16.335 Y138.388 E90.1711
G1 X14.736 Y137.316 E90.26074
G1 X13.717 Y136.444 E90.32319
G1 X12.642 Y134.777 E90.41555
G1 X11.998 Y132.929 E90.50668
G1 X12.001 Y87.41 E92.62623
G1 X12.517 Y85.335 E92.7258
G1 X13.607 Y83.804 E92.81331
G1 X14.644 Y82.667 E92.88496
G1 X16.238 Y81.716 E92.97139
G1 X18.021 Y81.141 E93.05863
M204 S2000
G0 F7500 X18.085 Y81.541
M204 S500
G1 F1500 X201.898 Y81.54 E101.61773
G1 X203.763 Y81.998 E101.70715
G1 X205.353 Y83.031 E101.79544
G1 X206.507 Y84.183 E101.87137
G1 X207.35 Y85.751 E101.95427
G1 X207.797 Y87.29 E102.02889
G1 X207.743 Y132.572 E104.13741
G1 X207.558 Y133.742 E104.19257
G1 X206.79 Y135.322 E104.27437
G1 X206.299 Y136.078 E104.31635
G1 X204.988 Y137.251 E104.39826
G1 X203.627 Y137.989 E104.47035
G1 X202.065 Y138.461 E104.54633
G1 X18.349 Y138.462 E113.10092
G1 X16.498 Y138.016 E113.18958
G1 X14.996 Y137.012 E113.2737
G1 X14.021 Y136.178 E113.33345
G1 X13.005 Y134.602 E113.42076
G1 X12.398 Y132.86 E113.50666
G1 X12.401 Y87.458 E115.62076
G1 X12.886 Y85.506 E115.71442
G1 X13.933 Y84.036 E115.79846
G1 X14.898 Y82.982 E115.865
G1 X16.405 Y82.083 E115.94671
G1 X18.085 Y81.541 E116.02891
M204 S2000
G0 F7500 X18.149 Y81.941
M204 S500
G1 F1500 X201.852 Y81.94 E124.58289
G1 X203.601 Y82.37 E124.66676
G1 X205.098 Y83.342 E124.74987
G1 X206.184 Y84.426 E124.82132
G1 X206.977 Y85.901 E124.89929
G1 X207.397 Y87.347 E124.96941
G1 X207.348 Y132.509 E127.07234
G1 X207.172 Y133.62 E127.12472
G1 X206.43 Y135.147 E127.20377
G1 X205.992 Y135.816 E127.24101
G1 X204.757 Y136.921 E127.31817
G1 X203.471 Y137.618 E127.38628
G1 X202.005 Y138.061 E127.4576
G1 X18.397 Y138.062 E136.00715
G1 X16.661 Y137.644 E136.0903
G1 X15.256 Y136.708 E136.16891
G1 X14.325 Y135.912 E136.22595
G1 X13.368 Y134.427 E136.30821
G1 X12.798 Y132.791 E136.38888
G1 X12.801 Y87.507 E138.49749
G1 X13.256 Y85.677 E138.5853
G1 X14.259 Y84.268 E138.66583
G1 X15.152 Y83.297 E138.72726
G1 X16.572 Y82.45 E138.80425
G1 X18.149 Y81.941 E138.88141
M204 S2000
G0 F7500 X18.213 Y82.341
M204 S500
G1 F1500 X201.805 Y82.34 E147.43023
G1 X203.44 Y82.742 E147.50863
G1 X204.843 Y83.653 E147.58652
G1 X205.861 Y84.669 E147.65349
G1 X206.604 Y86.051 E147.72655
G1 X206.997 Y87.404 E147.79216
G1 X206.953 Y132.446 E149.8895
G1 X206.786 Y133.498 E149.9391
G1 X206.07 Y134.972 E150.01541
G1 X205.687 Y135.552 E150.04777
G1 X204.525 Y136.592 E150.12039
G1 X203.317 Y137.246 E150.18435
G1 X201.945 Y137.661 E150.25109
G1 X18.445 Y137.662 E158.79562
G1 X16.822 Y137.271 E158.87336
G1 X15.516 Y136.404 E158.94635
G1 X14.629 Y135.646 E159.00068
G1 X13.731 Y134.252 E159.07789
G1 X13.198 Y132.722 E159.15334
G1 X13.201 Y87.556 E161.25646
G1 X13.626 Y85.848 E161.33841
G1 X14.585 Y84.5 E161.41544
G1 X15.405 Y83.612 E161.47173
G1 X16.738 Y82.817 E161.544
G1 X18.213 Y82.341 E161.61617
M204 S2000
G0 F7500 X18.277 Y82.741
M204 S500
G1 F1500 X201.758 Y82.74 E170.15981
G1 X203.279 Y83.114 E170.23274
G1 X204.588 Y83.964 E170.30542
G1 X205.538 Y84.912 E170.36791
G1 X206.231 Y86.201 E170.43606
G1 X206.597 Y87.461 E170.49716
G1 X206.558 Y132.383 E172.58891
G1 X206.4 Y133.377 E172.63578
G1 X205.736 Y134.752 E172.70688
G1 X205.382 Y135.288 E172.73679
G1 X204.294 Y136.261 E172.80476
G1 X203.161 Y136.875 E172.86476
G1 X201.885 Y137.261 E172.92684
G1 X18.493 Y137.262 E181.46634
G1 X16.984 Y136.898 E181.53862
G1 X15.776 Y136.1 E181.60603
G1 X14.933 Y135.38 E181.65765
G1 X14.094 Y134.077 E181.72982
G1 X13.598 Y132.653 E181.80003
G1 X13.601 Y87.605 E183.89765
G1 X13.996 Y86.019 E183.97376
G1 X14.911 Y84.732 E184.04729
G1 X15.658 Y83.927 E184.09843
G1 X16.904 Y83.184 E184.16598
G1 X18.277 Y82.741 E184.23316
M204 S2000
G0 F7500 X18.341 Y83.141
M204 S500
G1 F1500 X201.711 Y83.14 E192.77163
G1 X203.118 Y83.486 E192.8391
G1 X204.333 Y84.275 E192.90656
G1 X205.215 Y85.155 E192.96457
G1 X205.858 Y86.351 E193.0278
G1 X206.197 Y87.518 E193.08439
G1 X206.163 Y132.32 E195.17056
G1 X206.014 Y133.255 E195.21465
G1 X205.402 Y134.532 E195.28058
G1 X205.077 Y135.024 E195.30804
G1 X204.063 Y135.93 E195.37136
G1 X203.005 Y136.504 E195.42741
G1 X201.825 Y136.861 E195.48481
G1 X18.541 Y136.862 E204.01928
G1 X17.147 Y136.526 E204.08605
G1 X15.997 Y135.766 E204.15024
G1 X15.237 Y135.114 E204.19687
G1 X14.456 Y133.901 E204.26404
G1 X13.998 Y132.585 E204.32893
G1 X14.001 Y87.654 E206.4211
G1 X14.366 Y86.188 E206.49145
G1 X15.204 Y85.004 E206.55899
G1 X15.91 Y84.243 E206.60733
G1 X17.07 Y83.551 E206.67022
G1 X18.341 Y83.141 E206.73241
M204 S2000
G0 F7500 X18.405 Y83.541
M204 S500
G1 F1500 X201.664 Y83.54 E215.26572
G1 X202.957 Y83.858 E215.32772
G1 X204.081 Y84.588 E215.39013
G1 X204.891 Y85.396 E215.4434
G1 X205.485 Y86.501 E215.50182
G1 X205.797 Y87.575 E215.55389
G1 X205.768 Y132.257 E217.63448
G1 X205.628 Y133.135 E217.67588
G1 X205.068 Y134.312 E217.73657
G1 X204.771 Y134.762 E217.76168
G1 X203.835 Y135.598 E217.82011
G1 X202.849 Y136.133 E217.87235
G1 X201.765 Y136.461 E217.92508
G1 X18.589 Y136.462 E226.45453
G1 X17.31 Y136.154 E226.51578
G1 X16.218 Y135.432 E226.57674
G1 X15.54 Y134.847 E226.61844
G1 X14.82 Y133.728 E226.6804
G1 X14.398 Y132.516 E226.74016
G1 X14.401 Y87.703 E228.82684
G1 X14.736 Y86.359 E228.89134
G1 X15.531 Y85.235 E228.95544
G1 X16.164 Y84.557 E228.99863
G1 X17.233 Y83.919 E229.0566
G1 X18.405 Y83.541 E229.11394
M204 S2000
G0 F7500 X18.469 Y83.941
M204 S500
G1 F1500 X201.617 Y83.94 E237.64208
G1 X202.796 Y84.23 E237.69862
G1 X203.829 Y84.901 E237.75597
G1 X204.567 Y85.637 E237.80451
G1 X205.112 Y86.651 E237.85811
G1 X205.397 Y87.632 E237.90568
G1 X205.373 Y132.194 E239.98067
G1 X205.242 Y133.016 E240.01943
G1 X204.707 Y134.14 E240.0774
G1 X204.465 Y134.5 E240.09759
G1 X203.607 Y135.266 E240.15115
G1 X202.693 Y135.762 E240.19957
G1 X201.705 Y136.061 E240.24764
G1 X18.637 Y136.062 E248.77205
G1 X17.473 Y135.782 E248.8278
G1 X16.439 Y135.098 E248.88553
G1 X15.844 Y134.581 E248.92223
G1 X15.184 Y133.555 E248.97904
G1 X14.798 Y132.447 E249.03367
G1 X14.801 Y87.752 E251.11486
G1 X15.106 Y86.53 E251.17351
G1 X15.858 Y85.466 E251.23418
G1 X16.416 Y84.873 E251.27209
G1 X17.4 Y84.286 E251.32544
G1 X18.469 Y83.941 E251.37775
M204 S2000
G0 F7500 X18.533 Y84.341
M204 S500
G1 F1500 X201.57 Y84.34 E259.90072
G1 X202.635 Y84.602 E259.95179
G1 X203.577 Y85.214 E260.0041
G1 X204.243 Y85.878 E260.04789
G1 X204.739 Y86.801 E260.09668
G1 X204.997 Y87.689 E260.13974
G1 X204.978 Y132.131 E262.20914
G1 X204.856 Y132.896 E262.24521
G1 X204.375 Y133.917 E262.29777
G1 X204.16 Y134.237 E262.31572
G1 X203.379 Y134.934 E262.36446
G1 X202.537 Y135.391 E262.40907
G1 X201.645 Y135.661 E262.45247
G1 X18.685 Y135.662 E270.97185
G1 X17.634 Y135.409 E271.02219
G1 X16.702 Y134.796 E271.07413
G1 X16.149 Y134.315 E271.10826
G1 X15.547 Y133.38 E271.16004
G1 X15.198 Y132.378 E271.20945
G1 X15.201 Y87.801 E273.28514
G1 X15.476 Y86.701 E273.33794
G1 X16.185 Y85.697 E273.39517
G1 X16.669 Y85.188 E273.42787
G1 X17.566 Y84.653 E273.47651
G1 X18.533 Y84.341 E273.52382
M204 S2000
G0 F7500 X18.597 Y84.741
M204 S500
G1 F1500 X201.523 Y84.74 E282.04162
G1 X202.474 Y84.974 E282.08723
G1 X203.325 Y85.527 E282.13448
G1 X203.919 Y86.119 E282.17353
G1 X204.366 Y86.951 E282.21751
G1 X204.597 Y87.746 E282.25606
G1 X204.583 Y132.068 E284.31988
G1 X204.47 Y132.777 E284.35331
G1 X204.013 Y133.747 E284.40324
G1 X203.857 Y133.971 E284.41595
G1 X203.145 Y134.606 E284.46037
G1 X202.385 Y135.019 E284.50065
G1 X201.585 Y135.261 E284.53957
G1 X18.732 Y135.262 E293.05397
G1 X17.796 Y135.037 E293.0988
G1 X16.965 Y134.494 E293.14502
G1 X16.454 Y134.049 E293.17657
G1 X15.91 Y133.205 E293.22333
G1 X15.598 Y132.309 E293.26751
G1 X15.601 Y87.85 E295.3377
G1 X15.846 Y86.871 E295.3847
G1 X16.475 Y85.973 E295.43575
G1 X16.923 Y85.502 E295.46602
G1 X17.729 Y85.021 E295.50972
G1 X18.597 Y84.741 E295.55219
M204 S2000
G0 F7500 X18.661 Y85.141
M204 S500
G1 F1500 X201.476 Y85.14 E304.06482
G1 X202.313 Y85.346 E304.10496
G1 X203.073 Y85.84 E304.14717
G1 X203.595 Y86.36 E304.18148
G1 X203.993 Y87.101 E304.22064
G1 X204.197 Y87.803 E304.25468
G1 X204.188 Y132.005 E306.31291
G1 X204.084 Y132.658 E306.3437
G1 X203.651 Y133.577 E306.39101
G1 X203.555 Y133.705 E306.39846
G1 X202.914 Y134.277 E306.43846
G1 X202.233 Y134.647 E306.47455
G1 X201.525 Y134.861 E306.50899
G1 X18.78 Y134.862 E315.01836
G1 X17.957 Y134.664 E315.05778
G1 X17.184 Y134.159 E315.10077
G1 X16.76 Y133.786 E315.12707
G1 X16.273 Y133.03 E315.16894
G1 X15.998 Y132.24 E315.20789
G1 X16.001 Y87.899 E317.2726
G1 X16.216 Y87.039 E317.31387
G1 X16.765 Y86.249 E317.35867
G1 X17.175 Y85.818 E317.38637
G1 X17.896 Y85.388 E317.42546
G1 X18.661 Y85.141 E317.46289
M204 S2000
G0 F7500 X18.725 Y85.541
M204 S500
G1 F1500 X201.429 Y85.54 E325.97036
G1 X202.152 Y85.718 E326.00503
G1 X202.821 Y86.153 E326.04218
G1 X203.271 Y86.601 E326.07175
G1 X203.62 Y87.251 E326.10611
G1 X203.797 Y87.86 E326.13564
G1 X203.793 Y131.942 E328.18828
G1 X203.698 Y132.539 E328.21643
G1 X203.289 Y133.407 E328.26111
G1 X202.683 Y133.948 E328.29893
G1 X202.081 Y134.275 E328.33083
G1 X201.465 Y134.461 E328.3608
G1 X18.828 Y134.462 E336.86514
G1 X18.118 Y134.291 E336.89915
G1 X17.403 Y133.824 E336.93891
G1 X17.064 Y133.521 E336.96008
G1 X16.636 Y132.856 E336.99691
G1 X16.398 Y132.172 E337.03063
G1 X16.401 Y87.948 E339.08989
G1 X16.586 Y87.206 E339.12549
G1 X17.055 Y86.525 E339.164
G1 X17.427 Y86.134 E339.18913
G1 X18.063 Y85.755 E339.2236
G1 X18.725 Y85.541 E339.256
M204 S2000
G0 F7500 X18.789 Y85.941
M204 S500
G1 F1500 X201.382 Y85.94 E347.75829
G1 X201.991 Y86.09 E347.7875
G1 X202.566 Y86.464 E347.81944
G1 X202.948 Y86.844 E347.84453
G1 X203.247 Y87.401 E347.87396
G1 X203.397 Y87.917 E347.89899
G1 X203.398 Y131.879 E349.94604
G1 X203.312 Y132.419 E349.9715
G1 X202.961 Y133.163 E350.00981
G1 X202.452 Y133.618 E350.0416
G1 X201.925 Y133.904 E350.06952
G1 X201.405 Y134.061 E350.09481
G1 X18.876 Y134.062 E358.59413
G1 X18.279 Y133.918 E358.62272
G1 X17.622 Y133.489 E358.65926
G1 X17.37 Y133.258 E358.67518
G1 X17 Y132.683 E358.70702
G1 X16.798 Y132.103 E358.73561
G1 X16.801 Y87.997 E360.78937
G1 X16.956 Y87.374 E360.81927
G1 X17.345 Y86.801 E360.85152
G1 X17.679 Y86.45 E360.87408
G1 X18.23 Y86.122 E360.90394
G1 X18.789 Y85.941 E360.9313
M204 S2000
G0 F7500 X18.85 Y86.341
M204 S500
G1 F1500 X201.335 Y86.34 E369.42856
G1 X201.83 Y86.462 E369.4523
G1 X202.311 Y86.775 E369.47902
G1 X202.623 Y87.085 E369.4995
G1 X202.875 Y87.555 E369.52434
G1 X202.997 Y87.974 E369.54466
G1 X202.998 Y131.879 E371.58906
G1 X202.927 Y132.297 E371.6088
G1 X202.633 Y132.919 E371.64083
G1 X202.221 Y133.288 E371.66659
G1 X201.769 Y133.533 E371.69053
G1 X201.345 Y133.661 E371.71115
G1 X18.924 Y133.662 E380.20544
G1 X18.438 Y133.545 E380.22871
G1 X17.892 Y133.194 E380.25894
G1 X17.679 Y132.999 E380.27239
G1 X17.363 Y132.507 E380.29961
G1 X17.198 Y132.034 E380.32294
G1 X17.201 Y88.045 E382.37125
G1 X17.326 Y87.541 E382.39543
G1 X17.635 Y87.077 E382.42139
G1 X17.931 Y86.766 E382.44138
G1 X18.4 Y86.487 E382.46679
G1 X18.85 Y86.341 E382.48882
M204 S2000
G0 F7500 X18.912 Y86.741
M204 S500
G1 F1500 X201.288 Y86.74 E390.98101
G1 X201.669 Y86.834 E390.99929
G1 X202.056 Y87.086 E391.02079
G1 X202.298 Y87.326 E391.03666
G1 X202.503 Y87.709 E391.05689
G1 X202.597 Y88.031 E391.07251
G1 X202.598 Y131.879 E393.11425
G1 X202.542 Y132.174 E393.12824
G1 X202.305 Y132.675 E393.15404
G1 X201.99 Y132.958 E393.17376
G1 X201.612 Y133.163 E393.19378
G1 X201.286 Y133.261 E393.20964
G1 X18.971 Y133.262 E401.69899
G1 X18.596 Y133.172 E401.71694
G1 X18.108 Y132.858 E401.74396
G1 X17.988 Y132.739 E401.75183
G1 X17.726 Y132.332 E401.77437
G1 X17.598 Y131.965 E401.79247
G1 X17.601 Y88.093 E403.83533
G1 X17.697 Y87.706 E403.8539
G1 X17.968 Y87.299 E403.87667
G1 X18.181 Y87.082 E403.89083
G1 X18.567 Y86.853 E403.91173
G1 X18.912 Y86.741 E403.92862
M204 S2000
G0 F7500 X18.975 Y87.541
M204 S500
G1 F1500 X201.288 Y87.54 E412.41787
G1 X201.62 Y87.756 E412.43632
G1 X201.797 Y88.087 E412.4538
G1 X201.798 Y131.879 E414.49293
G1 X201.651 Y132.189 E414.50891
G1 X201.565 Y132.279 E414.51471
G1 X201.23 Y132.461 E414.53246
G1 X18.971 Y132.462 E423.0192
G1 X18.613 Y132.232 E423.03901
