;FLAVOR:Marlin
;TIME:1052
;Filament used: 1.41157m
;Layer height: 0.28
;MINX:87.08
;MINY:82.08
;MINZ:0.28
;MAXX:132.92
;MAXY:137.92
;MAXZ:3.28
;Generated with Cura_SteamEngine 5.4.0
M82 ;absolute extrusion mode
; Ender 3 S1 Pro Start G-code
M413 S0 ; Disable power loss recovery
G92 E0 ; Reset Extruder
; Prep surfaces before auto home for better accuracy
M140 S85.0
M104 S245.0

G28 O ; Home all untrusted axes
M420 S1 Z10 ; use bed leveling
G1 Z10.0 F3000 ; Move Z Axis up little to prevent scratching of Heat Bed
G1 X0 Y0

M190 S85.0
M109 S245.0

G1 X0.1 Y20 Z0.3 F5000.0 ; Move to start position
G1 X0.1 Y200.0 Z0.3 F1500.0 E15 ; Draw the first line
G1 X0.4 Y200.0 Z0.3 F5000.0 ; Move to side a little
G1 X0.4 Y20 Z0.3 F1500.0 E30 ; Draw the second line
G92 E0 ; Reset Extruder
G1 Z2.0 F3000 ; Move Z Axis up little to prevent scratching of Heat Bed
G1 X5 Y20 Z0.3 F5000.0 ; Move over to prevent blob squish
G92 E0
G92 E0
G1 F2400 E-0.8
;LAYER_COUNT:11
;LAYER:0
M107
M204 S2000
G1 F300 Z0.48
G0 F7200 X89.778 Y84.568 Z0.48
M204 S500
;TYPE:SKIRT
G1 F300 Z0.28
G1 F2400 E0
G1 F1500 X90.372 Y83.993 E0.04619
G1 X92.237 Y82.872 E0.16778
G1 X94.5 Y82.08 E0.30175
G1 X125.504 Y82.08 E2.03416
G1 X128.024 Y82.962 E2.18335
G1 X128.48 Y83.188 E2.21179
G1 X130.501 Y84.846 E2.35785
G1 X131.037 Y85.41 E2.40133
G1 X132.108 Y87.179 E2.51688
G1 X132.92 Y89.5 E2.65428
G1 X132.92 Y130.798 E4.96189
G1 X132.534 Y132.477 E5.05815
G1 X132.191 Y133.454 E5.11601
G1 X131.169 Y134.939 E5.21674
G1 X130.298 Y135.954 E5.29147
G1 X128.373 Y137.251 E5.42118
G1 X126.16 Y137.92 E5.55036
G1 X94.202 Y137.92 E7.33608
G1 X92.523 Y137.534 E7.43234
G1 X91.546 Y137.191 E7.4902
G1 X90.061 Y136.169 E7.59093
G1 X89.046 Y135.298 E7.66566
G1 X87.749 Y133.373 E7.79536
G1 X87.08 Y131.16 E7.92455
G1 X87.08 Y89.499 E10.25244
G1 X87.987 Y86.908 E10.40583
G1 X88.199 Y86.513 E10.43088
G1 X89.778 Y84.568 E10.57087
M204 S2000
G0 F7200 X90.151 Y84.87
M204 S500
G1 F1500 X90.666 Y84.376 E10.61074
G1 X92.439 Y83.31 E10.72634
G1 X94.582 Y82.56 E10.8532
G1 X125.422 Y82.56 E12.57645
G1 X127.865 Y83.415 E12.72108
G1 X128.219 Y83.594 E12.74324
G1 X130.153 Y85.177 E12.88289
G1 X130.652 Y85.702 E12.92337
G1 X131.672 Y87.387 E13.03343
G1 X132.44 Y89.582 E13.16337
G1 X132.44 Y130.743 E15.46332
G1 X132.081 Y132.318 E15.55359
G1 X131.759 Y133.235 E15.60789
G1 X130.805 Y134.626 E15.70214
G1 X129.975 Y135.593 E15.77335
G1 X128.164 Y136.813 E15.89536
G1 X126.09 Y137.44 E16.01643
G1 X94.257 Y137.44 E17.79516
G1 X92.682 Y137.081 E17.88543
G1 X91.765 Y136.759 E17.93973
G1 X90.374 Y135.805 E18.03398
G1 X89.407 Y134.975 E18.10519
G1 X88.187 Y133.164 E18.2272
G1 X87.56 Y131.09 E18.34827
G1 X87.56 Y89.581 E20.66767
G1 X88.44 Y87.067 E20.8165
G1 X88.6 Y86.781 E20.83481
G1 X90.151 Y84.87 E20.97234
M204 S2000
G0 F7200 X90.524 Y85.172
M204 S500
G1 F1500 X90.959 Y84.759 E21.00586
G1 X92.641 Y83.748 E21.11551
G1 X94.664 Y83.04 E21.23527
G1 X125.34 Y83.04 E22.94936
G1 X127.706 Y83.868 E23.08942
G1 X127.956 Y83.999 E23.1052
G1 X129.805 Y85.508 E23.23855
G1 X130.267 Y85.994 E23.27602
G1 X131.236 Y87.595 E23.38059
G1 X131.96 Y89.664 E23.50307
G1 X131.96 Y130.689 E25.79543
G1 X131.613 Y132.211 E25.88265
G1 X131.327 Y133.016 E25.93039
G1 X130.441 Y134.313 E26.01816
G1 X129.652 Y135.232 E26.08584
G1 X127.955 Y136.375 E26.20016
G1 X126.02 Y136.96 E26.31312
G1 X94.311 Y136.96 E28.08492
G1 X92.789 Y136.613 E28.17215
G1 X91.984 Y136.327 E28.21989
G1 X90.687 Y135.441 E28.30765
G1 X89.768 Y134.652 E28.37533
G1 X88.625 Y132.955 E28.48966
G1 X88.04 Y131.02 E28.60262
G1 X88.04 Y89.663 E30.91352
G1 X88.893 Y87.226 E31.0578
G1 X88.973 Y87.083 E31.06695
G1 X90.524 Y85.172 E31.20448
M204 S2000
G0 F7200 X90.855 Y85.52
M204 S500
G1 F1500 X91.254 Y85.141 E31.23523
G1 X92.843 Y84.186 E31.33882
G1 X94.746 Y83.52 E31.45147
G1 X125.258 Y83.52 E33.15639
G1 X127.547 Y84.321 E33.2919
G1 X127.69 Y84.401 E33.30106
G1 X129.457 Y85.839 E33.42836
G1 X129.882 Y86.286 E33.46282
G1 X130.801 Y87.804 E33.56197
G1 X131.48 Y89.745 E33.67688
G1 X131.48 Y130.636 E35.96174
G1 X131.161 Y132.05 E36.04274
G1 X130.896 Y132.796 E36.08698
G1 X130.077 Y134 E36.16834
G1 X129.329 Y134.871 E36.23249
G1 X127.746 Y135.937 E36.33913
G1 X125.95 Y136.48 E36.44397
G1 X94.364 Y136.48 E38.20891
G1 X92.95 Y136.161 E38.2899
G1 X92.204 Y135.896 E38.33414
G1 X91 Y135.077 E38.4155
G1 X90.129 Y134.329 E38.47966
G1 X89.063 Y132.746 E38.5863
G1 X88.52 Y130.95 E38.69114
G1 X88.52 Y89.745 E40.99355
G1 X89.346 Y87.385 E41.13326
G1 X90.855 Y85.52 E41.26731
M204 S2000
G0 F7200 X91.186 Y85.868
M204 S500
G1 F1500 X91.549 Y85.523 E41.2953
G1 X93.045 Y84.624 E41.39282
G1 X94.828 Y84 E41.49838
G1 X125.176 Y84 E43.19413
G1 X127.388 Y84.774 E43.32508
G1 X129.109 Y86.17 E43.4489
G1 X129.497 Y86.578 E43.48036
G1 X130.365 Y88.012 E43.57403
G1 X131 Y89.827 E43.68147
G1 X131 Y130.585 E45.95891
G1 X130.709 Y131.89 E46.03362
G1 X130.466 Y132.575 E46.07423
G1 X129.68 Y133.73 E46.1523
G1 X129.009 Y134.508 E46.2097
G1 X127.537 Y135.499 E46.30886
G1 X125.88 Y136 E46.40558
G1 X94.415 Y136 E48.16376
G1 X93.11 Y135.709 E48.23847
G1 X92.425 Y135.466 E48.27908
G1 X91.27 Y134.68 E48.35714
G1 X90.492 Y134.009 E48.41455
G1 X89.501 Y132.537 E48.5137
G1 X89 Y130.88 E48.61043
G1 X89 Y89.827 E50.90435
G1 X89.772 Y87.622 E51.03489
G1 X91.186 Y85.868 E51.16078
M204 S2000
G0 F7200 X91.56 Y86.169
M204 S500
G1 F1500 X91.842 Y85.906 E51.18233
G1 X93.247 Y85.062 E51.27391
G1 X94.91 Y84.48 E51.37236
G1 X125.094 Y84.48 E53.05895
G1 X127.151 Y85.2 E53.18073
G1 X128.761 Y86.501 E53.29639
G1 X129.112 Y86.87 E53.32485
G1 X129.929 Y88.22 E53.41302
G1 X130.52 Y89.909 E53.51301
G1 X130.52 Y130.531 E55.78285
G1 X130.257 Y131.729 E55.85138
G1 X130.034 Y132.357 E55.88862
G1 X129.317 Y133.416 E55.96008
G1 X128.687 Y134.146 E56.01396
G1 X127.328 Y135.061 E56.1055
G1 X125.81 Y135.52 E56.19412
G1 X94.469 Y135.52 E57.94536
G1 X93.271 Y135.257 E58.0139
G1 X92.643 Y135.034 E58.05113
G1 X91.584 Y134.317 E58.12259
G1 X90.854 Y133.687 E58.17647
G1 X89.939 Y132.328 E58.26802
G1 X89.48 Y130.81 E58.35663
G1 X89.48 Y89.909 E60.64206
G1 X90.198 Y87.859 E60.76343
G1 X91.56 Y86.169 E60.88471
M204 S2000
G0 F7200 X91.887 Y86.52
M204 S500
G1 F1500 X92.133 Y86.291 E60.90349
G1 X93.449 Y85.5 E60.98929
G1 X94.992 Y84.96 E61.08063
G1 X125.012 Y84.96 E62.75806
G1 X126.914 Y85.626 E62.87067
G1 X128.413 Y86.832 E62.97817
G1 X128.729 Y87.164 E63.00378
G1 X129.492 Y88.425 E63.08613
G1 X130.04 Y89.991 E63.17884
G1 X130.04 Y130.478 E65.44113
G1 X129.788 Y131.626 E65.50681
G1 X129.603 Y132.138 E65.53723
G1 X128.954 Y133.102 E65.60216
G1 X128.365 Y133.784 E65.65252
G1 X127.119 Y134.623 E65.73645
G1 X125.74 Y135.04 E65.81695
G1 X94.522 Y135.04 E67.56132
G1 X93.374 Y134.788 E67.62699
G1 X92.862 Y134.603 E67.65741
G1 X91.898 Y133.954 E67.72235
G1 X91.216 Y133.365 E67.7727
G1 X90.377 Y132.119 E67.85664
G1 X89.96 Y130.74 E67.93714
G1 X89.96 Y89.991 E70.21407
G1 X90.624 Y88.094 E70.32637
G1 X91.887 Y86.52 E70.43914
M204 S2000
G0 F7200 X92.214 Y86.872
M204 S500
G1 F1500 X92.427 Y86.674 E70.45539
G1 X93.651 Y85.938 E70.53519
G1 X95.074 Y85.44 E70.61944
G1 X124.93 Y85.44 E72.2877
G1 X126.677 Y86.052 E72.39113
G1 X128.112 Y87.206 E72.49403
G1 X128.345 Y87.456 E72.51313
G1 X129.055 Y88.63 E72.58979
G1 X129.56 Y90.073 E72.67521
G1 X129.56 Y130.425 E74.92996
G1 X129.319 Y131.523 E74.99278
G1 X129.172 Y131.919 E75.01638
G1 X128.591 Y132.788 E75.07479
G1 X128.043 Y133.422 E75.12162
G1 X126.91 Y134.185 E75.19794
G1 X125.67 Y134.56 E75.27033
G1 X94.575 Y134.56 E77.00782
G1 X93.477 Y134.319 E77.07064
G1 X93.081 Y134.172 E77.09424
G1 X92.212 Y133.591 E77.15265
G1 X91.578 Y133.043 E77.19948
G1 X90.815 Y131.91 E77.2758
G1 X90.44 Y130.67 E77.34819
G1 X90.44 Y90.072 E79.61668
G1 X91.049 Y88.331 E79.71975
G1 X92.214 Y86.872 E79.82407
M204 S2000
G0 F7200 X92.589 Y87.171
M204 S500
G1 F1500 X92.717 Y87.059 E79.83358
G1 X93.853 Y86.376 E79.90764
G1 X95.156 Y85.92 E79.98478
G1 X124.848 Y85.92 E81.64388
G1 X126.44 Y86.478 E81.73814
G1 X127.76 Y87.533 E81.83256
G1 X127.959 Y87.747 E81.84889
G1 X128.62 Y88.839 E81.92022
G1 X129.08 Y90.154 E81.99806
G1 X129.08 Y130.372 E84.24532
G1 X128.85 Y131.42 E84.30528
G1 X128.742 Y131.698 E84.32194
G1 X128.228 Y132.474 E84.37395
G1 X127.721 Y133.06 E84.41725
G1 X126.701 Y133.747 E84.48597
G1 X125.6 Y134.08 E84.55024
G1 X94.628 Y134.08 E86.28086
G1 X93.58 Y133.85 E86.34081
G1 X93.302 Y133.742 E86.35748
G1 X92.526 Y133.228 E86.40949
G1 X91.94 Y132.721 E86.45279
G1 X91.253 Y131.701 E86.5215
G1 X90.92 Y130.6 E86.58578
G1 X90.92 Y90.154 E88.84578
G1 X91.476 Y88.565 E88.93985
G1 X92.589 Y87.171 E89.03952
M204 S2000
G0 F7200 X92.964 Y87.47
M204 S500
G1 F1500 X94.055 Y86.814 E89.11065
G1 X95.238 Y86.4 E89.18069
G1 X124.766 Y86.4 E90.83062
G1 X126.204 Y86.904 E90.91577
G1 X127.46 Y87.908 E91.00562
G1 X127.571 Y88.034 E91.015
G1 X128.184 Y89.047 E91.08116
G1 X128.6 Y90.236 E91.15155
G1 X128.6 Y130.319 E93.39127
G1 X128.381 Y131.317 E93.44836
G1 X128.313 Y131.477 E93.45807
G1 X127.828 Y132.209 E93.50714
G1 X127.4 Y132.698 E93.54345
G1 X126.492 Y133.309 E93.6046
G1 X125.53 Y133.6 E93.66076
G1 X94.681 Y133.6 E95.38451
G1 X93.683 Y133.381 E95.4416
G1 X93.523 Y133.313 E95.45132
G1 X92.791 Y132.828 E95.50038
G1 X92.302 Y132.4 E95.5367
G1 X91.691 Y131.492 E95.59785
G1 X91.4 Y130.53 E95.65401
G1 X91.4 Y90.236 E97.90552
G1 X91.903 Y88.799 E97.99059
G1 X92.964 Y87.47 E98.08561
M204 S2000
G0 F7200 X93.286 Y87.837
M204 S500
G1 F1500 X94.261 Y87.25 E98.1492
G1 X95.319 Y86.88 E98.21183
G1 X124.684 Y86.88 E99.85266
G1 X125.968 Y87.33 E99.92869
G1 X127.16 Y88.283 E100.01396
G1 X127.749 Y89.256 E100.07752
G1 X128.12 Y90.317 E100.14032
G1 X128.12 Y130.266 E102.37255
G1 X127.912 Y131.214 E102.42678
G1 X127.467 Y131.893 E102.47215
G1 X127.08 Y132.335 E102.50497
G1 X126.283 Y132.871 E102.55864
G1 X125.46 Y133.12 E102.60669
G1 X94.734 Y133.12 E104.32356
G1 X93.786 Y132.912 E104.3778
G1 X93.107 Y132.467 E104.42316
G1 X92.665 Y132.08 E104.45599
G1 X92.129 Y131.283 E104.50965
G1 X91.88 Y130.46 E104.5577
G1 X91.88 Y90.318 E106.80071
G1 X92.329 Y89.035 E106.87667
G1 X93.286 Y87.837 E106.96235
M204 S2000
G0 F7200 X93.609 Y88.202
M204 S500
G1 F1500 X94.465 Y87.687 E107.01817
G1 X95.4 Y87.36 E107.07351
G1 X124.602 Y87.36 E108.70523
G1 X125.732 Y87.756 E108.77214
G1 X126.794 Y88.605 E108.84811
G1 X127.313 Y89.463 E108.90414
G1 X127.64 Y90.398 E108.95949
G1 X127.64 Y130.213 E111.18424
G1 X127.462 Y131.024 E111.23063
G1 X127.065 Y131.63 E111.27111
G1 X126.759 Y131.972 E111.29675
G1 X126.074 Y132.433 E111.34289
G1 X125.39 Y132.64 E111.38282
G1 X94.787 Y132.64 E113.09283
G1 X93.976 Y132.462 E113.13922
G1 X93.37 Y132.065 E113.1797
G1 X93.028 Y131.759 E113.20535
G1 X92.567 Y131.074 E113.25148
G1 X92.36 Y130.39 E113.29141
G1 X92.36 Y90.4 E115.52594
G1 X92.755 Y89.271 E115.59277
G1 X93.609 Y88.202 E115.66922
M204 S2000
G0 F7200 X93.93 Y88.568
M204 S500
G1 F1500 X94.669 Y88.124 E115.7174
G1 X95.481 Y87.84 E115.76546
G1 X124.52 Y87.84 E117.38808
G1 X125.496 Y88.182 E117.44586
G1 X126.428 Y88.927 E117.51254
G1 X126.877 Y89.67 E117.56104
G1 X127.16 Y90.479 E117.60893
G1 X127.16 Y130.16 E119.82619
G1 X127.012 Y130.834 E119.86475
G1 X126.663 Y131.367 E119.90035
G1 X126.442 Y131.607 E119.91858
G1 X125.865 Y131.995 E119.95743
G1 X125.32 Y132.16 E119.98925
G1 X94.84 Y132.16 E121.69238
G1 X94.166 Y132.012 E121.73094
G1 X93.633 Y131.663 E121.76654
G1 X93.393 Y131.442 E121.78477
G1 X93.005 Y130.865 E121.82362
G1 X92.84 Y130.32 E121.85544
G1 X92.84 Y90.482 E124.08147
G1 X93.182 Y89.505 E124.13931
G1 X93.93 Y88.568 E124.2063
M204 S2000
G0 F7200 X94.252 Y88.935
M204 S500
G1 F1500 X94.875 Y88.56 E124.24693
G1 X95.562 Y88.32 E124.28759
G1 X124.438 Y88.32 E125.9011
G1 X125.26 Y88.608 E125.94977
G1 X126.062 Y89.249 E126.00714
G1 X126.44 Y89.875 E126.048
G1 X126.68 Y90.561 E126.08861
G1 X126.68 Y130.107 E128.29832
G1 X126.562 Y130.644 E128.32904
G1 X126.261 Y131.104 E128.35976
G1 X126.127 Y131.24 E128.37043
G1 X125.656 Y131.557 E128.40215
G1 X125.25 Y131.68 E128.42586
G1 X94.893 Y131.68 E130.12211
G1 X94.356 Y131.562 E130.15284
G1 X93.896 Y131.261 E130.18355
G1 X93.76 Y131.127 E130.19422
G1 X93.443 Y130.656 E130.22595
G1 X93.32 Y130.25 E130.24965
G1 X93.32 Y90.564 E132.46719
G1 X93.608 Y89.741 E132.51591
G1 X94.252 Y88.935 E132.57355
M204 S2000
G0 F7200 X94.573 Y89.301
M204 S500
G1 F1500 X95.079 Y88.997 E132.60654
G1 X95.643 Y88.8 E132.63992
G1 X124.356 Y88.8 E134.24432
G1 X125.024 Y89.034 E134.28387
G1 X125.696 Y89.571 E134.33193
G1 X126.003 Y90.08 E134.36515
G1 X126.2 Y90.643 E134.39848
G1 X126.2 Y130.053 E136.60059
G1 X126.111 Y130.456 E136.62365
G1 X125.859 Y130.842 E136.64941
G1 X125.447 Y131.119 E136.67715
G1 X125.18 Y131.2 E136.69274
G1 X94.947 Y131.2 E138.38207
G1 X94.544 Y131.111 E138.40513
G1 X94.158 Y130.859 E138.43089
G1 X93.881 Y130.447 E138.45863
G1 X93.8 Y130.18 E138.47422
G1 X93.8 Y90.646 E140.68326
G1 X94.035 Y89.975 E140.72299
G1 X94.573 Y89.301 E140.77118
M204 S2000
G0 F7200 X95.216 Y90.035
M204 S500
G1 F1500 X95.487 Y89.872 E140.78885
G1 X95.807 Y89.76 E140.80779
G1 X124.193 Y89.76 E142.39392
G1 X124.551 Y89.885 E142.41511
G1 X124.965 Y90.216 E142.44472
G1 X125.128 Y90.487 E142.46239
G1 X125.24 Y90.807 E142.48134
G1 X125.24 Y130 E144.67133
G1 X125.201 Y130.131 E144.67896
G1 X125.072 Y130.24 E144.6884
G1 X95 Y130.24 E146.36874
G1 X94.869 Y130.201 E146.37637
G1 X94.76 Y130.072 E146.38581
G1 X94.76 Y90.81 E148.57965
G1 X94.888 Y90.445 E148.60127
G1 X95.216 Y90.035 E148.6306
M204 S2000
G0 F7200 X94.893 Y89.669
M204 S500
G1 F1500 X95.285 Y89.434 E148.65614
G1 X95.725 Y89.28 E148.68219
G1 X124.274 Y89.28 E150.27742
G1 X124.788 Y89.46 E150.30786
G1 X125.33 Y89.893 E150.34662
G1 X125.566 Y90.285 E150.37219
G1 X125.72 Y90.725 E150.39823
G1 X125.72 Y130 E152.5928
G1 X125.661 Y130.268 E152.60814
G1 X125.511 Y130.498 E152.62348
G1 X125.18 Y130.72 E152.64575
G1 X95 Y130.72 E154.33212
G1 X94.732 Y130.661 E154.34745
G1 X94.502 Y130.511 E154.3628
G1 X94.28 Y130.18 E154.38507
G1 X94.28 Y90.728 E156.58953
G1 X94.462 Y90.209 E156.62026
G1 X94.893 Y89.669 E156.65886
M204 S2000
G1 F2400 E155.85886
G1 F300 Z0.48
;MESH:cemont-top.stl
G0 F7200 X96.206 Y92.283 Z0.48
M204 S500
;TYPE:WALL-INNER
G1 F300 Z0.28
G1 F2400 E156.65886
G1 F1460.4 X96.431 Y91.852 E156.68677
G1 X96.669 Y91.583 E156.70738
G1 X97.146 Y91.254 E156.74064
G1 X97.275 Y91.206 E156.74854
G1 X96.207 Y91.207 E156.80983
G1 X96.206 Y92.283 E156.87158
M204 S2000
G1 F2400 E156.07158
G1 F300 Z0.48
G0 F7200 X124.28 Y129.28 Z0.48
M204 S500
G1 F300 Z0.28
G1 F2400 E156.87158
G1 F1478.4 X124.273 Y127.629 E156.96518
G1 F1254.4 X124.194 Y127.195 E156.99466
G1 F1095.9 X124.19 Y126.729 E157.0303
G1 F1214.2 X124.258 Y126.371 E157.05545
G1 F1434.3 X124.28 Y125.767 E157.09077
G1 F1500 X124.28 Y94.233 E158.8528
G1 F1478.4 X124.273 Y93.629 E158.88704
G1 F1254.4 X124.194 Y93.195 E158.91652
G1 F1095.9 X124.19 Y92.729 E158.95216
G1 F1214.2 X124.258 Y92.371 E158.97732
G1 F1434.3 X124.28 Y91.767 E159.01264
G1 F1500 X124.28 Y90.973 E159.057
G1 X124.237 Y90.865 E159.0635
G1 X124.027 Y90.721 E159.07773
G1 X122.862 Y90.72 E159.14282
G1 F1466.4 X122.5 Y90.731 E159.16352
G1 F1252.2 X122.088 Y90.804 E159.19153
G1 F1104.3 X121.716 Y90.807 E159.21977
G1 F1168.8 X121.5 Y90.768 E159.23551
G1 F1363.6 X121.138 Y90.72 E159.25795
G1 F1500 X98.862 Y90.72 E160.50267
G1 F1466.4 X98.5 Y90.731 E160.52337
G1 F1252.2 X98.088 Y90.804 E160.55137
G1 F1104.3 X97.716 Y90.807 E160.57961
G1 F1168.8 X97.5 Y90.768 E160.59535
G1 F1363.6 X97.138 Y90.72 E160.61779
G1 F1500 X95.973 Y90.72 E160.68289
G1 X95.865 Y90.763 E160.68939
G1 X95.721 Y90.973 E160.70362
G1 X95.72 Y91.767 E160.74798
G1 F1434.3 X95.742 Y92.371 E160.7833
G1 F1214.2 X95.81 Y92.729 E160.80846
G1 F1095.9 X95.806 Y93.195 E160.8441
G1 F1254.4 X95.727 Y93.629 E160.87357
G1 F1478.4 X95.72 Y94.233 E160.90782
G1 F1500 X95.72 Y125.767 E162.66984
G1 F1434.3 X95.742 Y126.371 E162.70516
G1 F1214.2 X95.81 Y126.729 E162.73032
G1 F1095.9 X95.806 Y127.195 E162.76596
G1 F1254.4 X95.727 Y127.629 E162.79544
G1 F1478.4 X95.721 Y129.279 E162.88898
G1 F1500 X97.138 Y129.28 E162.96816
G1 F1466.4 X97.5 Y129.269 E162.98886
G1 F1252.2 X97.912 Y129.196 E163.01687
