;FLAVOR:Marlin
;TIME:2780
;Filament used: 3.46807m
;Layer height: 0.28
;MINX:87.581
;MINY:78.975
;MINZ:0.28
;MAXX:132.419
;MAXY:141.037
;MAXZ:13.08
;Generated with Cura_SteamEngine 5.4.0
M82 ;absolute extrusion mode
; Ender 3 S1 Pro Start G-code
M413 S0 ; Disable power loss recovery
G92 E0 ; Reset Extruder
; Prep surfaces before auto home for better accuracy
M140 S85.0
M104 S245.0

G28 O ; Home all untrusted axes
M420 S1 Z10 ; use bed leveling
G1 Z10.0 F3000 ; Move Z Axis up little to prevent scratching of Heat Bed
G1 X0 Y0

M190 S85.0
M109 S245.0

G1 X0.1 Y20 Z0.3 F5000.0 ; Move to start position
G1 X0.1 Y200.0 Z0.3 F1500.0 E15 ; Draw the first line
G1 X0.4 Y200.0 Z0.3 F5000.0 ; Move to side a little
G1 X0.4 Y20 Z0.3 F1500.0 E30 ; Draw the second line
G92 E0 ; Reset Extruder
G1 Z2.0 F3000 ; Move Z Axis up little to prevent scratching of Heat Bed
G1 X5 Y20 Z0.3 F5000.0 ; Move over to prevent blob squish
G92 E0
G92 E0
G1 F2400 E-0.8
;LAYER_COUNT:46
;LAYER:0
M107
M204 S2000
G1 F300 Z0.48
G0 F7200 X89.982 Y85.069 Z0.48
M204 S500
;TYPE:SKIRT
G1 F300 Z0.28
G1 F2400 E0
G1 F1500 X91.557 Y83.744 E0.11501
G1 X93.857 Y82.861 E0.25267
G1 X94.976 Y82.581 E0.31712
G1 X101.247 Y82.581 E0.66753
G1 X102.907 Y80.955 E0.79737
G1 X105.362 Y79.799 E0.94899
G1 X106.751 Y79.209 E1.03332
G1 X109.072 Y78.975 E1.16367
G1 X110.904 Y78.989 E1.26604
G1 X112.253 Y79.072 E1.34156
G1 X114.085 Y79.526 E1.44702
G1 X116.631 Y80.787 E1.60578
G1 X118.496 Y82.283 E1.73937
G1 X118.724 Y82.581 E1.76034
G1 X124.697 Y82.581 E2.09409
G1 X126.547 Y82.919 E2.19917
G1 X128.579 Y83.873 E2.32461
G1 X130.297 Y85.328 E2.45041
G1 X131.395 Y86.896 E2.55737
G1 X132.015 Y88.474 E2.6521
G1 X132.419 Y89.961 E2.7382
G1 X132.38 Y129.841 E4.96658
G1 X132.239 Y130.948 E5.02894
G1 X131.357 Y133.218 E5.16501
G1 X130.018 Y134.931 E5.2865
G1 X128.443 Y136.256 E5.40151
G1 X126.143 Y137.139 E5.53917
G1 X125.024 Y137.419 E5.60363
G1 X118.523 Y137.419 E5.96688
G1 X117.139 Y138.768 E6.07488
G1 X115.59 Y139.727 E6.17668
G1 X113.989 Y140.483 E6.27561
G1 X112.874 Y140.86 E6.34137
G1 X110.624 Y141.037 E6.46749
G1 X108.722 Y141.007 E6.57378
G1 X106.95 Y140.789 E6.67354
G1 X106.089 Y140.574 E6.72313
G1 X103.471 Y139.268 E6.8866
G1 X102.21 Y138.167 E6.98014
G1 X101.488 Y137.419 E7.03823
G1 X95.303 Y137.419 E7.38383
G1 X93.453 Y137.081 E7.48892
G1 X91.421 Y136.127 E7.61435
G1 X89.703 Y134.672 E7.74015
G1 X88.605 Y133.104 E7.84711
G1 X87.985 Y131.526 E7.94184
G1 X87.581 Y130.039 E8.02794
G1 X87.62 Y90.159 E10.25632
G1 X87.761 Y89.052 E10.31868
G1 X88.643 Y86.782 E10.45476
G1 X89.982 Y85.069 E10.57625
M204 S2000
G0 F7200 X90.33 Y85.403
M204 S500
G1 F1500 X91.803 Y84.164 E10.6838
G1 X93.974 Y83.327 E10.81381
G1 X95.037 Y83.061 E10.87504
G1 X101.443 Y83.061 E11.23299
G1 X103.186 Y81.354 E11.36931
G1 X105.55 Y80.241 E11.51531
G1 X106.871 Y79.68 E11.5955
G1 X109.12 Y79.453 E11.72181
G1 X110.875 Y79.468 E11.81988
G1 X112.179 Y79.548 E11.89288
G1 X113.919 Y79.979 E11.99304
G1 X116.373 Y81.195 E12.14607
G1 X118.196 Y82.657 E12.27665
G1 X118.469 Y83.061 E12.3039
G1 X124.655 Y83.061 E12.64955
G1 X126.4 Y83.38 E12.74867
G1 X128.317 Y84.28 E12.86701
G1 X129.94 Y85.654 E12.98583
G1 X130.97 Y87.125 E13.08617
G1 X131.552 Y88.6 E13.17477
G1 X131.939 Y90.024 E13.25723
G1 X131.904 Y129.78 E15.47868
G1 X131.77 Y130.83 E15.53782
G1 X130.936 Y132.977 E15.66652
G1 X129.67 Y134.597 E15.78141
G1 X128.197 Y135.836 E15.88896
G1 X126.026 Y136.673 E16.01897
G1 X124.963 Y136.939 E16.0802
G1 X118.293 Y136.939 E16.4529
G1 X118.195 Y137.068 E16.46195
G1 X116.841 Y138.388 E16.56761
G1 X115.337 Y139.319 E16.66645
G1 X113.835 Y140.028 E16.75926
G1 X112.777 Y140.386 E16.82167
G1 X110.586 Y140.558 E16.94447
G1 X108.73 Y140.527 E17.04819
G1 X107.066 Y140.323 E17.14187
G1 X106.253 Y140.12 E17.18869
G1 X103.744 Y138.868 E17.34537
G1 X102.526 Y137.805 E17.43571
G1 X101.693 Y136.939 E17.50285
G1 X95.345 Y136.939 E17.85755
G1 X93.6 Y136.62 E17.95668
G1 X91.683 Y135.72 E18.07501
G1 X90.06 Y134.346 E18.19383
G1 X89.03 Y132.875 E18.29417
G1 X88.448 Y131.4 E18.38278
G1 X88.061 Y129.976 E18.46523
G1 X88.096 Y90.22 E20.68668
G1 X88.23 Y89.17 E20.74583
G1 X89.064 Y87.023 E20.87453
G1 X90.33 Y85.403 E20.98941
M204 S2000
G0 F7200 X90.678 Y85.737
M204 S500
G1 F1500 X92.049 Y84.584 E21.08951
G1 X94.091 Y83.793 E21.21187
G1 X95.098 Y83.541 E21.26987
G1 X101.684 Y83.541 E21.63788
G1 X101.794 Y83.387 E21.64845
G1 X103.465 Y81.753 E21.77905
G1 X105.738 Y80.683 E21.91942
G1 X106.991 Y80.151 E21.99549
G1 X109.168 Y79.931 E22.11775
G1 X110.846 Y79.947 E22.21152
G1 X112.106 Y80.024 E22.28205
G1 X113.753 Y80.432 E22.37686
G1 X116.115 Y81.603 E22.52418
G1 X117.839 Y82.986 E22.64767
G1 X118.215 Y83.541 E22.68513
G1 X124.613 Y83.541 E23.04263
G1 X126.253 Y83.841 E23.13579
G1 X128.055 Y84.687 E23.24703
G1 X129.583 Y85.98 E23.35887
G1 X130.543 Y87.351 E23.45239
G1 X131.105 Y88.776 E23.53799
G1 X131.459 Y90.086 E23.61381
G1 X131.428 Y129.719 E25.82839
G1 X131.301 Y130.712 E25.88432
G1 X130.515 Y132.736 E26.00565
G1 X129.322 Y134.263 E26.11393
G1 X127.951 Y135.416 E26.21402
G1 X125.909 Y136.207 E26.33639
G1 X124.902 Y136.459 E26.39439
G1 X118.033 Y136.459 E26.77821
G1 X117.86 Y136.724 E26.79589
G1 X116.543 Y138.008 E26.89867
G1 X115.084 Y138.911 E26.99454
G1 X113.681 Y139.573 E27.08123
G1 X112.676 Y139.913 E27.14051
G1 X110.594 Y140.078 E27.25721
G1 X108.738 Y140.047 E27.36093
G1 X107.182 Y139.857 E27.44852
G1 X106.421 Y139.667 E27.49235
G1 X104.014 Y138.466 E27.64266
G1 X102.842 Y137.443 E27.72959
G1 X101.897 Y136.459 E27.80582
G1 X95.387 Y136.459 E28.16958
G1 X93.747 Y136.159 E28.26274
G1 X91.945 Y135.313 E28.37397
G1 X90.417 Y134.02 E28.48582
G1 X89.457 Y132.649 E28.57934
G1 X88.895 Y131.224 E28.66493
G1 X88.541 Y129.914 E28.74076
G1 X88.572 Y90.281 E30.95533
G1 X88.699 Y89.288 E31.01127
G1 X89.485 Y87.264 E31.13259
G1 X90.678 Y85.737 E31.24087
M204 S2000
G0 F7200 X91.024 Y86.073
M204 S500
G1 F1500 X92.297 Y85.002 E31.33383
G1 X94.208 Y84.259 E31.4484
G1 X95.159 Y84.021 E31.50317
G1 X101.956 Y84.021 E31.88297
G1 X102.13 Y83.73 E31.90192
G1 X103.744 Y82.152 E32.02804
G1 X105.926 Y81.125 E32.1628
G1 X107.111 Y80.622 E32.23473
G1 X109.216 Y80.409 E32.35295
G1 X110.817 Y80.426 E32.44241
G1 X112.033 Y80.5 E32.51049
G1 X113.587 Y80.885 E32.59994
G1 X115.857 Y82.011 E32.74153
G1 X117.482 Y83.315 E32.85795
G1 X117.961 Y84.021 E32.90563
G1 X124.57 Y84.021 E33.27492
G1 X126.103 Y84.302 E33.362
G1 X127.796 Y85.096 E33.46649
G1 X129.226 Y86.306 E33.57116
G1 X130.116 Y87.577 E33.65786
G1 X130.658 Y88.952 E33.74045
G1 X130.979 Y90.151 E33.8098
G1 X130.952 Y129.658 E36.01734
G1 X130.832 Y130.594 E36.07006
G1 X130.093 Y132.497 E36.18414
G1 X128.976 Y133.927 E36.28553
G1 X127.703 Y134.998 E36.37848
G1 X125.792 Y135.741 E36.49305
G1 X124.841 Y135.979 E36.54783
G1 X117.773 Y135.979 E36.94277
G1 X117.486 Y136.418 E36.97208
G1 X116.245 Y137.628 E37.06892
G1 X114.831 Y138.503 E37.16184
G1 X113.527 Y139.118 E37.2424
G1 X112.579 Y139.439 E37.29833
G1 X110.556 Y139.599 E37.41172
G1 X108.795 Y139.57 E37.51013
G1 X107.298 Y139.391 E37.59437
G1 X106.589 Y139.214 E37.63521
G1 X104.284 Y138.064 E37.77914
G1 X103.158 Y137.081 E37.86266
G1 X102.267 Y136.156 E37.93443
G1 X102.153 Y135.979 E37.94619
G1 X95.43 Y135.979 E38.32185
G1 X93.897 Y135.698 E38.40894
G1 X92.204 Y134.904 E38.51343
G1 X90.774 Y133.694 E38.6181
G1 X89.884 Y132.423 E38.7048
G1 X89.342 Y131.048 E38.78738
G1 X89.021 Y129.849 E38.85674
G1 X89.048 Y90.342 E41.06427
G1 X89.168 Y89.406 E41.117
G1 X89.907 Y87.503 E41.23107
G1 X91.024 Y86.073 E41.33246
M204 S2000
G0 F7200 X91.37 Y86.409
M204 S500
G1 F1500 X92.544 Y85.421 E41.4182
G1 X94.325 Y84.725 E41.52505
G1 X95.22 Y84.501 E41.5766
G1 X102.229 Y84.501 E41.96824
G1 X102.509 Y84.031 E41.99881
G1 X104.023 Y82.551 E42.11712
G1 X106.114 Y81.567 E42.24625
G1 X107.231 Y81.093 E42.31405
G1 X109.264 Y80.887 E42.42823
G1 X110.788 Y80.905 E42.51339
G1 X111.958 Y80.976 E42.57889
G1 X113.422 Y81.339 E42.66317
G1 X115.599 Y82.419 E42.79896
G1 X117.124 Y83.642 E42.90819
G1 X117.707 Y84.501 E42.9662
G1 X124.528 Y84.501 E43.34733
G1 X125.953 Y84.762 E43.42828
G1 X127.537 Y85.505 E43.52605
G1 X128.869 Y86.632 E43.62354
G1 X129.689 Y87.803 E43.70342
G1 X130.211 Y89.128 E43.783
G1 X130.499 Y90.214 E43.84578
G1 X130.476 Y129.597 E46.04638
G1 X130.363 Y130.476 E46.0959
G1 X129.671 Y132.258 E46.20272
G1 X128.63 Y133.591 E46.29722
G1 X127.456 Y134.579 E46.38296
G1 X125.675 Y135.275 E46.48981
G1 X124.78 Y135.499 E46.54136
G1 X117.513 Y135.499 E46.94742
G1 X117.114 Y136.11 E46.98819
G1 X115.947 Y137.248 E47.07927
G1 X114.578 Y138.095 E47.16923
G1 X113.373 Y138.663 E47.24366
G1 X112.482 Y138.965 E47.29623
G1 X110.518 Y139.12 E47.40632
G1 X108.851 Y139.093 E47.49948
G1 X107.414 Y138.925 E47.58032
G1 X106.757 Y138.761 E47.61816
G1 X104.554 Y137.662 E47.75572
G1 X103.474 Y136.719 E47.83583
G1 X102.613 Y135.823 E47.90527
G1 X102.44 Y135.499 E47.92579
G1 X95.472 Y135.499 E48.31514
G1 X94.047 Y135.238 E48.39609
G1 X92.463 Y134.495 E48.49386
G1 X91.131 Y133.368 E48.59135
G1 X90.311 Y132.197 E48.67123
G1 X89.789 Y130.872 E48.7508
G1 X89.501 Y129.786 E48.81358
G1 X89.524 Y90.403 E51.01419
G1 X89.637 Y89.524 E51.06371
G1 X90.329 Y87.742 E51.17053
G1 X91.37 Y86.409 E51.26503
M204 S2000
G0 F7200 X91.716 Y86.745
M204 S500
G1 F1500 X92.791 Y85.84 E51.34355
G1 X94.442 Y85.191 E51.44268
G1 X95.281 Y84.981 E51.491
G1 X102.501 Y84.981 E51.89444
G1 X102.89 Y84.329 E51.93686
G1 X104.3 Y82.951 E52.04702
G1 X106.301 Y82.009 E52.1706
G1 X107.353 Y81.563 E52.23445
G1 X109.259 Y81.367 E52.34151
G1 X110.759 Y81.384 E52.42534
G1 X111.883 Y81.452 E52.48826
G1 X113.257 Y81.793 E52.56736
G1 X115.341 Y82.827 E52.69735
G1 X116.766 Y83.97 E52.79943
G1 X117.453 Y84.981 E52.86773
G1 X124.486 Y84.981 E53.26071
G1 X125.803 Y85.222 E53.33552
G1 X127.278 Y85.914 E53.42656
G1 X128.512 Y86.958 E53.51688
G1 X129.263 Y88.031 E53.59006
G1 X129.747 Y89.251 E53.6634
G1 X130.019 Y90.277 E53.72271
G1 X130 Y129.536 E55.91639
G1 X129.894 Y130.358 E55.9627
G1 X129.249 Y132.019 E56.06226
G1 X128.284 Y133.255 E56.14988
G1 X127.209 Y134.16 E56.2284
G1 X125.558 Y134.809 E56.32753
G1 X124.719 Y135.019 E56.37585
G1 X117.253 Y135.019 E56.79303
G1 X116.74 Y135.804 E56.84543
G1 X115.649 Y136.868 E56.93058
G1 X114.372 Y137.661 E57.01458
G1 X113.219 Y138.208 E57.08589
G1 X112.381 Y138.492 E57.13533
G1 X110.525 Y138.64 E57.23936
G1 X108.905 Y138.616 E57.3299
G1 X107.53 Y138.459 E57.40723
G1 X106.925 Y138.308 E57.44207
G1 X104.824 Y137.26 E57.57326
G1 X103.79 Y136.357 E57.64997
G1 X103.005 Y135.538 E57.71336
G1 X102.727 Y135.019 E57.74626
G1 X95.514 Y135.019 E58.1493
G1 X94.197 Y134.778 E58.22411
G1 X92.722 Y134.086 E58.31515
G1 X91.488 Y133.042 E58.40547
G1 X90.737 Y131.969 E58.47865
G1 X90.253 Y130.749 E58.55199
G1 X89.981 Y129.723 E58.6113
G1 X90 Y90.464 E60.80497
G1 X90.106 Y89.642 E60.85129
G1 X90.751 Y87.981 E60.95085
G1 X91.716 Y86.745 E61.03847
M204 S2000
G0 F7200 X92.065 Y87.079
M204 S500
G1 F1500 X93.04 Y86.258 E61.10969
G1 X94.559 Y85.657 E61.20097
G1 X95.342 Y85.461 E61.24607
G1 X102.774 Y85.461 E61.66135
G1 X103.271 Y84.627 E61.7156
G1 X104.577 Y83.351 E61.81762
G1 X106.489 Y82.451 E61.9357
G1 X107.476 Y82.032 E61.99562
G1 X109.254 Y81.847 E62.09551
G1 X110.73 Y81.863 E62.17798
G1 X111.808 Y81.928 E62.23833
G1 X113.092 Y82.247 E62.31226
G1 X115.083 Y83.235 E62.43645
G1 X116.408 Y84.298 E62.53137
G1 X117.199 Y85.461 E62.60996
G1 X124.444 Y85.461 E63.01479
G1 X125.653 Y85.682 E63.08347
G1 X127.019 Y86.323 E63.16778
G1 X128.155 Y87.284 E63.25092
G1 X128.836 Y88.258 E63.31733
G1 X129.283 Y89.374 E63.3845
G1 X129.539 Y90.34 E63.44035
G1 X129.524 Y129.474 E65.62704
G1 X129.425 Y130.24 E65.67019
G1 X128.828 Y131.778 E65.76238
G1 X127.935 Y132.921 E65.84343
G1 X126.96 Y133.742 E65.91465
G1 X125.441 Y134.343 E66.00593
G1 X124.658 Y134.539 E66.05103
G1 X116.993 Y134.539 E66.47933
G1 X116.368 Y135.496 E66.5432
G1 X115.35 Y136.489 E66.62266
G1 X114.165 Y137.228 E66.7007
G1 X113.065 Y137.753 E66.7688
G1 X112.28 Y138.019 E66.81512
G1 X110.531 Y138.16 E66.91316
G1 X108.958 Y138.139 E67.00106
G1 X107.646 Y137.993 E67.07483
G1 X107.093 Y137.855 E67.10667
G1 X105.094 Y136.858 E67.23149
G1 X104.106 Y135.995 E67.3048
G1 X103.397 Y135.253 E67.36214
G1 X103.014 Y134.539 E67.40741
G1 X95.556 Y134.539 E67.82415
G1 X94.347 Y134.318 E67.89282
G1 X92.981 Y133.677 E67.97713
G1 X91.845 Y132.716 E68.06028
G1 X91.164 Y131.742 E68.12668
G1 X90.717 Y130.626 E68.19386
G1 X90.461 Y129.66 E68.2497
G1 X90.476 Y90.526 E70.43639
G1 X90.575 Y89.76 E70.47955
G1 X91.172 Y88.222 E70.57174
G1 X92.065 Y87.079 E70.65278
M204 S2000
G0 F7200 X92.411 Y87.415
M204 S500
G1 F1500 X93.288 Y86.676 E70.71687
G1 X94.676 Y86.123 E70.80035
G1 X95.403 Y85.941 E70.84223
G1 X103.046 Y85.941 E71.2693
G1 X103.652 Y84.925 E71.3354
G1 X104.853 Y83.752 E71.42921
G1 X106.677 Y82.893 E71.54186
G1 X107.6 Y82.501 E71.59789
G1 X109.249 Y82.327 E71.69055
G1 X110.701 Y82.342 E71.77169
G1 X111.733 Y82.404 E71.82945
G1 X112.927 Y82.701 E71.8982
G1 X114.825 Y83.643 E72.0166
G1 X116.05 Y84.626 E72.10437
G1 X116.73 Y85.625 E72.17189
G1 X116.897 Y85.941 E72.19186
G1 X124.401 Y85.941 E72.61116
G1 X125.503 Y86.143 E72.67377
G1 X126.757 Y86.731 E72.75116
G1 X127.799 Y87.612 E72.8274
G1 X128.41 Y88.486 E72.88699
G1 X128.837 Y89.552 E72.95115
G1 X129.059 Y90.401 E73.00019
G1 X129.048 Y129.412 E75.18001
G1 X128.956 Y130.122 E75.22001
G1 X128.406 Y131.539 E75.30495
G1 X127.589 Y132.585 E75.37911
G1 X126.712 Y133.324 E75.44319
G1 X125.324 Y133.877 E75.52668
G1 X124.597 Y134.059 E75.56855
G1 X116.733 Y134.059 E76.00797
G1 X115.996 Y135.188 E76.08331
G1 X115.052 Y136.109 E76.157
G1 X113.957 Y136.795 E76.2292
G1 X112.911 Y137.298 E76.29406
G1 X112.179 Y137.546 E76.33724
G1 X110.537 Y137.68 E76.4293
G1 X108.964 Y137.659 E76.5172
G1 X107.762 Y137.527 E76.58477
G1 X107.261 Y137.402 E76.61362
G1 X105.362 Y136.455 E76.73219
G1 X104.453 Y135.663 E76.79956
G1 X103.789 Y134.968 E76.85327
G1 X103.301 Y134.059 E76.91092
G1 X95.599 Y134.059 E77.34128
G1 X94.497 Y133.857 E77.40388
G1 X93.243 Y133.269 E77.48128
G1 X92.201 Y132.388 E77.55752
G1 X91.59 Y131.514 E77.61711
G1 X91.163 Y130.448 E77.68127
G1 X90.941 Y129.599 E77.73031
G1 X90.952 Y90.588 E79.91013
G1 X91.044 Y89.878 E79.95013
G1 X91.594 Y88.461 E80.03506
G1 X92.411 Y87.415 E80.10923
M204 S2000
G0 F7200 X92.757 Y87.751
M204 S500
G1 F1500 X93.538 Y87.093 E80.16629
G1 X94.793 Y86.589 E80.24186
G1 X95.464 Y86.421 E80.28051
G1 X103.318 Y86.421 E80.71937
G1 X104.033 Y85.223 E80.79733
G1 X105.13 Y84.152 E80.88299
G1 X106.865 Y83.335 E80.99015
G1 X107.724 Y82.97 E81.0423
G1 X109.244 Y82.807 E81.12772
G1 X110.672 Y82.821 E81.20752
G1 X111.658 Y82.88 E81.26271
G1 X112.762 Y83.155 E81.32628
G1 X114.567 Y84.051 E81.43888
G1 X115.692 Y84.954 E81.51949
G1 X116.333 Y85.895 E81.58311
G1 X116.605 Y86.421 E81.6162
G1 X124.359 Y86.421 E82.04947
G1 X125.353 Y86.603 E82.10594
G1 X126.496 Y87.139 E82.17648
G1 X127.441 Y87.938 E82.24563
G1 X127.984 Y88.716 E82.29864
G1 X128.391 Y89.731 E82.35974
G1 X128.579 Y90.463 E82.40197
G1 X128.572 Y129.35 E84.57486
G1 X128.487 Y130.004 E84.61171
G1 X127.984 Y131.3 E84.68939
G1 X127.243 Y132.249 E84.75667
G1 X126.462 Y132.907 E84.81373
G1 X125.207 Y133.411 E84.8893
G1 X124.536 Y133.579 E84.92795
G1 X116.402 Y133.579 E85.38246
G1 X116.285 Y133.868 E85.39988
G1 X115.624 Y134.88 E85.46742
G1 X114.754 Y135.729 E85.53535
G1 X113.702 Y136.388 E85.60471
G1 X112.757 Y136.843 E85.66332
G1 X112.078 Y137.073 E85.70337
G1 X110.543 Y137.2 E85.78944
G1 X108.97 Y137.179 E85.87734
G1 X107.878 Y137.061 E85.93871
G1 X107.429 Y136.949 E85.96457
G1 X105.63 Y136.052 E86.0769
G1 X104.8 Y135.331 E86.13833
G1 X104.181 Y134.683 E86.1884
G1 X103.588 Y133.579 E86.25843
G1 X95.641 Y133.579 E86.70248
G1 X94.647 Y133.397 E86.75895
G1 X93.504 Y132.861 E86.82949
G1 X92.559 Y132.062 E86.89864
G1 X92.016 Y131.284 E86.95165
G1 X91.609 Y130.269 E87.01275
G1 X91.421 Y129.537 E87.05498
G1 X91.428 Y90.65 E89.22787
G1 X91.513 Y89.996 E89.26472
G1 X92.016 Y88.7 E89.3424
G1 X92.757 Y87.751 E89.40968
M204 S2000
G0 F7200 X93.103 Y88.087
M204 S500
G1 F1500 X93.787 Y87.511 E89.45965
