;FLAVOR:Marlin
;TIME:8078
;Filament used: 3.23624m
;Layer height: 0.12
;MINX:65.2
;MINY:65.2
;MINZ:0.12
;MAXX:154.8
;MAXY:154.8
;MAXZ:7.16
;Generated with Cura_SteamEngine 5.4.0
M82 ;absolute extrusion mode
; Ender 3 S1 Pro Start G-code
M413 S0 ; Disable power loss recovery
G92 E0 ; Reset Extruder
; Prep surfaces before auto home for better accuracy
M140 S60
M104 S200

G28 O ; Home all untrusted axes
M420 S1 Z10 ; use bed leveling
G1 Z10.0 F3000 ; Move Z Axis up little to prevent scratching of Heat Bed
G1 X0 Y0

M190 S60
M109 S200

G1 X0.1 Y20 Z0.3 F5000.0 ; Move to start position
G1 X0.1 Y200.0 Z0.3 F1500.0 E15 ; Draw the first line
G1 X0.4 Y200.0 Z0.3 F5000.0 ; Move to side a little
G1 X0.4 Y20 Z0.3 F1500.0 E30 ; Draw the second line
G92 E0 ; Reset Extruder
G1 Z2.0 F3000 ; Move Z Axis up little to prevent scratching of Heat Bed
G1 X5 Y20 Z0.3 F5000.0 ; Move over to prevent blob squish
G92 E0
G92 E0
G1 F2400 E-0.8
;LAYER_COUNT:58
;LAYER:0
M107
M204 S2000
G1 F300 Z0.32
G0 F7500 X77.86 Y78.792 Z0.32
M204 S500
;TYPE:SKIRT
G1 F300 Z0.12
G1 F2400 E0
G1 F1500 X79.001 Y77.663 E0.03203
G1 X80.142 Y76.601 E0.06314
G1 X81.272 Y75.624 E0.09295
G1 X82.539 Y74.604 E0.12541
G1 X83.729 Y73.715 E0.15505
G1 X84.441 Y73.21 E0.17247
G1 X85.752 Y72.332 E0.20396
G1 X87.057 Y71.524 E0.23459
G1 X88.394 Y70.756 E0.26536
G1 X89.817 Y70.007 E0.29745
G1 X91.209 Y69.335 E0.3283
G1 X92.648 Y68.701 E0.35968
G1 X94.037 Y68.142 E0.38956
G1 X94.81 Y67.856 E0.40601
G1 X96.309 Y67.339 E0.43765
G1 X97.766 Y66.9 E0.46802
G1 X99.263 Y66.511 E0.49888
G1 X100.079 Y66.32 E0.51561
G1 X101.535 Y66.014 E0.5453
G1 X102.388 Y65.857 E0.56261
G1 X103.93 Y65.617 E0.59375
G1 X105.465 Y65.429 E0.62461
G1 X106.918 Y65.304 E0.65371
G1 X108.596 Y65.223 E0.68724
G1 X110.188 Y65.2 E0.71901
G1 X111.731 Y65.242 E0.74982
G1 X113.275 Y65.327 E0.78067
G1 X114.73 Y65.453 E0.80982
G1 X115.622 Y65.555 E0.82774
G1 X117.087 Y65.766 E0.85727
G1 X117.89 Y65.9 E0.87352
G1 X118.69 Y66.057 E0.88979
G1 X120.245 Y66.385 E0.9215
G1 X121.704 Y66.759 E0.95156
G1 X122.493 Y66.986 E0.96795
G1 X123.988 Y67.444 E0.99915
G1 X125.474 Y67.961 E1.03055
G1 X126.863 Y68.497 E1.06026
G1 X127.665 Y68.83 E1.07759
G1 X129.066 Y69.464 E1.10828
G1 X130.472 Y70.151 E1.1395
G1 X131.85 Y70.897 E1.17077
G1 X133.213 Y71.688 E1.20222
G1 X134.531 Y72.518 E1.23331
G1 X135.771 Y73.356 E1.26317
G1 X136.467 Y73.854 E1.28025
G1 X137.701 Y74.792 E1.31118
G1 X138.921 Y75.79 E1.34264
G1 X140.099 Y76.817 E1.37383
G1 X141.208 Y77.859 E1.40419
G1 X142.338 Y79 E1.43624
G1 X143.4 Y80.141 E1.46735
G1 X144.378 Y81.273 E1.4972
G1 X145.397 Y82.54 E1.52965
G1 X146.298 Y83.747 E1.55971
G1 X146.789 Y84.439 E1.57664
G1 X147.668 Y85.752 E1.60817
G1 X148.476 Y87.057 E1.6388
G1 X149.245 Y88.394 E1.66958
G1 X149.983 Y89.793 E1.70115
G1 X150.656 Y91.197 E1.73222
G1 X151.297 Y92.636 E1.76365
G1 X151.858 Y94.033 E1.7937
G1 X152.13 Y94.775 E1.80947
G1 X152.657 Y96.317 E1.84199
G1 X153.097 Y97.797 E1.8728
G1 X153.49 Y99.267 E1.90317
G1 X153.679 Y100.074 E1.91971
G1 X153.986 Y101.534 E1.94948
G1 X154.143 Y102.387 E1.96679
G1 X154.383 Y103.929 E1.99793
G1 X154.571 Y105.465 E2.02881
G1 X154.696 Y106.918 E2.05791
G1 X154.777 Y108.595 E2.09142
G1 X154.8 Y110.188 E2.12321
G1 X154.758 Y111.728 E2.15396
G1 X154.675 Y113.271 E2.18479
G1 X154.549 Y114.717 E2.21376
G1 X154.445 Y115.625 E2.232
G1 X154.233 Y117.088 E2.2615
G1 X154.1 Y117.885 E2.27762
G1 X153.943 Y118.69 E2.29399
G1 X153.613 Y120.251 E2.32583
G1 X153.241 Y121.701 E2.3557
G1 X153.014 Y122.492 E2.37213
G1 X152.556 Y123.989 E2.40337
G1 X152.039 Y125.476 E2.43479
G1 X151.498 Y126.871 E2.46464
G1 X151.171 Y127.656 E2.48161
G1 X150.529 Y129.08 E2.51279
G1 X149.833 Y130.49 E2.54417
G1 X149.102 Y131.849 E2.57496
G1 X148.315 Y133.209 E2.60632
G1 X147.482 Y134.531 E2.6375
G1 X146.646 Y135.768 E2.66729
G1 X146.145 Y136.469 E2.68449
G1 X145.216 Y137.691 E2.71512
G1 X144.209 Y138.921 E2.74685
G1 X143.183 Y140.098 E2.77801
G1 X142.14 Y141.208 E2.8084
G1 X140.999 Y142.337 E2.84043
G1 X139.858 Y143.399 E2.87154
G1 X138.728 Y144.376 E2.90135
G1 X137.461 Y145.396 E2.93381
G1 X136.271 Y146.285 E2.96345
G1 X135.559 Y146.79 E2.98087
G1 X134.248 Y147.668 E3.01236
G1 X132.943 Y148.476 E3.04299
G1 X131.606 Y149.244 E3.07376
G1 X130.183 Y149.993 E3.10585
G1 X128.791 Y150.665 E3.1367
G1 X127.352 Y151.299 E3.16808
G1 X125.963 Y151.858 E3.19796
G1 X125.19 Y152.144 E3.21441
G1 X123.691 Y152.661 E3.24605
G1 X122.234 Y153.1 E3.27642
G1 X120.737 Y153.489 E3.30728
G1 X119.921 Y153.68 E3.32401
G1 X118.465 Y153.986 E3.3537
G1 X117.612 Y154.143 E3.37101
G1 X116.07 Y154.383 E3.40215
G1 X114.535 Y154.571 E3.43301
G1 X113.082 Y154.696 E3.46211
G1 X111.404 Y154.777 E3.49564
G1 X109.812 Y154.8 E3.52741
G1 X108.269 Y154.758 E3.55822
G1 X106.725 Y154.673 E3.58908
G1 X105.27 Y154.547 E3.61822
G1 X104.378 Y154.445 E3.63614
G1 X102.913 Y154.234 E3.66567
G1 X102.11 Y154.1 E3.68192
G1 X101.31 Y153.943 E3.69819
G1 X99.755 Y153.615 E3.7299
G1 X98.296 Y153.241 E3.75996
G1 X97.507 Y153.014 E3.77635
G1 X96.012 Y152.556 E3.80755
G1 X94.526 Y152.039 E3.83895
G1 X93.137 Y151.503 E3.86866
G1 X92.339 Y151.172 E3.8859
G1 X90.937 Y150.539 E3.9166
G1 X89.588 Y149.881 E3.94655
G1 X88.151 Y149.106 E3.97913
G1 X86.82 Y148.338 E4.0098
G1 X85.469 Y147.481 E4.04172
G1 X84.231 Y146.645 E4.07154
G1 X83.531 Y146.145 E4.0887
G1 X82.309 Y145.216 E4.11934
G1 X81.078 Y144.209 E4.15107
G1 X79.901 Y143.183 E4.18223
G1 X78.791 Y142.14 E4.21263
G1 X77.662 Y140.999 E4.24466
G1 X76.6 Y139.858 E4.27577
G1 X75.623 Y138.728 E4.30558
G1 X74.595 Y137.45 E4.33831
G1 X73.697 Y136.253 E4.36817
G1 X73.217 Y135.573 E4.38478
G1 X72.332 Y134.248 E4.41658
G1 X71.524 Y132.943 E4.44721
G1 X70.755 Y131.606 E4.47799
G1 X70.017 Y130.207 E4.50956
G1 X69.344 Y128.803 E4.54063
G1 X68.701 Y127.36 E4.57215
G1 X68.142 Y125.967 E4.60211
G1 X67.87 Y125.225 E4.61788
G1 X67.343 Y123.683 E4.6504
G1 X66.903 Y122.203 E4.68121
G1 X66.51 Y120.733 E4.71158
G1 X66.321 Y119.926 E4.72812
G1 X66.014 Y118.466 E4.75789
G1 X65.857 Y117.613 E4.7752
G1 X65.617 Y116.071 E4.80634
G1 X65.429 Y114.535 E4.83722
G1 X65.304 Y113.082 E4.86632
G1 X65.223 Y111.405 E4.89983
G1 X65.2 Y109.812 E4.93162
G1 X65.242 Y108.272 E4.96237
G1 X65.325 Y106.729 E4.9932
G1 X65.451 Y105.283 E5.02217
G1 X65.555 Y104.375 E5.04041
G1 X65.767 Y102.912 E5.06991
G1 X65.9 Y102.115 E5.08603
G1 X66.057 Y101.31 E5.1024
G1 X66.387 Y99.749 E5.13424
G1 X66.759 Y98.299 E5.16411
G1 X66.986 Y97.508 E5.18054
G1 X67.444 Y96.011 E5.21178
G1 X67.961 Y94.524 E5.2432
G1 X68.502 Y93.129 E5.27305
G1 X68.829 Y92.344 E5.29002
G1 X69.471 Y90.92 E5.3212
G1 X70.167 Y89.51 E5.35258
G1 X70.898 Y88.151 E5.38337
G1 X71.685 Y86.791 E5.41473
G1 X72.518 Y85.469 E5.44591
G1 X73.354 Y84.232 E5.4757
G1 X73.855 Y83.531 E5.4929
G1 X74.784 Y82.309 E5.52353
G1 X75.791 Y81.079 E5.55526
G1 X76.817 Y79.902 E5.58642
G1 X77.86 Y78.792 E5.61681
M204 S2000
G0 F7500 X78.152 Y79.066
M204 S500
G1 F1500 X79.273 Y77.956 E5.64829
G1 X80.404 Y76.904 E5.67912
G1 X81.523 Y75.936 E5.70864
G1 X82.79 Y74.916 E5.7411
G1 X83.961 Y74.041 E5.77028
G1 X84.664 Y73.542 E5.78748
G1 X85.963 Y72.672 E5.81868
G1 X87.256 Y71.871 E5.84903
G1 X88.58 Y71.11 E5.87951
G1 X89.991 Y70.367 E5.91133
G1 X91.37 Y69.701 E5.94189
G1 X92.797 Y69.072 E5.97301
G1 X94.176 Y68.517 E6.00268
G1 X94.941 Y68.234 E6.01896
G1 X96.424 Y67.722 E6.05027
G1 X97.867 Y67.287 E6.08034
G1 X99.354 Y66.9 E6.11101
G1 X100.161 Y66.711 E6.12755
G1 X101.607 Y66.407 E6.15703
G1 X102.449 Y66.252 E6.17412
G1 X103.979 Y66.014 E6.20502
G1 X105.499 Y65.828 E6.23558
G1 X106.937 Y65.704 E6.26438
G1 X108.602 Y65.623 E6.29765
G1 X110.177 Y65.6 E6.32908
G1 X111.709 Y65.641 E6.35967
G1 X113.24 Y65.726 E6.39026
G1 X114.695 Y65.852 E6.41941
G1 X115.565 Y65.951 E6.43688
G1 X117.021 Y66.16 E6.46624
G1 X117.813 Y66.293 E6.48226
G1 X118.607 Y66.448 E6.49841
G1 X120.146 Y66.773 E6.5298
G1 X121.593 Y67.143 E6.5596
G1 X122.376 Y67.369 E6.57587
G1 X123.857 Y67.822 E6.60677
G1 X125.33 Y68.334 E6.63789
G1 X126.71 Y68.866 E6.66741
G1 X127.5 Y69.194 E6.68448
G1 X128.89 Y69.823 E6.71493
G1 X130.282 Y70.503 E6.74584
G1 X131.649 Y71.243 E6.77686
G1 X133 Y72.026 E6.80802
G1 X134.307 Y72.849 E6.83885
G1 X135.538 Y73.681 E6.8685
G1 X136.225 Y74.173 E6.88536
G1 X137.448 Y75.102 E6.91601
G1 X138.658 Y76.091 E6.9472
G1 X139.825 Y77.109 E6.9781
G1 X140.934 Y78.151 E7.00847
G1 X142.045 Y79.273 E7.03998
G1 X143.097 Y80.403 E7.07079
G1 X144.066 Y81.524 E7.10036
G1 X145.076 Y82.779 E7.13251
G1 X145.972 Y83.979 E7.16239
G1 X146.457 Y84.662 E7.17911
G1 X147.328 Y85.963 E7.21035
G1 X148.129 Y87.256 E7.24071
G1 X148.891 Y88.581 E7.27121
G1 X149.622 Y89.966 E7.30246
G1 X150.291 Y91.36 E7.33332
G1 X150.926 Y92.785 E7.36445
G1 X151.482 Y94.171 E7.39425
G1 X151.751 Y94.904 E7.40984
G1 X152.278 Y96.446 E7.44236
G1 X152.711 Y97.9 E7.47263
G1 X153.101 Y99.358 E7.50275
G1 X153.288 Y100.156 E7.51911
G1 X153.593 Y101.606 E7.54868
G1 X153.748 Y102.448 E7.56576
G1 X153.986 Y103.978 E7.59666
G1 X154.172 Y105.499 E7.62724
G1 X154.296 Y106.937 E7.65604
G1 X154.377 Y108.601 E7.68929
G1 X154.4 Y110.177 E7.72074
G1 X154.359 Y111.706 E7.75127
G1 X154.276 Y113.237 E7.78187
G1 X154.152 Y114.671 E7.81059
G1 X154.049 Y115.568 E7.82861
G1 X153.839 Y117.022 E7.85792
G1 X153.707 Y117.809 E7.87385
G1 X153.552 Y118.607 E7.89007
G1 X153.226 Y120.152 E7.92158
G1 X152.857 Y121.591 E7.95123
G1 X152.632 Y122.375 E7.96751
G1 X152.178 Y123.858 E7.99846
G1 X151.666 Y125.331 E8.02958
G1 X151.129 Y126.717 E8.05924
G1 X150.806 Y127.492 E8.076
G1 X150.17 Y128.903 E8.10688
G1 X149.481 Y130.301 E8.13798
G1 X148.756 Y131.649 E8.16853
G1 X147.977 Y132.996 E8.19958
G1 X147.151 Y134.307 E8.2305
G1 X146.321 Y135.535 E8.26008
G1 X145.826 Y136.227 E8.27706
G1 X144.906 Y137.438 E8.30741
G1 X143.908 Y138.658 E8.33887
G1 X142.891 Y139.824 E8.36974
G1 X141.848 Y140.934 E8.40014
G1 X140.727 Y142.044 E8.43162
G1 X139.596 Y143.096 E8.46244
G1 X138.477 Y144.064 E8.49197
G1 X137.21 Y145.084 E8.52443
G1 X136.039 Y145.959 E8.5536
G1 X135.336 Y146.458 E8.57081
G1 X134.037 Y147.328 E8.60201
G1 X132.744 Y148.129 E8.63236
G1 X131.42 Y148.89 E8.66284
G1 X130.009 Y149.633 E8.69466
G1 X128.63 Y150.299 E8.72522
G1 X127.203 Y150.928 E8.75634
G1 X125.824 Y151.483 E8.78601
G1 X125.059 Y151.766 E8.80228
G1 X123.576 Y152.278 E8.83359
G1 X122.133 Y152.713 E8.86367
G1 X120.646 Y153.1 E8.89433
G1 X119.839 Y153.289 E8.91087
G1 X118.393 Y153.593 E8.94036
G1 X117.551 Y153.748 E8.95744
G1 X116.021 Y153.986 E8.98834
G1 X114.501 Y154.172 E9.0189
G1 X113.063 Y154.296 E9.04771
G1 X111.398 Y154.377 E9.08097
G1 X109.823 Y154.4 E9.11241
G1 X108.291 Y154.359 E9.14299
G1 X106.76 Y154.274 E9.17359
G1 X105.305 Y154.148 E9.20274
G1 X104.435 Y154.049 E9.22021
G1 X102.979 Y153.84 E9.24956
G1 X102.187 Y153.707 E9.26559
G1 X101.393 Y153.552 E9.28173
G1 X99.854 Y153.227 E9.31312
G1 X98.407 Y152.857 E9.34293
G1 X97.624 Y152.631 E9.35919
G1 X96.143 Y152.178 E9.3901
G1 X94.67 Y151.666 E9.42122
G1 X93.29 Y151.133 E9.45074
G1 X92.503 Y150.807 E9.46774
G1 X91.112 Y150.18 E9.49819
G1 X89.778 Y149.529 E9.52781
G1 X88.351 Y148.76 E9.56016
G1 X87.034 Y148 E9.59051
G1 X85.693 Y147.15 E9.62219
G1 X84.464 Y146.32 E9.65179
G1 X83.773 Y145.826 E9.66874
G1 X82.562 Y144.906 E9.69909
G1 X81.341 Y143.908 E9.73056
G1 X80.175 Y142.891 E9.76143
G1 X79.065 Y141.848 E9.79183
G1 X77.955 Y140.727 E9.82331
G1 X76.903 Y139.596 E9.85414
G1 X75.935 Y138.477 E9.88366
G1 X74.915 Y137.21 E9.91612
G1 X74.024 Y136.022 E9.94576
G1 X73.55 Y135.351 E9.96215
G1 X72.672 Y134.037 E9.99369
G1 X71.871 Y132.744 E10.02404
G1 X71.109 Y131.419 E10.05455
G1 X70.378 Y130.034 E10.0858
G1 X69.709 Y128.64 E10.11665
G1 X69.072 Y127.211 E10.14788
G1 X68.518 Y125.829 E10.17759
G1 X68.249 Y125.096 E10.19317
G1 X67.722 Y123.554 E10.22569
G1 X67.289 Y122.1 E10.25597
G1 X66.899 Y120.642 E10.28609
G1 X66.712 Y119.844 E10.30244
G1 X66.407 Y118.394 E10.33201
G1 X66.252 Y117.552 E10.3491
G1 X66.014 Y116.022 E10.38
G1 X65.828 Y114.501 E10.41058
G1 X65.704 Y113.063 E10.43938
G1 X65.623 Y111.399 E10.47263
G1 X65.6 Y109.823 E10.50408
G1 X65.641 Y108.294 E10.5346
G1 X65.724 Y106.763 E10.5652
G1 X65.848 Y105.329 E10.59392
G1 X65.951 Y104.432 E10.61194
G1 X66.161 Y102.978 E10.64126
G1 X66.293 Y102.191 E10.65718
G1 X66.448 Y101.393 E10.67341
G1 X66.774 Y99.848 E10.70492
G1 X67.143 Y98.409 E10.73456
G1 X67.368 Y97.625 E10.75084
G1 X67.822 Y96.142 E10.78179
G1 X68.334 Y94.669 E10.81291
G1 X68.871 Y93.283 E10.84258
G1 X69.194 Y92.508 E10.85933
G1 X69.83 Y91.097 E10.89022
G1 X70.519 Y89.699 E10.92132
G1 X71.244 Y88.351 E10.95186
G1 X72.023 Y87.004 E10.98292
G1 X72.849 Y85.693 E11.01384
G1 X73.679 Y84.465 E11.04342
G1 X74.174 Y83.773 E11.0604
G1 X75.094 Y82.562 E11.09075
G1 X76.092 Y81.342 E11.1222
G1 X77.109 Y80.176 E11.15308
G1 X78.152 Y79.066 E11.18347
M204 S2000
G0 F7500 X78.434 Y79.35
M204 S500
G1 F1500 X79.545 Y78.249 E11.21469
G1 X80.666 Y77.207 E11.24523
G1 X81.785 Y76.239 E11.27476
G1 X83.03 Y75.236 E11.30666
G1 X84.192 Y74.367 E11.33562
G1 X84.887 Y73.874 E11.35262
G1 X86.174 Y73.012 E11.38353
G1 X87.455 Y72.218 E11.41361
G1 X88.766 Y71.464 E11.44379
G1 X90.165 Y70.727 E11.47535
G1 X91.531 Y70.067 E11.50562
G1 X92.946 Y69.443 E11.53648
G1 X94.315 Y68.892 E11.56593
G1 X95.071 Y68.612 E11.58202
G1 X96.54 Y68.105 E11.61303
G1 X97.968 Y67.674 E11.6428
G1 X99.445 Y67.289 E11.67326
G1 X100.243 Y67.102 E11.68962
G1 X101.679 Y66.8 E11.7189
G1 X102.51 Y66.647 E11.73576
G1 X104.028 Y66.411 E11.76642
G1 X105.533 Y66.227 E11.79668
G1 X106.957 Y66.104 E11.8252
G1 X108.608 Y66.023 E11.85819
G1 X110.166 Y66 E11.88928
G1 X111.687 Y66.04 E11.91965
G1 X113.205 Y66.125 E11.94999
G1 X114.66 Y66.251 E11.97913
G1 X115.508 Y66.347 E11.99616
G1 X116.955 Y66.555 E12.02534
G1 X117.737 Y66.686 E12.04116
G1 X118.524 Y66.839 E12.05716
G1 X120.047 Y67.161 E12.08822
G1 X121.482 Y67.527 E12.11778
G1 X122.259 Y67.751 E12.13392
G1 X123.726 Y68.2 E12.16453
G1 X125.186 Y68.707 E12.19537
G1 X126.557 Y69.236 E12.2247
G1 X127.335 Y69.558 E12.2415
G1 X128.714 Y70.182 E12.27171
G1 X130.092 Y70.855 E12.30231
G1 X131.449 Y71.589 E12.3331
G1 X132.787 Y72.364 E12.36396
G1 X134.083 Y73.181 E12.39453
G1 X135.305 Y74.006 E12.42396
G1 X135.983 Y74.491 E12.44059
G1 X137.195 Y75.412 E12.47097
G1 X138.395 Y76.392 E12.50189
G1 X139.551 Y77.4 E12.53249
G1 X140.65 Y78.433 E12.56259
G1 X141.752 Y79.545 E12.59384
G1 X142.794 Y80.665 E12.62436
G1 X143.754 Y81.775 E12.65365
G1 X144.764 Y83.03 E12.6858
G1 X145.646 Y84.21 E12.7152
G1 X146.125 Y84.885 E12.73172
G1 X146.988 Y86.174 E12.76267
G1 X147.782 Y87.456 E12.79276
G1 X148.537 Y88.768 E12.82297
G1 X149.261 Y90.139 E12.85391
G1 X149.926 Y91.523 E12.88456
G1 X150.555 Y92.934 E12.91538
G1 X151.107 Y94.309 E12.94495
G1 X151.373 Y95.033 E12.96035
G1 X151.895 Y96.56 E12.99255
G1 X152.325 Y98.003 E13.0226
G1 X152.712 Y99.449 E13.05247
G1 X152.897 Y100.238 E13.06864
G1 X153.2 Y101.678 E13.09801
G1 X153.353 Y102.509 E13.11487
G1 X153.589 Y104.027 E13.14553
G1 X153.773 Y105.533 E13.1758
G1 X153.896 Y106.957 E13.20433
G1 X153.977 Y108.607 E13.2373
G1 X154 Y110.166 E13.26841
G1 X153.96 Y111.684 E13.29871
G1 X153.877 Y113.203 E13.32907
G1 X153.753 Y114.637 E13.3578
G1 X153.653 Y115.511 E13.37535
G1 X153.444 Y116.956 E13.40449
G1 X153.314 Y117.733 E13.42021
G1 X153.161 Y118.525 E13.43631
G1 X152.839 Y120.053 E13.46747
G1 X152.473 Y121.481 E13.49689
G1 X152.25 Y122.258 E13.51302
G1 X151.8 Y123.727 E13.54368
G1 X151.293 Y125.187 E13.57452
G1 X150.76 Y126.563 E13.60397
G1 X150.441 Y127.328 E13.62051
G1 X149.811 Y128.726 E13.65111
G1 X149.129 Y130.112 E13.68194
G1 X148.41 Y131.449 E13.71223
G1 X147.639 Y132.783 E13.74298
G1 X146.82 Y134.083 E13.77364
G1 X145.995 Y135.303 E13.80303
G1 X145.508 Y135.985 E13.81976
G1 X144.596 Y137.185 E13.84984
G1 X143.607 Y138.395 E13.88102
G1 X142.6 Y139.55 E13.9116
G1 X141.566 Y140.65 E13.94173
G1 X140.455 Y141.751 E13.97294
G1 X139.334 Y142.793 E14.00349
G1 X138.215 Y143.761 E14.03301
G1 X136.97 Y144.764 E14.06492
G1 X135.808 Y145.633 E14.09387
G1 X135.113 Y146.126 E14.11088
G1 X133.826 Y146.988 E14.14179
G1 X132.545 Y147.782 E14.17187
G1 X131.234 Y148.536 E14.20205
G1 X129.835 Y149.273 E14.2336
