;FLAVOR:Marlin
;TIME:2504
;Filament used: 3.43574m
;Layer height: 0.28
;MINX:63.069
;MINY:90.569
;MINZ:0.28
;MAXX:156.927
;MAXY:129.427
;MAXZ:10.28
;TARGET_MACHINE.NAME:Creality Ender-3 S1 Pro
;Generated with Cura_SteamEngine 5.6.0
M82 ;absolute extrusion mode
; Ender 3 S1 Pro Start G-code
M413 S0 ; Disable power loss recovery
G92 E0 ; Reset Extruder
; Prep surfaces before auto home for better accuracy
M140 S85.0
M104 S245.0
G28 X Y; always home X and Y
G28 O ; Home all untrusted axes
M420 S1 Z10 ; use bed leveling
G1 Z10.0 F3000 ; Move Z Axis up little to prevent scratching of Heat Bed
G1 X0 Y0

M190 S85.0
M109 S245.0

G1 X0.1 Y20 Z0.3 F5000.0 ; Move to start position
G1 X0.1 Y200.0 Z0.3 F1500.0 E15 ; Draw the first line
G1 X0.4 Y200.0 Z0.3 F5000.0 ; Move to side a little
G1 X0.4 Y20 Z0.3 F1500.0 E30 ; Draw the second line
G92 E0 ; Reset Extruder
G1 Z2.0 F3000 ; Move Z Axis up little to prevent scratching of Heat Bed
G1 X5 Y20 Z0.3 F5000.0 ; Move over to prevent blob squish
G92 E0
G92 E0
G1 F2400 E-0.8
;LAYER_COUNT:36
;LAYER:0
M107
M204 S2000
G1 F300 Z0.48
G0 F7200 X66.489 Y92.695 Z0.48
M204 S500
;TYPE:SKIRT
G1 F300 Z0.28
G1 F2400 E0
G1 F1500 X68.303 Y91.5 E0.12138
G1 X68.994 Y91.157 E0.16448
G1 X71.341 Y90.571 E0.29965
G1 X148.621 Y90.569 E4.61783
G1 X150.879 Y91.124 E4.74776
G1 X152.924 Y92.231 E4.87769
G1 X154.416 Y93.525 E4.98805
G1 X155.919 Y95.495 E5.1265
G1 X156.752 Y97.928 E5.2702
G1 X156.927 Y99.907 E5.38121
G1 X156.854 Y121.106 E6.56576
G1 X156.668 Y122.386 E6.63803
G1 X155.831 Y124.572 E6.76883
G1 X154.333 Y126.591 E6.9093
G1 X152.539 Y128.029 E7.03777
G1 X151.819 Y128.481 E7.08528
G1 X149.575 Y129.25 E7.21782
G1 X147.607 Y129.427 E7.32823
G1 X71.336 Y129.349 E11.59003
G1 X69.716 Y129.116 E11.68148
G1 X67.422 Y128.01 E11.82379
G1 X65.793 Y126.683 E11.94119
G1 X64.543 Y125.164 E12.05111
G1 X63.464 Y122.943 E12.18908
G1 X63.069 Y120.829 E12.30925
G1 X63.135 Y98.941 E13.53229
G1 X63.363 Y97.275 E13.62625
G1 X64.644 Y94.54 E13.79501
G1 X66.489 Y92.695 E13.9408
M204 S2000
G0 F7200 X66.792 Y93.07
M204 S500
G1 F1500 X68.516 Y91.93 E14.05629
G1 X69.159 Y91.611 E14.0964
G1 X71.401 Y91.051 E14.22552
G1 X148.563 Y91.049 E18.53711
G1 X150.704 Y91.575 E18.6603
G1 X152.647 Y92.627 E18.78376
G1 X154.065 Y93.857 E18.88865
G1 X155.49 Y95.725 E19.01993
G1 X156.279 Y98.029 E19.15601
G1 X156.447 Y99.905 E19.26125
G1 X156.379 Y121.037 E20.44205
G1 X156.2 Y122.266 E20.51145
G1 X155.407 Y124.339 E20.63547
G1 X153.986 Y126.254 E20.76872
G1 X152.284 Y127.622 E20.89073
G1 X151.61 Y128.045 E20.93519
G1 X149.474 Y128.777 E21.06136
G1 X147.607 Y128.947 E21.16612
G1 X71.404 Y128.874 E25.42411
G1 X69.856 Y128.651 E25.5115
G1 X67.682 Y127.603 E25.64636
G1 X66.135 Y126.343 E25.75784
G1 X64.95 Y124.903 E25.86205
G1 X63.924 Y122.791 E25.99325
G1 X63.549 Y120.785 E26.10728
G1 X63.611 Y99.006 E27.32423
G1 X63.829 Y97.413 E27.41407
G1 X65.045 Y94.817 E27.57426
G1 X66.792 Y93.07 E27.71231
M204 S2000
G0 F7200 X67.093 Y93.447
M204 S500
G1 F1500 X68.73 Y92.36 E27.82211
G1 X69.326 Y92.064 E27.85929
G1 X71.461 Y91.531 E27.98225
G1 X148.505 Y91.529 E32.28724
G1 X150.531 Y92.027 E32.40382
G1 X152.371 Y93.023 E32.52073
G1 X153.712 Y94.186 E32.61991
G1 X155.062 Y95.956 E32.7443
G1 X155.806 Y98.129 E32.87264
G1 X155.967 Y99.904 E32.97223
G1 X155.904 Y120.968 E34.14923
G1 X155.733 Y122.145 E34.21568
G1 X154.982 Y124.107 E34.33307
G1 X153.639 Y125.917 E34.45901
G1 X152.029 Y127.215 E34.57457
G1 X151.401 Y127.609 E34.61599
G1 X149.373 Y128.304 E34.73578
G1 X147.607 Y128.467 E34.83488
G1 X71.472 Y128.399 E39.08908
G1 X69.998 Y128.187 E39.17229
G1 X67.941 Y127.195 E39.29989
G1 X66.477 Y126.003 E39.40538
G1 X65.357 Y124.642 E39.50387
G1 X64.384 Y122.639 E39.6283
G1 X64.029 Y120.74 E39.73625
G1 X64.087 Y99.071 E40.94705
G1 X64.295 Y97.551 E41.03278
G1 X65.446 Y95.094 E41.18438
G1 X67.093 Y93.447 E41.31453
M204 S2000
G0 F7200 X67.398 Y93.82
M204 S500
G1 F1500 X68.943 Y92.79 E41.41829
G1 X69.491 Y92.518 E41.45248
G1 X71.521 Y92.011 E41.56939
G1 X148.447 Y92.009 E45.86779
G1 X150.358 Y92.479 E45.97775
G1 X152.095 Y93.419 E46.08811
G1 X153.359 Y94.515 E46.18159
G1 X154.633 Y96.186 E46.299
G1 X155.333 Y98.23 E46.41973
G1 X155.487 Y99.903 E46.5136
G1 X155.429 Y120.899 E47.6868
G1 X155.265 Y122.025 E47.75038
G1 X154.559 Y123.871 E47.86082
G1 X153.289 Y125.583 E47.97993
G1 X151.774 Y126.808 E48.08879
G1 X151.192 Y127.173 E48.12718
G1 X149.272 Y127.831 E48.24059
G1 X147.607 Y127.987 E48.33403
G1 X71.54 Y127.924 E52.58443
G1 X70.138 Y127.722 E52.66358
G1 X68.201 Y126.788 E52.78374
G1 X66.819 Y125.663 E52.88331
G1 X65.764 Y124.381 E52.97608
G1 X64.844 Y122.487 E53.09374
G1 X64.509 Y120.695 E53.19561
G1 X64.563 Y99.136 E54.40026
G1 X64.761 Y97.689 E54.48187
G1 X65.847 Y95.371 E54.6249
G1 X67.398 Y93.82 E54.74747
M204 S2000
G0 F7200 X67.703 Y94.193
M204 S500
G1 F1500 X69.209 Y93.189 E54.8486
G1 X69.654 Y92.972 E54.87627
G1 X71.581 Y92.491 E54.98725
G1 X148.389 Y92.489 E59.27905
G1 X150.185 Y92.931 E59.3824
G1 X151.817 Y93.814 E59.48608
G1 X153.008 Y94.847 E59.57418
G1 X154.204 Y96.416 E59.68441
G1 X154.86 Y98.331 E59.79752
G1 X155.007 Y99.902 E59.88569
G1 X154.954 Y120.83 E61.05509
G1 X154.798 Y121.904 E61.11573
G1 X154.135 Y123.636 E61.21936
G1 X152.94 Y125.247 E61.33144
G1 X151.519 Y126.401 E61.43372
G1 X150.983 Y126.737 E61.46907
G1 X149.171 Y127.358 E61.5761
G1 X147.607 Y127.507 E61.66389
G1 X71.609 Y127.449 E65.91043
G1 X70.278 Y127.257 E65.98557
G1 X68.461 Y126.381 E66.09829
G1 X67.161 Y125.323 E66.19194
G1 X66.171 Y124.12 E66.279
G1 X65.304 Y122.335 E66.38988
G1 X64.989 Y120.65 E66.48566
G1 X65.039 Y99.201 E67.68417
G1 X65.227 Y97.827 E67.76166
G1 X66.248 Y95.648 E67.89612
G1 X67.703 Y94.193 E68.0111
M204 S2000
G0 F7200 X68.006 Y94.568
M204 S500
G1 F1500 X69.419 Y93.621 E68.10615
G1 X69.82 Y93.426 E68.13106
G1 X71.641 Y92.971 E68.23594
G1 X148.331 Y92.969 E72.52115
G1 X150.012 Y93.383 E72.61789
G1 X151.539 Y94.209 E72.7149
G1 X152.657 Y95.179 E72.7976
G1 X153.775 Y96.646 E72.90066
G1 X154.387 Y98.432 E73.00616
G1 X154.527 Y99.901 E73.08861
G1 X154.479 Y120.761 E74.25421
G1 X154.33 Y121.784 E74.31198
G1 X153.711 Y123.403 E74.40883
G1 X152.591 Y124.912 E74.51383
G1 X151.264 Y125.994 E74.60951
G1 X150.774 Y126.301 E74.64182
G1 X149.07 Y126.885 E74.74247
G1 X147.607 Y127.027 E74.8246
G1 X71.678 Y126.974 E79.06729
G1 X70.418 Y126.792 E79.13842
G1 X68.721 Y125.974 E79.24369
G1 X67.503 Y124.983 E79.33143
G1 X66.578 Y123.859 E79.41277
G1 X65.764 Y122.183 E79.51688
G1 X65.469 Y120.605 E79.60658
G1 X65.515 Y99.266 E80.79894
G1 X65.693 Y97.965 E80.87231
G1 X66.649 Y95.925 E80.9982
G1 X68.006 Y94.568 E81.10543
M204 S2000
G0 F7200 X68.31 Y94.942
M204 S500
G1 F1500 X69.629 Y94.053 E81.19431
G1 X69.985 Y93.88 E81.21643
G1 X71.701 Y93.451 E81.31526
G1 X148.273 Y93.449 E85.59388
G1 X149.837 Y93.834 E85.68388
G1 X151.265 Y94.607 E85.77461
G1 X152.304 Y95.508 E85.85146
G1 X153.347 Y96.876 E85.94758
G1 X153.914 Y98.532 E86.04539
G1 X154.047 Y99.9 E86.12219
G1 X154.004 Y120.692 E87.28398
G1 X153.863 Y121.663 E87.33881
G1 X153.286 Y123.171 E87.42903
G1 X152.242 Y124.578 E87.52693
G1 X151.009 Y125.587 E87.61595
G1 X150.565 Y125.865 E87.64522
G1 X148.969 Y126.412 E87.7395
G1 X147.607 Y126.547 E87.81597
G1 X71.746 Y126.499 E92.05486
G1 X70.56 Y126.328 E92.12182
G1 X68.983 Y125.567 E92.21966
G1 X67.842 Y124.64 E92.3018
G1 X66.985 Y123.598 E92.37719
G1 X66.224 Y122.031 E92.47453
G1 X65.949 Y120.56 E92.55815
G1 X65.991 Y99.331 E93.74436
G1 X66.159 Y98.103 E93.81362
G1 X67.05 Y96.202 E93.93093
G1 X68.31 Y94.942 E94.0305
M204 S2000
G0 F7200 X68.616 Y95.314
M204 S500
G1 F1500 X69.839 Y94.485 E94.11306
G1 X70.15 Y94.334 E94.13237
G1 X71.761 Y93.931 E94.22517
G1 X148.215 Y93.929 E98.49719
G1 X149.662 Y94.285 E98.58045
G1 X150.988 Y95.003 E98.66471
G1 X151.953 Y95.84 E98.73609
G1 X152.918 Y97.106 E98.82504
G1 X153.441 Y98.633 E98.91523
G1 X153.567 Y99.899 E98.98632
G1 X153.529 Y120.623 E100.14431
G1 X153.396 Y121.542 E100.1962
G1 X152.862 Y122.936 E100.27961
G1 X151.892 Y124.244 E100.3706
G1 X150.705 Y125.215 E100.45629
G1 X150.358 Y125.428 E100.47904
G1 X148.868 Y125.939 E100.56706
G1 X147.607 Y126.067 E100.63788
G1 X71.814 Y126.024 E104.87297
G1 X70.702 Y125.864 E104.93575
G1 X69.245 Y125.16 E105.02617
G1 X68.181 Y124.296 E105.10275
G1 X67.392 Y123.337 E105.17214
G1 X66.684 Y121.879 E105.26271
G1 X66.429 Y120.515 E105.34025
G1 X66.467 Y99.396 E106.52032
G1 X66.625 Y98.241 E106.58545
G1 X67.451 Y96.479 E106.69419
G1 X68.616 Y95.314 E106.78625
M204 S2000
G0 F7200 X68.921 Y95.687
M204 S500
G1 F1500 X70.048 Y94.917 E106.86252
G1 X70.312 Y94.789 E106.87891
G1 X71.822 Y94.411 E106.96589
G1 X148.157 Y94.409 E111.23126
G1 X149.489 Y94.737 E111.30792
G1 X150.712 Y95.399 E111.38562
G1 X151.6 Y96.169 E111.4513
G1 X152.49 Y97.336 E111.53331
G1 X152.968 Y98.733 E111.61581
G1 X153.087 Y99.898 E111.68124
G1 X153.054 Y120.554 E112.83544
G1 X152.928 Y121.422 E112.88445
G1 X152.438 Y122.703 E112.96109
G1 X151.544 Y123.908 E113.04493
G1 X150.401 Y124.843 E113.12744
G1 X150.152 Y124.991 E113.14363
G1 X148.762 Y125.468 E113.22574
G1 X147.607 Y125.587 E113.29062
G1 X71.883 Y125.549 E117.52185
G1 X70.844 Y125.399 E117.58051
G1 X69.504 Y124.752 E117.66366
G1 X68.522 Y123.955 E117.73433
G1 X67.799 Y123.076 E117.79792
G1 X67.144 Y121.727 E117.88172
G1 X66.909 Y120.47 E117.95317
G1 X66.943 Y99.461 E119.12709
G1 X67.091 Y98.379 E119.18811
G1 X67.852 Y96.756 E119.28828
G1 X68.921 Y95.687 E119.37275
M204 S2000
G0 F7200 X69.227 Y96.059
M204 S500
G1 F1500 X70.319 Y95.313 E119.44665
G1 X70.474 Y95.243 E119.45615
G1 X71.882 Y94.891 E119.53725
G1 X148.099 Y94.889 E123.79603
G1 X149.314 Y95.188 E123.86594
G1 X150.435 Y95.795 E123.93718
G1 X151.249 Y96.501 E123.99738
G1 X152.061 Y97.566 E124.07222
G1 X152.497 Y98.838 E124.14735
G1 X152.607 Y99.897 E124.20684
G1 X152.579 Y120.485 E125.35724
G1 X152.461 Y121.301 E125.40331
G1 X152.013 Y122.471 E125.47332
G1 X151.196 Y123.572 E125.54992
G1 X150.097 Y124.471 E125.62926
G1 X149.949 Y124.553 E125.63872
G1 X148.656 Y124.997 E125.71511
G1 X147.607 Y125.107 E125.77404
G1 X71.951 Y125.074 E130.00147
G1 X70.986 Y124.935 E130.05595
G1 X69.763 Y124.344 E130.13185
G1 X68.863 Y123.614 E130.1966
G1 X68.206 Y122.815 E130.2544
G1 X67.604 Y121.575 E130.33143
G1 X67.389 Y120.425 E130.3968
G1 X67.419 Y99.526 E131.56457
G1 X67.557 Y98.517 E131.62148
G1 X68.253 Y97.033 E131.71307
G1 X69.227 Y96.059 E131.79003
M204 S2000
G0 F7200 X69.533 Y96.431
M204 S500
G1 F1500 X70.59 Y95.709 E131.86156
G1 X71.942 Y95.371 E131.93943
G1 X148.041 Y95.369 E136.19162
G1 X149.141 Y95.64 E136.25492
G1 X150.159 Y96.191 E136.3196
G1 X150.896 Y96.83 E136.3741
G1 X151.632 Y97.796 E136.44196
G1 X152.026 Y98.943 E136.50973
G1 X152.127 Y99.896 E136.56328
G1 X152.104 Y120.416 E137.70988
G1 X151.993 Y121.181 E137.75307
G1 X151.59 Y122.235 E137.81612
G1 X150.846 Y123.238 E137.8859
G1 X149.793 Y124.099 E137.96191
G1 X148.55 Y124.526 E138.03534
G1 X147.607 Y124.627 E138.08834
G1 X72.019 Y124.599 E142.31197
G1 X71.128 Y124.471 E142.36227
G1 X70.022 Y123.936 E142.43092
G1 X69.204 Y123.273 E142.48975
G1 X68.613 Y122.554 E142.54176
G1 X68.064 Y121.423 E142.61201
G1 X67.869 Y120.38 E142.6713
G1 X67.895 Y99.591 E143.83293
G1 X68.023 Y98.655 E143.88571
G1 X68.654 Y97.31 E143.96873
G1 X69.533 Y96.431 E144.03819
M204 S2000
G0 F7200 X69.839 Y96.803
M204 S500
G1 F1500 X70.788 Y96.155 E144.1024
G1 X72.003 Y95.851 E144.17238
G1 X147.983 Y95.849 E148.41792
G1 X148.968 Y96.092 E148.47461
G1 X149.884 Y96.587 E148.53279
G1 X150.543 Y97.159 E148.58155
G1 X151.203 Y98.026 E148.64243
G1 X151.555 Y99.049 E148.70288
G1 X151.647 Y99.896 E148.75049
G1 X151.629 Y120.347 E149.89323
G1 X151.526 Y121.06 E149.93348
G1 X151.165 Y122.003 E149.98991
G1 X150.498 Y122.902 E150.05246
G1 X149.555 Y123.673 E150.12052
G1 X148.444 Y124.055 E150.18616
G1 X147.607 Y124.147 E150.23321
G1 X72.088 Y124.124 E154.45299
G1 X71.27 Y124.006 E154.49917
G1 X70.281 Y123.528 E154.56055
G1 X69.545 Y122.932 E154.61347
G1 X69.02 Y122.293 E154.65968
G1 X68.524 Y121.271 E154.72316
G1 X68.349 Y120.335 E154.77636
G1 X68.371 Y99.656 E155.93185
G1 X68.489 Y98.793 E155.98052
G1 X69.055 Y97.587 E156.05496
G1 X69.839 Y96.803 E156.11691
M204 S2000
G0 F7200 X70.145 Y97.175
M204 S500
G1 F1500 X70.987 Y96.6 E156.17388
G1 X72.063 Y96.331 E156.23586
G1 X147.925 Y96.329 E160.4748
G1 X148.795 Y96.544 E160.52487
G1 X149.609 Y96.983 E160.57655
G1 X150.19 Y97.488 E160.61957
G1 X150.774 Y98.256 E160.67348
G1 X151.084 Y99.155 E160.72661
G1 X151.167 Y99.896 E160.76828
G1 X151.154 Y120.279 E161.90722
G1 X151.059 Y120.938 E161.94442
G1 X150.741 Y121.768 E161.99409
G1 X150.148 Y122.568 E162.04973
G1 X149.317 Y123.247 E162.10969
G1 X148.338 Y123.584 E162.16755
G1 X147.607 Y123.667 E162.20866
G1 X72.156 Y123.649 E166.42463
G1 X71.412 Y123.542 E166.46663
G1 X70.54 Y123.12 E166.52076
G1 X69.886 Y122.591 E166.56777
G1 X69.427 Y122.032 E166.60818
G1 X68.984 Y121.119 E166.66489
G1 X68.829 Y120.29 E166.71201
G1 X68.851 Y99.657 E167.86492
G1 X68.954 Y98.93 E167.90595
G1 X69.454 Y97.866 E167.97164
G1 X70.145 Y97.175 E168.02625
M204 S2000
G0 F7200 X70.451 Y97.547
M204 S500
G1 F1500 X71.186 Y97.045 E168.07598
G1 X72.123 Y96.811 E168.12994
G1 X147.867 Y96.809 E172.36229
G1 X148.619 Y96.995 E172.40558
G1 X149.337 Y97.382 E172.45116
G1 X149.837 Y97.817 E172.48819
G1 X150.345 Y98.485 E172.53508
G1 X150.613 Y99.262 E172.58101
G1 X150.687 Y99.896 E172.61667
G1 X150.679 Y120.21 E173.75176
G1 X150.591 Y120.818 E173.78609
G1 X150.318 Y121.532 E173.8288
G1 X149.796 Y122.236 E173.87777
G1 X149.081 Y122.821 E173.92939
G1 X148.233 Y123.113 E173.97951
G1 X147.607 Y123.187 E174.01473
G1 X72.224 Y123.174 E178.22691
G1 X71.554 Y123.078 E178.26473
G1 X70.799 Y122.712 E178.31161
G1 X70.227 Y122.25 E178.3527
G1 X69.833 Y121.77 E178.38739
G1 X69.444 Y120.968 E178.4372
G1 X69.309 Y120.245 E178.4783
G1 X69.326 Y99.724 E179.62495
G1 X69.419 Y99.068 E179.66197
G1 X69.853 Y98.145 E179.71896
G1 X70.451 Y97.547 E179.76622
M204 S2000
G0 F7200 X70.757 Y97.919
M204 S500
G1 F1500 X71.385 Y97.49 E179.80872
G1 X72.183 Y97.291 E179.85467
G1 X147.809 Y97.289 E184.08043
G1 X148.443 Y97.446 E184.11692
G1 X149.065 Y97.781 E184.1564
G1 X149.486 Y98.147 E184.18757
G1 X149.915 Y98.712 E184.22721
G1 X150.143 Y99.373 E184.26628
G1 X150.207 Y99.896 E184.29572
G1 X150.204 Y120.141 E185.42695
G1 X150.123 Y120.699 E185.45846
G1 X149.894 Y121.299 E185.49434
G1 X149.446 Y121.902 E185.53632
G1 X148.845 Y122.395 E185.57975
G1 X148.124 Y122.643 E185.62236
G1 X147.607 Y122.707 E185.65147
G1 X72.292 Y122.699 E189.85985
G1 X71.698 Y122.614 E189.89338
G1 X71.057 Y122.303 E189.93319
G1 X70.565 Y121.906 E189.96851
G1 X70.242 Y121.512 E189.99698
G1 X69.904 Y120.816 E190.04021
G1 X69.789 Y120.2 E190.07523
G1 X69.801 Y99.792 E191.21557
G1 X69.884 Y99.209 E191.24847
G1 X70.253 Y98.423 E191.29699
G1 X70.757 Y97.919 E191.33682
M204 S2000
G0 F7200 X71.369 Y98.663
M204 S500
G1 F1500 X71.783 Y98.38 E191.36484
G1 X72.303 Y98.251 E191.39477
G1 X147.689 Y98.249 E195.60712
G1 X148.096 Y98.35 E195.63055
G1 X148.515 Y98.575 E195.65713
G1 X148.78 Y98.806 E195.67677
G1 X149.057 Y99.17 E195.70233
G1 X149.204 Y99.596 E195.72751
G1 X149.247 Y99.896 E195.74444
G1 X149.249 Y120.072 E196.87182
G1 X149.189 Y120.456 E196.89354
G1 X149.045 Y120.832 E196.91603
G1 X148.744 Y121.237 E196.94423
G1 X148.372 Y121.542 E196.97111
G1 X147.903 Y121.704 E196.99883
G1 X147.607 Y121.747 E197.01555
G1 X72.428 Y121.749 E201.21633
G1 X71.986 Y121.686 E201.24127
G1 X71.573 Y121.485 E201.26694
G1 X71.244 Y121.22 E201.29054
G1 X71.058 Y120.993 E201.30694
G1 X70.824 Y120.512 E201.33683
G1 X70.749 Y120.11 E201.35968
G1 X70.751 Y99.928 E202.48739
G1 X70.814 Y99.485 E202.51239
G1 X71.051 Y98.981 E202.54351
G1 X71.369 Y98.663 E202.56864
M204 S2000
G0 F7200 X71.063 Y98.291
M204 S500
G1 F1500 X71.584 Y97.935 E202.6039
G1 X72.243 Y97.771 E202.64185
G1 X147.749 Y97.769 E206.8609
G1 X148.269 Y97.898 E206.89084
G1 X148.789 Y98.177 E206.92381
G1 X149.134 Y98.478 E206.94939
G1 X149.486 Y98.941 E206.98189
G1 X149.673 Y99.483 E207.01393
G1 X149.727 Y99.896 E207.0372
G1 X149.729 Y120.072 E208.16458
