;FLAVOR:Marlin
;TIME:1275
;Filament used: 1.72528m
;Layer height: 0.28
;MINX:63.064
;MINY:90.577
;MINZ:0.28
;MAXX:156.938
;MAXY:129.436
;MAXZ:4.12
;TARGET_MACHINE.NAME:Creality Ender-3 S1 Pro
;Generated with Cura_SteamEngine 5.6.0
M82 ;absolute extrusion mode
; Ender 3 S1 Pro Start G-code
M413 S0 ; Disable power loss recovery
G92 E0 ; Reset Extruder
; Prep surfaces before auto home for better accuracy
M140 S85.0
M104 S245.0
G28 X Y; always home X and Y
G28 O ; Home all untrusted axes
M420 S1 Z10 ; use bed leveling
G1 Z10.0 F3000 ; Move Z Axis up little to prevent scratching of Heat Bed
G1 X0 Y0

M190 S85.0
M109 S245.0

G1 X0.1 Y20 Z0.3 F5000.0 ; Move to start position
G1 X0.1 Y200.0 Z0.3 F1500.0 E15 ; Draw the first line
G1 X0.4 Y200.0 Z0.3 F5000.0 ; Move to side a little
G1 X0.4 Y20 Z0.3 F1500.0 E30 ; Draw the second line
G92 E0 ; Reset Extruder
G1 Z2.0 F3000 ; Move Z Axis up little to prevent scratching of Heat Bed
G1 X5 Y20 Z0.3 F5000.0 ; Move over to prevent blob squish
G92 E0
G92 E0
G1 F2400 E-0.8
;LAYER_COUNT:14
;LAYER:0
M107
M204 S2000
G1 F300 Z0.48
G0 F7200 X67.432 Y91.971 Z0.48
M204 S500
;TYPE:SKIRT
G1 F300 Z0.28
G1 F2400 E0
G1 F1500 X69.774 Y90.873 E0.14453
G1 X71.611 Y90.622 E0.24813
G1 X148.45 Y90.577 E4.54167
G1 X150.48 Y90.999 E4.65752
G1 X152.295 Y91.852 E4.76958
G1 X153.32 Y92.471 E4.83649
G1 X154.74 Y93.957 E4.95134
G1 X155.697 Y95.184 E5.03829
G1 X156.684 Y97.579 E5.18303
G1 X156.901 Y99.383 E5.28456
G1 X156.928 Y118.816 E6.37042
G1 X156.938 Y119.508 E6.40909
G1 X156.907 Y121.042 E6.49482
G1 X156.424 Y123.2 E6.61839
G1 X155.475 Y125.115 E6.73781
G1 X154.122 Y126.766 E6.85709
G1 X152.333 Y128.186 E6.98471
G1 X149.94 Y129.182 E7.12955
G1 X147.799 Y129.422 E7.24993
G1 X146.734 Y129.436 E7.30944
G1 X146.366 Y129.428 E7.33001
G1 X73.064 Y129.436 E11.42591
G1 X71.526 Y129.407 E11.51186
G1 X69.394 Y128.972 E11.63345
G1 X67.446 Y128.012 E11.75479
G1 X65.903 Y126.801 E11.86439
G1 X64.384 Y124.947 E11.99832
G1 X63.647 Y123.252 E12.1016
G1 X63.089 Y121.491 E12.20482
G1 X63.064 Y119.234 E12.33094
G1 X63.072 Y118.866 E12.35151
G1 X63.117 Y99.105 E13.4557
G1 X63.287 Y97.668 E13.53655
G1 X64.134 Y95.556 E13.6637
G1 X65.427 Y93.623 E13.79365
G1 X67.432 Y91.971 E13.93881
M204 S2000
G0 F7200 X67.69 Y92.381
M204 S500
G1 F1500 X69.912 Y91.339 E14.07595
G1 X71.676 Y91.098 E14.17543
G1 X148.4 Y91.057 E18.46254
G1 X150.327 Y91.458 E18.57252
G1 X152.047 Y92.263 E18.67863
G1 X153.016 Y92.848 E18.74188
G1 X154.361 Y94.252 E18.85052
G1 X155.278 Y95.428 E18.93385
G1 X156.215 Y97.701 E19.07122
G1 X156.424 Y99.44 E19.16909
G1 X156.448 Y118.823 E20.25216
G1 X156.458 Y119.498 E20.28988
G1 X156.428 Y120.987 E20.3731
G1 X155.969 Y123.038 E20.49054
G1 X155.069 Y124.854 E20.60379
G1 X153.784 Y126.422 E20.71707
G1 X152.088 Y127.768 E20.83805
G1 X149.819 Y128.713 E20.97539
G1 X147.793 Y128.942 E21.08932
G1 X146.744 Y128.956 E21.14794
G1 X146.376 Y128.948 E21.16851
G1 X73.073 Y128.956 E25.26446
G1 X71.577 Y128.928 E25.34807
G1 X69.549 Y128.514 E25.46372
G1 X67.706 Y127.605 E25.57855
G1 X66.239 Y126.455 E25.68271
G1 X64.798 Y124.696 E25.80976
G1 X64.105 Y123.107 E25.90663
G1 X63.568 Y121.413 E26.00593
G1 X63.544 Y119.244 E26.12713
G1 X63.552 Y118.876 E26.1477
G1 X63.594 Y99.161 E27.24932
G1 X63.757 Y97.785 E27.32674
G1 X64.56 Y95.783 E27.44727
G1 X65.786 Y93.949 E27.57054
G1 X67.69 Y92.381 E27.70836
M204 S2000
G0 F7200 X67.945 Y92.792
M204 S500
G1 F1500 X70.05 Y91.805 E27.83827
G1 X71.741 Y91.574 E27.93364
G1 X148.35 Y91.537 E32.21432
G1 X150.175 Y91.917 E32.31848
G1 X151.799 Y92.674 E32.4186
G1 X152.713 Y93.226 E32.47826
G1 X153.982 Y94.547 E32.58062
G1 X154.859 Y95.672 E32.66032
G1 X155.746 Y97.823 E32.79033
G1 X155.947 Y99.497 E32.88454
G1 X155.968 Y118.83 E33.96481
G1 X155.978 Y119.488 E34.00159
G1 X155.949 Y120.932 E34.08229
G1 X155.514 Y122.876 E34.1936
G1 X154.663 Y124.593 E34.30068
G1 X153.446 Y126.078 E34.40796
G1 X151.843 Y127.35 E34.52231
G1 X149.697 Y128.244 E34.65221
G1 X147.786 Y128.462 E34.75968
G1 X146.754 Y128.476 E34.81735
G1 X146.386 Y128.468 E34.83792
G1 X73.082 Y128.476 E38.93393
G1 X71.628 Y128.449 E39.01519
G1 X69.708 Y128.057 E39.12468
G1 X67.962 Y127.196 E39.23346
G1 X66.575 Y126.108 E39.33196
G1 X65.212 Y124.445 E39.45211
G1 X64.563 Y122.962 E39.54256
G1 X64.047 Y121.335 E39.63794
G1 X64.024 Y119.254 E39.75423
G1 X64.032 Y118.886 E39.77479
G1 X64.071 Y99.217 E40.87384
G1 X64.226 Y97.906 E40.94761
G1 X64.988 Y96.006 E41.06199
G1 X66.147 Y94.273 E41.17849
G1 X67.945 Y92.792 E41.30865
M204 S2000
G0 F7200 X68.2 Y93.203
M204 S500
G1 F1500 X70.188 Y92.271 E41.43133
G1 X71.806 Y92.05 E41.52258
G1 X148.3 Y92.017 E45.79684
G1 X150.025 Y92.376 E45.89529
G1 X151.551 Y93.085 E45.98931
G1 X152.41 Y93.604 E46.04539
G1 X153.603 Y94.842 E46.14146
G1 X154.44 Y95.916 E46.21754
G1 X155.277 Y97.945 E46.34019
G1 X155.47 Y99.554 E46.43074
G1 X155.488 Y118.83 E47.50782
G1 X155.498 Y119.478 E47.54404
G1 X155.47 Y120.877 E47.62222
G1 X155.059 Y122.714 E47.72741
G1 X154.257 Y124.332 E47.82831
G1 X153.108 Y125.734 E47.9296
G1 X151.597 Y126.933 E48.03738
G1 X149.577 Y127.774 E48.15965
G1 X147.779 Y127.982 E48.26078
G1 X146.764 Y127.996 E48.3175
G1 X146.396 Y127.988 E48.33807
G1 X73.091 Y127.996 E52.43414
G1 X71.679 Y127.97 E52.51305
G1 X69.867 Y127.6 E52.61639
G1 X68.218 Y126.787 E52.71912
G1 X66.911 Y125.762 E52.81193
G1 X65.627 Y124.194 E52.92517
G1 X65.003 Y122.769 E53.0121
G1 X64.526 Y121.258 E53.10063
G1 X64.504 Y119.264 E53.21206
G1 X64.512 Y118.896 E53.23263
G1 X64.548 Y99.273 E54.3291
G1 X64.696 Y98.023 E54.39944
G1 X65.414 Y96.233 E54.5072
G1 X66.508 Y94.597 E54.61717
G1 X68.2 Y93.203 E54.73967
M204 S2000
G0 F7200 X68.455 Y93.614
M204 S500
G1 F1500 X70.326 Y92.737 E54.85513
G1 X71.871 Y92.526 E54.94226
G1 X148.25 Y92.497 E59.2101
G1 X149.873 Y92.835 E59.30273
G1 X151.303 Y93.496 E59.39076
G1 X152.107 Y93.982 E59.44325
G1 X153.224 Y95.137 E59.53303
G1 X154.021 Y96.16 E59.6055
G1 X154.808 Y98.067 E59.72077
G1 X154.993 Y99.611 E59.80766
G1 X155.008 Y118.83 E60.88156
G1 X155.018 Y119.468 E60.91722
G1 X154.991 Y120.822 E60.99289
G1 X154.604 Y122.552 E61.09195
G1 X153.851 Y124.071 E61.18668
G1 X152.77 Y125.39 E61.28197
G1 X151.352 Y126.515 E61.38311
G1 X149.455 Y127.305 E61.49794
G1 X147.772 Y127.502 E61.59262
G1 X146.774 Y127.516 E61.64839
G1 X146.406 Y127.508 E61.66896
G1 X73.1 Y127.516 E65.76508
G1 X71.73 Y127.491 E65.84164
G1 X70.023 Y127.142 E65.939
G1 X68.478 Y126.38 E66.03526
G1 X67.247 Y125.416 E66.12262
G1 X66.04 Y123.941 E66.22912
G1 X65.461 Y122.624 E66.30951
G1 X65.005 Y121.18 E66.39412
G1 X64.984 Y119.274 E66.50063
G1 X64.992 Y118.906 E66.5212
G1 X65.025 Y99.329 E67.6151
G1 X65.165 Y98.144 E67.68178
G1 X65.842 Y96.456 E67.7834
G1 X66.869 Y94.921 E67.8866
G1 X68.455 Y93.614 E68.00144
M204 S2000
G0 F7200 X68.713 Y94.024
M204 S500
G1 F1500 X70.464 Y93.203 E68.1095
G1 X71.936 Y93.002 E68.19251
G1 X148.2 Y92.977 E72.45392
G1 X149.72 Y93.293 E72.54067
G1 X151.101 Y93.932 E72.62569
G1 X151.805 Y94.361 E72.67176
G1 X152.879 Y95.471 E72.75806
G1 X153.601 Y96.402 E72.82389
G1 X154.339 Y98.189 E72.93193
G1 X154.516 Y99.668 E73.01516
G1 X154.528 Y118.83 E74.08587
G1 X154.538 Y119.458 E74.12097
G1 X154.512 Y120.767 E74.19413
G1 X154.149 Y122.39 E74.28706
G1 X153.445 Y123.81 E74.37562
G1 X152.432 Y125.046 E74.46491
G1 X151.107 Y126.097 E74.55941
G1 X149.334 Y126.836 E74.66674
G1 X147.765 Y127.022 E74.75503
G1 X146.784 Y127.036 E74.80985
G1 X146.416 Y127.028 E74.83042
G1 X73.109 Y127.036 E78.9266
G1 X71.781 Y127.012 E79.00081
G1 X70.182 Y126.685 E79.09201
G1 X68.734 Y125.971 E79.18222
G1 X67.583 Y125.069 E79.26393
G1 X66.453 Y123.689 E79.36359
G1 X65.919 Y122.479 E79.4375
G1 X65.484 Y121.102 E79.51819
G1 X65.464 Y119.284 E79.61978
G1 X65.472 Y118.916 E79.64035
G1 X65.502 Y99.385 E80.73168
G1 X65.635 Y98.261 E80.79492
G1 X66.268 Y96.683 E80.88993
G1 X67.228 Y95.247 E80.98645
G1 X68.713 Y94.024 E81.09394
M204 S2000
G0 F7200 X68.968 Y94.435
M204 S500
G1 F1500 X70.602 Y93.669 E81.19478
G1 X72.001 Y93.478 E81.27368
G1 X148.15 Y93.457 E85.52866
G1 X149.568 Y93.752 E85.60959
G1 X150.851 Y94.342 E85.68849
G1 X151.503 Y94.739 E85.73115
G1 X152.534 Y95.805 E85.81401
G1 X153.181 Y96.644 E85.87322
G1 X153.87 Y98.311 E85.97401
G1 X154.039 Y99.725 E86.05358
G1 X154.048 Y118.83 E87.12111
G1 X154.058 Y119.449 E87.1557
G1 X154.033 Y120.712 E87.22629
G1 X153.694 Y122.228 E87.31309
G1 X153.039 Y123.549 E87.39548
G1 X152.094 Y124.702 E87.47878
G1 X150.862 Y125.679 E87.56664
G1 X149.212 Y126.367 E87.66653
G1 X147.758 Y126.542 E87.74836
G1 X146.794 Y126.556 E87.80223
G1 X146.426 Y126.548 E87.8228
G1 X73.118 Y126.556 E91.91903
G1 X71.832 Y126.533 E91.9909
G1 X70.341 Y126.228 E92.07594
G1 X68.99 Y125.562 E92.1601
G1 X67.919 Y124.722 E92.23616
G1 X66.867 Y123.438 E92.32891
G1 X66.377 Y122.334 E92.3964
G1 X65.963 Y121.024 E92.47317
G1 X65.944 Y119.294 E92.56984
G1 X65.952 Y118.926 E92.59041
G1 X65.979 Y99.441 E93.67918
G1 X66.104 Y98.382 E93.73876
G1 X66.696 Y96.906 E93.82762
G1 X67.589 Y95.571 E93.91737
G1 X68.968 Y94.435 E94.0172
M204 S2000
G0 F7200 X69.223 Y94.846
M204 S500
G1 F1500 X70.74 Y94.135 E94.11081
G1 X72.066 Y93.954 E94.18559
G1 X148.1 Y93.937 E98.43415
G1 X149.417 Y94.211 E98.50931
G1 X150.65 Y94.778 E98.58515
G1 X151.2 Y95.116 E98.62122
G1 X152.189 Y96.139 E98.70073
G1 X152.761 Y96.886 E98.7533
G1 X153.401 Y98.433 E98.84684
G1 X153.562 Y99.782 E98.92276
G1 X153.568 Y118.83 E99.9871
G1 X153.578 Y119.44 E100.02119
G1 X153.554 Y120.657 E100.08921
G1 X153.239 Y122.066 E100.16988
G1 X152.633 Y123.288 E100.2461
G1 X151.756 Y124.358 E100.3234
G1 X150.617 Y125.261 E100.40462
G1 X149.09 Y125.898 E100.49707
G1 X147.701 Y126.065 E100.57525
G1 X146.804 Y126.076 E100.62537
G1 X146.436 Y126.068 E100.64594
G1 X73.126 Y126.076 E104.74228
G1 X71.883 Y126.054 E104.81175
G1 X70.497 Y125.77 E104.8908
G1 X69.25 Y125.155 E104.9685
G1 X68.255 Y124.376 E105.03911
G1 X67.28 Y123.185 E105.12511
G1 X66.835 Y122.189 E105.18607
G1 X66.442 Y120.946 E105.25891
G1 X66.424 Y119.304 E105.35067
G1 X66.432 Y118.936 E105.37123
G1 X66.456 Y99.497 E106.45743
G1 X66.573 Y98.503 E106.51335
G1 X67.124 Y97.129 E106.59607
G1 X67.95 Y95.895 E106.67905
G1 X69.223 Y94.846 E106.77122
M204 S2000
G0 F7200 X69.478 Y95.257
M204 S500
G1 F1500 X70.878 Y94.601 E106.85761
G1 X72.131 Y94.43 E106.92827
G1 X148.05 Y94.417 E111.1704
G1 X149.266 Y94.67 E111.2398
G1 X150.449 Y95.214 E111.31256
G1 X150.898 Y95.494 E111.34212
G1 X151.808 Y96.431 E111.41511
G1 X152.342 Y97.129 E111.46421
G1 X152.933 Y98.556 E111.55052
G1 X153.082 Y99.782 E111.61953
G1 X153.088 Y118.83 E112.68387
G1 X153.098 Y119.431 E112.71746
G1 X153.075 Y120.602 E112.7829
G1 X152.784 Y121.904 E112.85745
G1 X152.227 Y123.027 E112.9275
G1 X151.418 Y124.014 E112.99881
G1 X150.372 Y124.843 E113.07338
G1 X148.965 Y125.43 E113.15857
G1 X147.695 Y125.585 E113.23006
G1 X146.814 Y125.596 E113.27929
G1 X146.446 Y125.588 E113.29986
G1 X73.134 Y125.596 E117.39632
G1 X71.934 Y125.575 E117.46338
G1 X70.656 Y125.313 E117.53627
G1 X69.506 Y124.746 E117.60792
G1 X68.591 Y124.029 E117.67287
G1 X67.693 Y122.933 E117.75205
G1 X67.293 Y122.044 E117.80652
G1 X66.921 Y120.868 E117.87544
G1 X66.904 Y119.314 E117.96228
G1 X66.912 Y118.946 E117.98284
G1 X66.933 Y99.553 E119.06647
G1 X67.043 Y98.62 E119.11896
G1 X67.55 Y97.356 E119.19506
G1 X68.311 Y96.219 E119.27151
G1 X69.478 Y95.257 E119.35602
M204 S2000
G0 F7200 X69.736 Y95.667
M204 S500
G1 F1500 X71.016 Y95.067 E119.43501
G1 X72.196 Y94.906 E119.50155
G1 X148 Y94.897 E123.73726
G1 X149.115 Y95.129 E123.80089
G1 X150.248 Y95.65 E123.87058
G1 X150.597 Y95.872 E123.89369
G1 X151.427 Y96.722 E123.96007
G1 X151.922 Y97.37 E124.00563
G1 X152.464 Y98.676 E124.08464
G1 X152.605 Y99.84 E124.15016
G1 X152.608 Y118.83 E125.21127
G1 X152.618 Y119.422 E125.24435
G1 X152.596 Y120.547 E125.30722
G1 X152.329 Y121.742 E125.37564
G1 X151.821 Y122.766 E125.43951
G1 X151.08 Y123.67 E125.50483
G1 X150.127 Y124.425 E125.57277
G1 X148.84 Y124.962 E125.65069
G1 X147.689 Y125.105 E125.7155
G1 X146.824 Y125.116 E125.76383
G1 X146.456 Y125.108 E125.7844
G1 X73.142 Y125.116 E129.88097
G1 X71.985 Y125.096 E129.94563
G1 X70.815 Y124.856 E130.01237
G1 X69.762 Y124.337 E130.07796
G1 X68.927 Y123.682 E130.13726
G1 X68.106 Y122.68 E130.20965
G1 X67.751 Y121.899 E130.25758
G1 X67.4 Y120.79 E130.32258
G1 X67.384 Y119.324 E130.4045
G1 X67.392 Y118.956 E130.42507
G1 X67.41 Y99.609 E131.50612
G1 X67.512 Y98.741 E131.55496
G1 X67.978 Y97.579 E131.62491
G1 X68.67 Y96.545 E131.69443
G1 X69.736 Y95.667 E131.7716
M204 S2000
G0 F7200 X69.991 Y96.078
M204 S500
G1 F1500 X71.154 Y95.533 E131.84337
G1 X72.261 Y95.382 E131.9058
G1 X147.95 Y95.377 E136.13507
G1 X148.964 Y95.588 E136.19295
G1 X150.047 Y96.086 E136.25955
G1 X150.295 Y96.249 E136.27614
G1 X151.046 Y97.013 E136.336
G1 X151.503 Y97.611 E136.37805
G1 X151.995 Y98.796 E136.44975
G1 X152.128 Y99.898 E136.51177
G1 X152.128 Y118.83 E137.56963
G1 X152.138 Y119.413 E137.60221
G1 X152.117 Y120.492 E137.66252
G1 X151.874 Y121.58 E137.72481
G1 X151.415 Y122.505 E137.78251
G1 X150.742 Y123.326 E137.84183
G1 X149.882 Y124.007 E137.90312
G1 X148.715 Y124.494 E137.97378
G1 X147.683 Y124.625 E138.03191
G1 X146.834 Y124.636 E138.07935
G1 X146.466 Y124.628 E138.09992
G1 X73.15 Y124.636 E142.1966
G1 X72.037 Y124.617 E142.2588
G1 X70.97 Y124.398 E142.31967
G1 X70.022 Y123.93 E142.37874
G1 X69.263 Y123.336 E142.43259
G1 X68.518 Y122.426 E142.49831
G1 X68.209 Y121.754 E142.53964
G1 X67.879 Y120.712 E142.60071
G1 X67.864 Y119.334 E142.67772
G1 X67.872 Y118.966 E142.69828
G1 X67.887 Y99.665 E143.77677
G1 X67.982 Y98.858 E143.82217
G1 X68.404 Y97.806 E143.88551
G1 X69.031 Y96.869 E143.9485
G1 X69.991 Y96.078 E144.01801
M204 S2000
G0 F7200 X70.246 Y96.489
M204 S500
G1 F1500 X71.292 Y95.999 E144.08255
G1 X72.326 Y95.858 E144.14086
G1 X147.9 Y95.857 E148.36371
G1 X148.813 Y96.047 E148.41582
G1 X149.846 Y96.522 E148.47935
G1 X149.986 Y96.62 E148.4889
G1 X150.704 Y97.35 E148.54612
G1 X151.084 Y97.853 E148.58134
G1 X151.527 Y98.919 E148.64584
G1 X151.648 Y99.898 E148.70096
G1 X151.648 Y118.83 E149.75883
G1 X151.658 Y119.404 E149.79091
G1 X151.638 Y120.437 E149.84864
G1 X151.419 Y121.418 E149.9048
G1 X151.009 Y122.244 E149.95633
G1 X150.407 Y122.979 E150.00942
G1 X149.634 Y123.59 E150.06447
G1 X148.59 Y124.026 E150.12769
G1 X147.677 Y124.145 E150.17914
G1 X146.844 Y124.156 E150.22569
G1 X146.476 Y124.148 E150.24626
G1 X73.158 Y124.156 E154.34305
G1 X72.088 Y124.138 E154.40285
G1 X71.128 Y123.941 E154.4576
G1 X70.28 Y123.522 E154.51046
G1 X69.602 Y122.992 E154.55854
G1 X68.928 Y122.168 E154.61803
G1 X68.667 Y121.609 E154.6525
G1 X68.358 Y120.634 E154.70965
G1 X68.344 Y119.344 E154.78174
G1 X68.352 Y118.976 E154.8023
G1 X68.364 Y99.721 E155.87822
G1 X68.451 Y98.979 E155.91996
G1 X68.832 Y98.029 E155.97715
G1 X69.392 Y97.193 E156.03338
G1 X70.246 Y96.489 E156.09522
M204 S2000
G0 F7200 X70.504 Y96.899
M204 S500
G1 F1500 X71.43 Y96.465 E156.15236
G1 X72.391 Y96.334 E156.20656
G1 X147.85 Y96.337 E160.42298
G1 X148.662 Y96.506 E160.46933
G1 X149.645 Y96.958 E160.52978
G1 X150.321 Y97.64 E160.58344
G1 X150.666 Y98.096 E160.61539
G1 X151.059 Y99.042 E160.67263
G1 X151.168 Y99.898 E160.72085
G1 X151.168 Y118.83 E161.77871
G1 X151.178 Y119.395 E161.81029
G1 X151.159 Y120.382 E161.86545
G1 X150.964 Y121.256 E161.91548
G1 X150.603 Y121.983 E161.96084
G1 X150.069 Y122.634 E162.00789
G1 X149.389 Y123.172 E162.05634
G1 X148.465 Y123.558 E162.11229
G1 X147.671 Y123.665 E162.15706
G1 X146.854 Y123.676 E162.20272
G1 X146.486 Y123.668 E162.22328
G1 X73.166 Y123.676 E166.32019
G1 X72.139 Y123.659 E166.37758
G1 X71.286 Y123.484 E166.42624
G1 X70.538 Y123.114 E166.47287
G1 X69.938 Y122.645 E166.51542
G1 X69.338 Y121.912 E166.56835
G1 X69.102 Y121.406 E166.59955
G1 X68.837 Y120.558 E166.64919
G1 X68.824 Y119.354 E166.71647
G1 X68.832 Y118.986 E166.73704
G1 X68.841 Y99.777 E167.81038
G1 X68.921 Y99.096 E167.84869
G1 X69.258 Y98.256 E167.89927
G1 X69.751 Y97.519 E167.94881
G1 X70.504 Y96.899 E168.00332
M204 S2000
G0 F7200 X70.759 Y97.31
M204 S500
G1 F1500 X71.57 Y96.93 E168.05336
G1 X72.391 Y96.814 E168.09969
